;FLAVOR:RepRap
;Layer height:0.25
;NOZZLE DIAMETER:0.4
M104 S240
M109 S240
G21 ;metric values
G90 ;absolute positioning
M82 ;set extruder to absolute mode
M107 ;start with the fan off
G28 X0 Y0 ;move X/Y to min endstops
G28 Z0 ;move Z to min endstops
G1 Z15.0 F9000 ;move the platform down 15mm
G92 E0 ;zero the extruded length
G1 F200 E30 ;extrude 3mm of feed stock
G92 E0 ;zero the extruded length again
G1 F9000
M117 Printing...
M107
G1 F1500.0
G0 Z0.35
G1 X 0053.37 Y 0001.55 Z 0.35
 G1 X 0053.36 Y 0000.21 E 0000.03 Z 0.35
 G1 X 0053.37 Y -0001.13 E 0000.05 Z 0.35
 G1 X 0053.38 Y -0002.46 E 0000.08 Z 0.35
 G1 X 0053.40 Y -0003.80 E 0000.11 Z 0.35
 G1 X 0053.42 Y -0005.14 E 0000.13 Z 0.35
 G1 X 0053.45 Y -0006.48 E 0000.16 Z 0.35
 G1 X 0053.49 Y -0007.82 E 0000.19 Z 0.35
 G1 X 0053.53 Y -0009.16 E 0000.21 Z 0.35
 G1 X 0053.57 Y -0010.49 E 0000.24 Z 0.35
 G1 X 0053.62 Y -0011.83 E 0000.27 Z 0.35
 G1 X 0053.68 Y -0013.17 E 0000.29 Z 0.35
 G1 X 0053.74 Y -0014.50 E 0000.32 Z 0.35
 G1 X 0053.80 Y -0015.84 E 0000.35 Z 0.35
 G1 X 0053.87 Y -0017.18 E 0000.37 Z 0.35
 G1 X 0053.94 Y -0018.51 E 0000.40 Z 0.35
 G1 X 0054.02 Y -0019.85 E 0000.43 Z 0.35
 G1 X 0054.10 Y -0021.19 E 0000.46 Z 0.35
 G1 X 0054.19 Y -0022.52 E 0000.48 Z 0.35
 G1 X 0054.27 Y -0023.86 E 0000.51 Z 0.35
 G1 X 0054.36 Y -0025.19 E 0000.54 Z 0.35
 G1 X 0054.46 Y -0026.53 E 0000.56 Z 0.35
 G1 X 0054.55 Y -0027.86 E 0000.59 Z 0.35
 G1 X 0054.65 Y -0029.20 E 0000.62 Z 0.35
 G1 X 0054.76 Y -0030.53 E 0000.64 Z 0.35
 G1 X 0054.86 Y -0031.87 E 0000.67 Z 0.35
 G1 X 0054.97 Y -0033.20 E 0000.70 Z 0.35
 G1 X 0055.08 Y -0034.53 E 0000.72 Z 0.35
 G1 X 0055.19 Y -0035.87 E 0000.75 Z 0.35
 G1 X 0055.31 Y -0037.20 E 0000.78 Z 0.35
 G1 X 0055.43 Y -0038.53 E 0000.80 Z 0.35
 G1 X 0055.54 Y -0039.87 E 0000.83 Z 0.35
 G1 X 0055.67 Y -0041.20 E 0000.86 Z 0.35
 G1 X 0055.79 Y -0042.53 E 0000.88 Z 0.35
 G1 X 0055.91 Y -0043.86 E 0000.91 Z 0.35
 G1 X 0056.04 Y -0045.20 E 0000.94 Z 0.35
 G1 X 0056.17 Y -0046.53 E 0000.96 Z 0.35
 G1 X 0056.30 Y -0047.86 E 0000.99 Z 0.35
 G1 X 0056.43 Y -0049.19 E 0001.02 Z 0.35
 G1 X 0056.56 Y -0050.52 E 0001.04 Z 0.35
 G1 X 0056.70 Y -0051.86 E 0001.07 Z 0.35
 G1 X 0056.83 Y -0053.19 E 0001.10 Z 0.35
 G1 X 0056.97 Y -0054.52 E 0001.12 Z 0.35
 G1 X 0057.11 Y -0055.85 E 0001.15 Z 0.35
 G1 X 0057.24 Y -0057.18 E 0001.18 Z 0.35
 G1 X 0057.38 Y -0058.51 E 0001.20 Z 0.35
 G1 X 0057.52 Y -0059.84 E 0001.23 Z 0.35
 G1 X 0057.66 Y -0061.17 E 0001.26 Z 0.35
 G1 X 0057.80 Y -0062.51 E 0001.28 Z 0.35
 G1 X 0057.94 Y -0063.84 E 0001.31 Z 0.35
 G1 X 0058.08 Y -0065.17 E 0001.34 Z 0.35
 G1 X 0058.22 Y -0066.50 E 0001.37 Z 0.35
 G1 X 0058.36 Y -0067.83 E 0001.39 Z 0.35
 G1 X 0058.50 Y -0069.16 E 0001.42 Z 0.35
 G1 X 0058.64 Y -0070.49 E 0001.45 Z 0.35
 G1 X 0058.77 Y -0071.82 E 0001.47 Z 0.35
 G1 X 0058.91 Y -0073.16 E 0001.50 Z 0.35
 G1 X 0059.05 Y -0074.49 E 0001.53 Z 0.35
 G1 X 0059.18 Y -0075.82 E 0001.55 Z 0.35
 G1 X 0059.31 Y -0077.15 E 0001.58 Z 0.35
 G1 X 0059.44 Y -0078.48 E 0001.61 Z 0.35
 G1 X 0059.56 Y -0079.82 E 0001.63 Z 0.35
 G1 X 0059.68 Y -0081.15 E 0001.66 Z 0.35
 G1 X 0059.80 Y -0082.48 E 0001.69 Z 0.35
 G1 X 0059.91 Y -0083.82 E 0001.71 Z 0.35
 G1 X 0060.01 Y -0085.15 E 0001.74 Z 0.35
 G1 X 0060.10 Y -0086.48 E 0001.77 Z 0.35
 G1 X 0060.19 Y -0087.82 E 0001.79 Z 0.35
 G1 X 0060.26 Y -0089.16 E 0001.82 Z 0.35
 G1 X 0060.32 Y -0090.49 E 0001.85 Z 0.35
 G1 X 0060.35 Y -0091.83 E 0001.87 Z 0.35
 G1 X 0060.36 Y -0093.77 E 0001.91 Z 0.35
 G1 X 0060.36 Y -0096.31 E 0001.96 Z 0.35
 G1 X 0060.36 Y -0098.36 E 0002.00 Z 0.35
 G1 X 0060.36 Y -0099.95 E 0002.04 Z 0.35
 G1 X 0060.36 Y -0101.11 E 0002.06 Z 0.35
 G1 X 0060.36 Y -0101.90 E 0002.07 Z 0.35
 G1 X 0060.36 Y -0102.33 E 0002.08 Z 0.35
 G1 X 0060.36 Y -0102.46 E 0002.09 Z 0.35
 G1 X 0060.36 Y -0101.90 E 0002.10 Z 0.35
 G1 X 0060.36 Y -0100.57 E 0002.12 Z 0.35
 G1 X 0060.36 Y -0098.76 E 0002.16 Z 0.35
 G1 X 0060.36 Y -0096.76 E 0002.20 Z 0.35
 G1 X 0060.36 Y -0094.89 E 0002.24 Z 0.35
 G1 X 0060.36 Y -0093.43 E 0002.27 Z 0.35
 G1 X 0060.36 Y -0092.70 E 0002.28 Z 0.35
 G1 X 0059.98 Y -0092.66 E 0002.29 Z 0.35
 G1 X 0058.56 Y -0092.66 E 0002.32 Z 0.35
 G1 X 0056.61 Y -0092.66 E 0002.36 Z 0.35
 G1 X 0054.75 Y -0092.66 E 0002.39 Z 0.35
 G1 X 0053.54 Y -0092.66 E 0002.42 Z 0.35
 G1 X 0053.42 Y -0092.66 E 0002.42 Z 0.35
 G1 X 0053.84 Y -0092.66 E 0002.43 Z 0.35
 G1 X 0054.77 Y -0092.66 E 0002.45 Z 0.35
 G1 X 0056.26 Y -0092.66 E 0002.48 Z 0.35
 G1 X 0058.39 Y -0092.66 E 0002.52 Z 0.35
 G1 X 0060.74 Y -0092.67 E 0002.57 Z 0.35
 G1 X 0062.07 Y -0092.73 E 0002.59 Z 0.35
 G1 X 0063.41 Y -0092.85 E 0002.62 Z 0.35
 G1 X 0064.73 Y -0093.02 E 0002.65 Z 0.35
 G1 X 0066.06 Y -0093.20 E 0002.67 Z 0.35
 G1 X 0067.38 Y -0093.41 E 0002.70 Z 0.35
 G1 X 0068.70 Y -0093.64 E 0002.73 Z 0.35
 G1 X 0070.02 Y -0093.87 E 0002.75 Z 0.35
 G1 X 0071.34 Y -0094.12 E 0002.78 Z 0.35
 G1 X 0072.65 Y -0094.37 E 0002.81 Z 0.35
 G1 X 0073.96 Y -0094.63 E 0002.83 Z 0.35
 G1 X 0075.27 Y -0094.89 E 0002.86 Z 0.35
 G1 X 0076.59 Y -0095.15 E 0002.89 Z 0.35
 G1 X 0077.90 Y -0095.42 E 0002.91 Z 0.35
 G1 X 0079.21 Y -0095.69 E 0002.94 Z 0.35
 G1 X 0080.52 Y -0095.96 E 0002.97 Z 0.35
 G1 X 0081.83 Y -0096.23 E 0003.00 Z 0.35
 G1 X 0083.14 Y -0096.50 E 0003.02 Z 0.35
 G1 X 0084.45 Y -0096.77 E 0003.05 Z 0.35
 G1 X 0085.76 Y -0097.04 E 0003.08 Z 0.35
 G1 X 0087.07 Y -0097.30 E 0003.10 Z 0.35
 G1 X 0088.39 Y -0097.57 E 0003.13 Z 0.35
 G1 X 0089.70 Y -0097.83 E 0003.16 Z 0.35
 G1 X 0091.01 Y -0098.09 E 0003.18 Z 0.35
 G1 X 0092.33 Y -0098.34 E 0003.21 Z 0.35
 G1 X 0093.64 Y -0098.59 E 0003.24 Z 0.35
 G1 X 0094.96 Y -0098.84 E 0003.26 Z 0.35
 G1 X 0096.27 Y -0099.08 E 0003.29 Z 0.35
 G1 X 0097.59 Y -0099.32 E 0003.32 Z 0.35
 G1 X 0098.91 Y -0099.55 E 0003.34 Z 0.35
 G1 X 0100.23 Y -0099.78 E 0003.37 Z 0.35
 G1 X 0101.55 Y -0100.00 E 0003.40 Z 0.35
 G1 X 0102.87 Y -0100.22 E 0003.42 Z 0.35
 G1 X 0104.19 Y -0100.43 E 0003.45 Z 0.35
 G1 X 0105.51 Y -0100.63 E 0003.48 Z 0.35
 G1 X 0106.84 Y -0100.82 E 0003.50 Z 0.35
 G1 X 0108.16 Y -0101.01 E 0003.53 Z 0.35
 G1 X 0109.49 Y -0101.18 E 0003.56 Z 0.35
 G1 X 0110.82 Y -0101.35 E 0003.58 Z 0.35
 G1 X 0112.15 Y -0101.51 E 0003.61 Z 0.35
 G1 X 0113.48 Y -0101.66 E 0003.64 Z 0.35
 G1 X 0114.81 Y -0101.80 E 0003.66 Z 0.35
 G1 X 0116.14 Y -0101.93 E 0003.69 Z 0.35
 G1 X 0117.47 Y -0102.05 E 0003.72 Z 0.35
 G1 X 0118.81 Y -0102.15 E 0003.74 Z 0.35
 G1 X 0120.14 Y -0102.24 E 0003.77 Z 0.35
 G1 X 0121.48 Y -0102.32 E 0003.80 Z 0.35
 G1 X 0122.82 Y -0102.38 E 0003.82 Z 0.35
 G1 X 0124.15 Y -0102.42 E 0003.85 Z 0.35
 G1 X 0125.49 Y -0102.45 E 0003.88 Z 0.35
 G1 X 0126.83 Y -0102.46 E 0003.91 Z 0.35
 G1 X 0128.17 Y -0102.45 E 0003.93 Z 0.35
 G1 X 0129.51 Y -0102.42 E 0003.96 Z 0.35
 G1 X 0130.84 Y -0102.37 E 0003.99 Z 0.35
 G1 X 0132.18 Y -0102.29 E 0004.01 Z 0.35
 G1 X 0133.51 Y -0102.18 E 0004.04 Z 0.35
 G1 X 0134.85 Y -0102.05 E 0004.07 Z 0.35
 G1 X 0136.17 Y -0101.89 E 0004.09 Z 0.35
 G1 X 0137.50 Y -0101.70 E 0004.12 Z 0.35
 G1 X 0138.82 Y -0101.47 E 0004.15 Z 0.35
 G1 X 0140.13 Y -0101.20 E 0004.17 Z 0.35
 G1 X 0141.43 Y -0100.89 E 0004.20 Z 0.35
 G1 X 0142.72 Y -0100.54 E 0004.23 Z 0.35
 G1 X 0144.00 Y -0100.14 E 0004.25 Z 0.35
 G1 X 0145.26 Y -0099.68 E 0004.28 Z 0.35
 G1 X 0146.49 Y -0099.17 E 0004.31 Z 0.35
 G1 X 0147.70 Y -0098.60 E 0004.33 Z 0.35
 G1 X 0148.88 Y -0097.96 E 0004.36 Z 0.35
 G1 X 0150.02 Y -0097.26 E 0004.39 Z 0.35
 G1 X 0151.11 Y -0096.48 E 0004.41 Z 0.35
 G1 X 0152.14 Y -0095.63 E 0004.44 Z 0.35
 G1 X 0153.11 Y -0094.71 E 0004.47 Z 0.35
 G1 X 0154.01 Y -0093.72 E 0004.49 Z 0.35
 G1 X 0154.83 Y -0092.66 E 0004.52 Z 0.35
 G1 X 0155.57 Y -0091.55 E 0004.55 Z 0.35
 G1 X 0156.26 Y -0090.40 E 0004.57 Z 0.35
 G1 X 0156.89 Y -0089.22 E 0004.60 Z 0.35
 G1 X 0157.48 Y -0088.02 E 0004.63 Z 0.35
 G1 X 0158.04 Y -0086.80 E 0004.65 Z 0.35
 G1 X 0158.55 Y -0085.57 E 0004.68 Z 0.35
 G1 X 0159.03 Y -0084.32 E 0004.71 Z 0.35
 G1 X 0159.49 Y -0083.06 E 0004.73 Z 0.35
 G1 X 0159.92 Y -0081.79 E 0004.76 Z 0.35
 G1 X 0160.32 Y -0080.52 E 0004.79 Z 0.35
 G1 X 0160.70 Y -0079.23 E 0004.82 Z 0.35
 G1 X 0161.07 Y -0077.95 E 0004.84 Z 0.35
 G1 X 0161.41 Y -0076.65 E 0004.87 Z 0.35
 G1 X 0161.74 Y -0075.36 E 0004.90 Z 0.35
 G1 X 0162.05 Y -0074.05 E 0004.92 Z 0.35
 G1 X 0162.34 Y -0072.75 E 0004.95 Z 0.35
 G1 X 0162.62 Y -0071.44 E 0004.98 Z 0.35
 G1 X 0162.89 Y -0070.13 E 0005.00 Z 0.35
 G1 X 0163.15 Y -0068.81 E 0005.03 Z 0.35
 G1 X 0163.39 Y -0067.50 E 0005.06 Z 0.35
 G1 X 0163.62 Y -0066.18 E 0005.08 Z 0.35
 G1 X 0163.84 Y -0064.86 E 0005.11 Z 0.35
 G1 X 0164.05 Y -0063.54 E 0005.14 Z 0.35
 G1 X 0164.25 Y -0062.21 E 0005.16 Z 0.35
 G1 X 0164.44 Y -0060.89 E 0005.19 Z 0.35
 G1 X 0164.61 Y -0059.56 E 0005.22 Z 0.35
 G1 X 0164.78 Y -0058.24 E 0005.24 Z 0.35
 G1 X 0164.95 Y -0056.91 E 0005.27 Z 0.35
 G1 X 0165.10 Y -0055.58 E 0005.30 Z 0.35
 G1 X 0165.24 Y -0054.25 E 0005.32 Z 0.35
 G1 X 0165.38 Y -0052.92 E 0005.35 Z 0.35
 G1 X 0165.51 Y -0051.58 E 0005.38 Z 0.35
 G1 X 0165.63 Y -0050.25 E 0005.40 Z 0.35
 G1 X 0165.74 Y -0048.92 E 0005.43 Z 0.35
 G1 X 0165.85 Y -0047.58 E 0005.46 Z 0.35
 G1 X 0165.95 Y -0046.25 E 0005.48 Z 0.35
 G1 X 0166.04 Y -0044.91 E 0005.51 Z 0.35
 G1 X 0166.13 Y -0043.58 E 0005.54 Z 0.35
 G1 X 0166.20 Y -0042.24 E 0005.56 Z 0.35
 G1 X 0166.27 Y -0040.90 E 0005.59 Z 0.35
 G1 X 0166.34 Y -0039.57 E 0005.62 Z 0.35
 G1 X 0166.40 Y -0038.23 E 0005.64 Z 0.35
 G1 X 0166.45 Y -0036.89 E 0005.67 Z 0.35
 G1 X 0166.49 Y -0035.56 E 0005.70 Z 0.35
 G1 X 0166.53 Y -0034.22 E 0005.73 Z 0.35
 G1 X 0166.57 Y -0032.88 E 0005.75 Z 0.35
 G1 X 0166.59 Y -0031.54 E 0005.78 Z 0.35
 G1 X 0166.61 Y -0030.20 E 0005.81 Z 0.35
 G1 X 0166.63 Y -0028.87 E 0005.83 Z 0.35
 G1 X 0166.63 Y -0027.53 E 0005.86 Z 0.35
 G1 X 0166.64 Y -0026.19 E 0005.89 Z 0.35
 G1 X 0166.63 Y -0024.85 E 0005.91 Z 0.35
 G1 X 0166.62 Y -0023.51 E 0005.94 Z 0.35
 G1 X 0166.60 Y -0022.17 E 0005.97 Z 0.35
 G1 X 0166.58 Y -0020.84 E 0005.99 Z 0.35
 G1 X 0166.55 Y -0019.50 E 0006.02 Z 0.35
 G1 X 0166.51 Y -0018.16 E 0006.05 Z 0.35
 G1 X 0166.47 Y -0016.82 E 0006.07 Z 0.35
 G1 X 0166.42 Y -0015.48 E 0006.10 Z 0.35
 G1 X 0166.37 Y -0014.15 E 0006.13 Z 0.35
 G1 X 0166.31 Y -0012.81 E 0006.15 Z 0.35
 G1 X 0166.24 Y -0011.47 E 0006.18 Z 0.35
 G1 X 0166.16 Y -0010.14 E 0006.21 Z 0.35
 G1 X 0166.08 Y -0008.80 E 0006.23 Z 0.35
 G1 X 0165.99 Y -0007.47 E 0006.26 Z 0.35
 G1 X 0165.90 Y -0006.13 E 0006.29 Z 0.35
 G1 X 0165.80 Y -0004.80 E 0006.31 Z 0.35
 G1 X 0165.69 Y -0003.46 E 0006.34 Z 0.35
 G1 X 0165.57 Y -0002.13 E 0006.37 Z 0.35
 G1 X 0165.44 Y -0000.80 E 0006.39 Z 0.35
 G1 X 0165.31 Y 0000.53 E 0006.42 Z 0.35
 G1 X 0165.17 Y 0001.86 E 0006.45 Z 0.35
 G1 X 0165.02 Y 0003.20 E 0006.47 Z 0.35
 G1 X 0164.87 Y 0004.52 E 0006.50 Z 0.35
 G1 X 0164.70 Y 0005.85 E 0006.53 Z 0.35
 G1 X 0164.52 Y 0007.18 E 0006.55 Z 0.35
 G1 X 0164.34 Y 0008.50 E 0006.58 Z 0.35
 G1 X 0164.15 Y 0009.83 E 0006.61 Z 0.35
 G1 X 0163.94 Y 0011.15 E 0006.64 Z 0.35
 G1 X 0163.73 Y 0012.47 E 0006.66 Z 0.35
 G1 X 0163.50 Y 0013.79 E 0006.69 Z 0.35
 G1 X 0163.27 Y 0015.11 E 0006.72 Z 0.35
 G1 X 0163.02 Y 0016.42 E 0006.74 Z 0.35
 G1 X 0162.76 Y 0017.74 E 0006.77 Z 0.35
 G1 X 0162.48 Y 0019.05 E 0006.80 Z 0.35
 G1 X 0162.20 Y 0020.35 E 0006.82 Z 0.35
 G1 X 0161.89 Y 0021.66 E 0006.85 Z 0.35
 G1 X 0161.57 Y 0022.96 E 0006.88 Z 0.35
 G1 X 0161.24 Y 0024.25 E 0006.90 Z 0.35
 G1 X 0160.89 Y 0025.54 E 0006.93 Z 0.35
 G1 X 0160.51 Y 0026.83 E 0006.96 Z 0.35
 G1 X 0160.12 Y 0028.11 E 0006.98 Z 0.35
 G1 X 0159.70 Y 0029.38 E 0007.01 Z 0.35
 G1 X 0159.26 Y 0030.64 E 0007.04 Z 0.35
 G1 X 0158.79 Y 0031.90 E 0007.06 Z 0.35
 G1 X 0158.29 Y 0033.14 E 0007.09 Z 0.35
 G1 X 0157.76 Y 0034.37 E 0007.12 Z 0.35
 G1 X 0157.19 Y 0035.58 E 0007.14 Z 0.35
 G1 X 0156.58 Y 0036.77 E 0007.17 Z 0.35
 G1 X 0155.92 Y 0037.93 E 0007.20 Z 0.35
 G1 X 0155.20 Y 0039.06 E 0007.22 Z 0.35
 G1 X 0154.43 Y 0040.15 E 0007.25 Z 0.35
 G1 X 0153.58 Y 0041.19 E 0007.28 Z 0.35
 G1 X 0152.68 Y 0042.18 E 0007.30 Z 0.35
 G1 X 0151.73 Y 0043.12 E 0007.33 Z 0.35
 G1 X 0150.74 Y 0044.02 E 0007.36 Z 0.35
 G1 X 0149.70 Y 0044.86 E 0007.38 Z 0.35
 G1 X 0148.63 Y 0045.67 E 0007.41 Z 0.35
 G1 X 0147.53 Y 0046.43 E 0007.44 Z 0.35
 G1 X 0146.40 Y 0047.15 E 0007.46 Z 0.35
 G1 X 0145.25 Y 0047.83 E 0007.49 Z 0.35
 G1 X 0144.07 Y 0048.47 E 0007.52 Z 0.35
 G1 X 0142.88 Y 0049.08 E 0007.55 Z 0.35
 G1 X 0141.67 Y 0049.65 E 0007.57 Z 0.35
 G1 X 0140.45 Y 0050.19 E 0007.60 Z 0.35
 G1 X 0139.21 Y 0050.71 E 0007.63 Z 0.35
 G1 X 0137.96 Y 0051.19 E 0007.65 Z 0.35
 G1 X 0136.71 Y 0051.64 E 0007.68 Z 0.35
 G1 X 0135.44 Y 0052.07 E 0007.71 Z 0.35
 G1 X 0134.16 Y 0052.47 E 0007.73 Z 0.35
 G1 X 0132.88 Y 0052.85 E 0007.76 Z 0.35
 G1 X 0131.59 Y 0053.20 E 0007.79 Z 0.35
 G1 X 0130.29 Y 0053.53 E 0007.81 Z 0.35
 G1 X 0128.99 Y 0053.84 E 0007.84 Z 0.35
 G1 X 0127.68 Y 0054.13 E 0007.87 Z 0.35
 G1 X 0126.37 Y 0054.39 E 0007.89 Z 0.35
 G1 X 0125.05 Y 0054.64 E 0007.92 Z 0.35
 G1 X 0123.73 Y 0054.86 E 0007.95 Z 0.35
 G1 X 0122.41 Y 0055.07 E 0007.97 Z 0.35
 G1 X 0121.09 Y 0055.26 E 0008.00 Z 0.35
 G1 X 0119.76 Y 0055.42 E 0008.03 Z 0.35
 G1 X 0118.43 Y 0055.57 E 0008.05 Z 0.35
 G1 X 0117.10 Y 0055.71 E 0008.08 Z 0.35
 G1 X 0115.76 Y 0055.82 E 0008.11 Z 0.35
 G1 X 0114.43 Y 0055.92 E 0008.13 Z 0.35
 G1 X 0113.09 Y 0055.99 E 0008.16 Z 0.35
 G1 X 0111.75 Y 0056.06 E 0008.19 Z 0.35
 G1 X 0110.42 Y 0056.10 E 0008.21 Z 0.35
 G1 X 0109.08 Y 0056.13 E 0008.24 Z 0.35
 G1 X 0107.74 Y 0056.14 E 0008.27 Z 0.35
 G1 X 0106.40 Y 0056.13 E 0008.29 Z 0.35
 G1 X 0105.06 Y 0056.11 E 0008.32 Z 0.35
 G1 X 0103.73 Y 0056.07 E 0008.35 Z 0.35
 G1 X 0102.39 Y 0056.01 E 0008.38 Z 0.35
 G1 X 0101.05 Y 0055.93 E 0008.40 Z 0.35
 G1 X 0099.72 Y 0055.84 E 0008.43 Z 0.35
 G1 X 0098.38 Y 0055.73 E 0008.46 Z 0.35
 G1 X 0097.05 Y 0055.60 E 0008.48 Z 0.35
 G1 X 0095.72 Y 0055.46 E 0008.51 Z 0.35
 G1 X 0094.39 Y 0055.29 E 0008.54 Z 0.35
 G1 X 0093.07 Y 0055.11 E 0008.56 Z 0.35
 G1 X 0091.74 Y 0054.91 E 0008.59 Z 0.35
 G1 X 0090.42 Y 0054.69 E 0008.62 Z 0.35
 G1 X 0089.11 Y 0054.45 E 0008.64 Z 0.35
 G1 X 0087.79 Y 0054.19 E 0008.67 Z 0.35
 G1 X 0086.49 Y 0053.91 E 0008.70 Z 0.35
 G1 X 0085.18 Y 0053.60 E 0008.72 Z 0.35
 G1 X 0083.88 Y 0053.28 E 0008.75 Z 0.35
 G1 X 0082.59 Y 0052.93 E 0008.78 Z 0.35
 G1 X 0081.31 Y 0052.56 E 0008.80 Z 0.35
 G1 X 0080.03 Y 0052.16 E 0008.83 Z 0.35
 G1 X 0078.76 Y 0051.74 E 0008.86 Z 0.35
 G1 X 0077.50 Y 0051.29 E 0008.88 Z 0.35
 G1 X 0076.25 Y 0050.81 E 0008.91 Z 0.35
 G1 X 0075.01 Y 0050.31 E 0008.94 Z 0.35
 G1 X 0073.78 Y 0049.77 E 0008.96 Z 0.35
 G1 X 0072.57 Y 0049.21 E 0008.99 Z 0.35
 G1 X 0071.37 Y 0048.61 E 0009.02 Z 0.35
 G1 X 0070.20 Y 0047.97 E 0009.04 Z 0.35
 G1 X 0069.04 Y 0047.30 E 0009.07 Z 0.35
 G1 X 0067.90 Y 0046.59 E 0009.10 Z 0.35
 G1 X 0066.80 Y 0045.84 E 0009.12 Z 0.35
 G1 X 0065.72 Y 0045.04 E 0009.15 Z 0.35
 G1 X 0064.68 Y 0044.21 E 0009.18 Z 0.35
 G1 X 0063.67 Y 0043.32 E 0009.20 Z 0.35
 G1 X 0062.71 Y 0042.39 E 0009.23 Z 0.35
 G1 X 0061.80 Y 0041.41 E 0009.26 Z 0.35
 G1 X 0060.94 Y 0040.38 E 0009.29 Z 0.35
 G1 X 0060.15 Y 0039.30 E 0009.31 Z 0.35
 G1 X 0059.44 Y 0038.17 E 0009.34 Z 0.35
 G1 X 0058.79 Y 0037.00 E 0009.37 Z 0.35
 G1 X 0058.22 Y 0035.79 E 0009.39 Z 0.35
 G1 X 0057.70 Y 0034.56 E 0009.42 Z 0.35
 G1 X 0057.23 Y 0033.30 E 0009.45 Z 0.35
 G1 X 0056.81 Y 0032.03 E 0009.47 Z 0.35
 G1 X 0056.42 Y 0030.75 E 0009.50 Z 0.35
 G1 X 0056.08 Y 0029.46 E 0009.53 Z 0.35
 G1 X 0055.76 Y 0028.16 E 0009.55 Z 0.35
 G1 X 0055.48 Y 0026.85 E 0009.58 Z 0.35
 G1 X 0055.22 Y 0025.54 E 0009.61 Z 0.35
 G1 X 0054.98 Y 0024.22 E 0009.63 Z 0.35
 G1 X 0054.77 Y 0022.90 E 0009.66 Z 0.35
 G1 X 0054.58 Y 0021.57 E 0009.69 Z 0.35
 G1 X 0054.41 Y 0020.25 E 0009.71 Z 0.35
 G1 X 0054.25 Y 0018.92 E 0009.74 Z 0.35
 G1 X 0054.11 Y 0017.59 E 0009.77 Z 0.35
 G1 X 0053.98 Y 0016.25 E 0009.79 Z 0.35
 G1 X 0053.87 Y 0014.92 E 0009.82 Z 0.35
 G1 X 0053.77 Y 0013.59 E 0009.85 Z 0.35
 G1 X 0053.69 Y 0012.25 E 0009.87 Z 0.35
 G1 X 0053.61 Y 0010.91 E 0009.90 Z 0.35
 G1 X 0053.55 Y 0009.58 E 0009.93 Z 0.35
 G1 X 0053.50 Y 0008.24 E 0009.95 Z 0.35
