;FLAVOR:RepRap
;Layer height:0.25
;NOZZLE DIAMETER:0.4
M104 S240
M109 S240
G21 ;metric values
G90 ;absolute positioning
M82 ;set extruder to absolute mode
M107 ;start with the fan off
G28 X0 Y0 ;move X/Y to min endstops
G28 Z0 ;move Z to min endstops
G1 Z15.0 F9000 ;move the platform down 15mm
G92 E0 ;zero the extruded length
G1 F200 E30 ;extrude 3mm of feed stock
G92 E0 ;zero the extruded length again
G1 F9000
M117 Printing...
M107
G1 F1500.0
G0 Z0.35
G1 X 0062.77 Y 0001.93 Z 0.35
 G1 X 0062.77 Y 0000.59 E 0000.03 Z 0.35
 G1 X 0062.77 Y -0000.75 E 0000.05 Z 0.35
 G1 X 0062.77 Y -0002.09 E 0000.08 Z 0.35
 G1 X 0062.77 Y -0003.43 E 0000.11 Z 0.35
 G1 X 0062.77 Y -0004.78 E 0000.13 Z 0.35
 G1 X 0062.77 Y -0006.12 E 0000.16 Z 0.35
 G1 X 0062.77 Y -0007.46 E 0000.19 Z 0.35
 G1 X 0062.77 Y -0008.80 E 0000.21 Z 0.35
 G1 X 0062.77 Y -0010.14 E 0000.24 Z 0.35
 G1 X 0062.77 Y -0011.49 E 0000.27 Z 0.35
 G1 X 0062.77 Y -0012.83 E 0000.30 Z 0.35
 G1 X 0062.77 Y -0014.17 E 0000.32 Z 0.35
 G1 X 0062.77 Y -0015.51 E 0000.35 Z 0.35
 G1 X 0062.77 Y -0016.85 E 0000.38 Z 0.35
 G1 X 0062.77 Y -0018.20 E 0000.40 Z 0.35
 G1 X 0062.77 Y -0019.54 E 0000.43 Z 0.35
 G1 X 0062.77 Y -0020.87 E 0000.46 Z 0.35
 G1 X 0062.66 Y -0022.22 E 0000.48 Z 0.35
 G1 X 0062.56 Y -0023.56 E 0000.51 Z 0.35
 G1 X 0062.86 Y -0024.84 E 0000.54 Z 0.35
 G1 X 0064.16 Y -0024.98 E 0000.56 Z 0.35
 G1 X 0065.50 Y -0024.74 E 0000.59 Z 0.35
 G1 X 0066.83 Y -0024.74 E 0000.62 Z 0.35
 G1 X 0068.17 Y -0024.74 E 0000.64 Z 0.35
 G1 X 0069.52 Y -0024.74 E 0000.67 Z 0.35
 G1 X 0070.86 Y -0024.74 E 0000.70 Z 0.35
 G1 X 0072.20 Y -0024.74 E 0000.72 Z 0.35
 G1 X 0073.54 Y -0024.74 E 0000.75 Z 0.35
 G1 X 0074.88 Y -0024.74 E 0000.78 Z 0.35
 G1 X 0076.23 Y -0024.74 E 0000.80 Z 0.35
 G1 X 0077.57 Y -0024.74 E 0000.83 Z 0.35
 G1 X 0078.91 Y -0024.74 E 0000.86 Z 0.35
 G1 X 0080.25 Y -0024.74 E 0000.88 Z 0.35
 G1 X 0081.59 Y -0024.74 E 0000.91 Z 0.35
 G1 X 0082.94 Y -0024.74 E 0000.94 Z 0.35
 G1 X 0084.28 Y -0024.74 E 0000.97 Z 0.35
 G1 X 0085.62 Y -0024.74 E 0000.99 Z 0.35
 G1 X 0086.96 Y -0024.74 E 0001.02 Z 0.35
 G1 X 0088.30 Y -0024.74 E 0001.05 Z 0.35
 G1 X 0089.65 Y -0024.74 E 0001.07 Z 0.35
 G1 X 0090.99 Y -0024.74 E 0001.10 Z 0.35
 G1 X 0092.33 Y -0024.74 E 0001.13 Z 0.35
 G1 X 0093.67 Y -0024.74 E 0001.15 Z 0.35
 G1 X 0095.01 Y -0024.74 E 0001.18 Z 0.35
 G1 X 0096.35 Y -0024.74 E 0001.21 Z 0.35
 G1 X 0097.70 Y -0024.74 E 0001.23 Z 0.35
 G1 X 0099.04 Y -0024.74 E 0001.26 Z 0.35
 G1 X 0100.38 Y -0024.74 E 0001.29 Z 0.35
 G1 X 0101.72 Y -0024.74 E 0001.31 Z 0.35
 G1 X 0103.06 Y -0024.74 E 0001.34 Z 0.35
 G1 X 0104.41 Y -0024.74 E 0001.37 Z 0.35
 G1 X 0105.75 Y -0024.74 E 0001.39 Z 0.35
 G1 X 0107.09 Y -0024.74 E 0001.42 Z 0.35
 G1 X 0108.43 Y -0024.74 E 0001.45 Z 0.35
 G1 X 0109.78 Y -0024.74 E 0001.48 Z 0.35
 G1 X 0111.12 Y -0024.74 E 0001.50 Z 0.35
 G1 X 0112.46 Y -0024.74 E 0001.53 Z 0.35
 G1 X 0113.80 Y -0024.74 E 0001.56 Z 0.35
 G1 X 0115.14 Y -0024.74 E 0001.58 Z 0.35
 G1 X 0116.48 Y -0024.74 E 0001.61 Z 0.35
 G1 X 0117.83 Y -0024.74 E 0001.64 Z 0.35
 G1 X 0119.17 Y -0024.74 E 0001.66 Z 0.35
 G1 X 0120.51 Y -0024.74 E 0001.69 Z 0.35
 G1 X 0121.85 Y -0024.74 E 0001.72 Z 0.35
 G1 X 0123.19 Y -0024.74 E 0001.74 Z 0.35
 G1 X 0124.54 Y -0024.74 E 0001.77 Z 0.35
 G1 X 0125.88 Y -0024.74 E 0001.80 Z 0.35
 G1 X 0127.22 Y -0024.74 E 0001.82 Z 0.35
 G1 X 0128.56 Y -0024.74 E 0001.85 Z 0.35
 G1 X 0129.90 Y -0024.74 E 0001.88 Z 0.35
 G1 X 0131.25 Y -0024.74 E 0001.90 Z 0.35
 G1 X 0132.59 Y -0024.74 E 0001.93 Z 0.35
 G1 X 0133.93 Y -0024.74 E 0001.96 Z 0.35
 G1 X 0135.27 Y -0024.74 E 0001.99 Z 0.35
 G1 X 0136.61 Y -0024.74 E 0002.01 Z 0.35
 G1 X 0137.96 Y -0024.74 E 0002.04 Z 0.35
 G1 X 0139.30 Y -0024.74 E 0002.07 Z 0.35
 G1 X 0140.64 Y -0024.74 E 0002.09 Z 0.35
 G1 X 0141.98 Y -0024.74 E 0002.12 Z 0.35
 G1 X 0143.32 Y -0024.74 E 0002.15 Z 0.35
 G1 X 0144.67 Y -0024.74 E 0002.17 Z 0.35
 G1 X 0146.01 Y -0024.74 E 0002.20 Z 0.35
 G1 X 0147.35 Y -0024.74 E 0002.23 Z 0.35
 G1 X 0148.69 Y -0024.74 E 0002.25 Z 0.35
 G1 X 0150.03 Y -0024.74 E 0002.28 Z 0.35
 G1 X 0151.38 Y -0024.74 E 0002.31 Z 0.35
 G1 X 0152.72 Y -0024.74 E 0002.33 Z 0.35
 G1 X 0154.06 Y -0024.74 E 0002.36 Z 0.35
 G1 X 0155.39 Y -0024.89 E 0002.39 Z 0.35
 G1 X 0156.72 Y -0025.03 E 0002.41 Z 0.35
 G1 X 0157.44 Y -0024.04 E 0002.44 Z 0.35
 G1 X 0157.40 Y -0022.68 E 0002.47 Z 0.35
 G1 X 0157.27 Y -0021.34 E 0002.49 Z 0.35
 G1 X 0157.24 Y -0020.00 E 0002.52 Z 0.35
 G1 X 0157.24 Y -0018.66 E 0002.55 Z 0.35
 G1 X 0157.24 Y -0017.32 E 0002.57 Z 0.35
 G1 X 0157.24 Y -0015.98 E 0002.60 Z 0.35
 G1 X 0157.24 Y -0014.63 E 0002.63 Z 0.35
 G1 X 0157.24 Y -0013.29 E 0002.65 Z 0.35
 G1 X 0157.24 Y -0011.95 E 0002.68 Z 0.35
 G1 X 0157.24 Y -0010.61 E 0002.71 Z 0.35
 G1 X 0157.24 Y -0009.27 E 0002.73 Z 0.35
 G1 X 0157.24 Y -0007.93 E 0002.76 Z 0.35
 G1 X 0157.24 Y -0006.58 E 0002.79 Z 0.35
 G1 X 0157.24 Y -0005.24 E 0002.81 Z 0.35
 G1 X 0157.24 Y -0003.90 E 0002.84 Z 0.35
 G1 X 0157.24 Y -0002.56 E 0002.87 Z 0.35
 G1 X 0157.24 Y -0001.22 E 0002.90 Z 0.35
 G1 X 0157.24 Y 0000.13 E 0002.92 Z 0.35
 G1 X 0157.24 Y 0001.47 E 0002.95 Z 0.35
 G1 X 0157.24 Y 0002.81 E 0002.98 Z 0.35
 G1 X 0157.24 Y 0004.15 E 0003.00 Z 0.35
 G1 X 0157.24 Y 0005.49 E 0003.03 Z 0.35
 G1 X 0157.24 Y 0006.84 E 0003.06 Z 0.35
 G1 X 0157.24 Y 0008.18 E 0003.08 Z 0.35
 G1 X 0157.24 Y 0009.52 E 0003.11 Z 0.35
 G1 X 0157.24 Y 0010.86 E 0003.14 Z 0.35
 G1 X 0157.24 Y 0012.20 E 0003.16 Z 0.35
 G1 X 0157.24 Y 0013.55 E 0003.19 Z 0.35
 G1 X 0157.24 Y 0014.89 E 0003.22 Z 0.35
 G1 X 0157.24 Y 0016.23 E 0003.24 Z 0.35
 G1 X 0157.24 Y 0017.57 E 0003.27 Z 0.35
 G1 X 0157.24 Y 0018.91 E 0003.30 Z 0.35
 G1 X 0157.24 Y 0020.26 E 0003.32 Z 0.35
 G1 X 0157.24 Y 0021.60 E 0003.35 Z 0.35
 G1 X 0157.24 Y 0022.94 E 0003.38 Z 0.35
 G1 X 0157.24 Y 0024.28 E 0003.41 Z 0.35
 G1 X 0157.24 Y 0025.62 E 0003.43 Z 0.35
 G1 X 0157.24 Y 0026.97 E 0003.46 Z 0.35
 G1 X 0157.24 Y 0028.31 E 0003.49 Z 0.35
 G1 X 0157.24 Y 0029.65 E 0003.51 Z 0.35
 G1 X 0157.24 Y 0030.99 E 0003.54 Z 0.35
 G1 X 0157.24 Y 0032.33 E 0003.57 Z 0.35
 G1 X 0157.24 Y 0033.68 E 0003.59 Z 0.35
 G1 X 0157.24 Y 0035.02 E 0003.62 Z 0.35
 G1 X 0157.24 Y 0036.36 E 0003.65 Z 0.35
 G1 X 0157.24 Y 0037.70 E 0003.67 Z 0.35
 G1 X 0157.24 Y 0039.04 E 0003.70 Z 0.35
 G1 X 0157.24 Y 0040.39 E 0003.73 Z 0.35
 G1 X 0157.24 Y 0041.73 E 0003.75 Z 0.35
 G1 X 0157.24 Y 0043.07 E 0003.78 Z 0.35
 G1 X 0157.24 Y 0044.41 E 0003.81 Z 0.35
 G1 X 0157.24 Y 0045.75 E 0003.83 Z 0.35
 G1 X 0157.24 Y 0047.10 E 0003.86 Z 0.35
 G1 X 0157.24 Y 0048.44 E 0003.89 Z 0.35
 G1 X 0157.24 Y 0049.78 E 0003.92 Z 0.35
 G1 X 0157.24 Y 0051.12 E 0003.94 Z 0.35
 G1 X 0157.24 Y 0052.46 E 0003.97 Z 0.35
 G1 X 0157.24 Y 0053.81 E 0004.00 Z 0.35
 G1 X 0157.24 Y 0055.15 E 0004.02 Z 0.35
 G1 X 0157.24 Y 0056.49 E 0004.05 Z 0.35
 G1 X 0157.24 Y 0057.83 E 0004.08 Z 0.35
 G1 X 0157.24 Y 0059.17 E 0004.10 Z 0.35
 G1 X 0157.24 Y 0060.52 E 0004.13 Z 0.35
 G1 X 0157.24 Y 0061.86 E 0004.16 Z 0.35
 G1 X 0157.24 Y 0063.20 E 0004.18 Z 0.35
 G1 X 0157.24 Y 0064.54 E 0004.21 Z 0.35
 G1 X 0157.24 Y 0065.88 E 0004.24 Z 0.35
 G1 X 0157.24 Y 0067.23 E 0004.26 Z 0.35
 G1 X 0157.24 Y 0068.57 E 0004.29 Z 0.35
 G1 X 0157.24 Y 0069.91 E 0004.32 Z 0.35
 G1 X 0157.24 Y 0071.25 E 0004.34 Z 0.35
 G1 X 0157.24 Y 0072.59 E 0004.37 Z 0.35
 G1 X 0157.24 Y 0073.94 E 0004.40 Z 0.35
 G1 X 0157.24 Y 0075.28 E 0004.43 Z 0.35
 G1 X 0157.24 Y 0076.62 E 0004.45 Z 0.35
 G1 X 0157.24 Y 0077.96 E 0004.48 Z 0.35
 G1 X 0157.24 Y 0079.30 E 0004.51 Z 0.35
 G1 X 0157.24 Y 0080.65 E 0004.53 Z 0.35
 G1 X 0157.24 Y 0081.99 E 0004.56 Z 0.35
 G1 X 0157.24 Y 0083.33 E 0004.59 Z 0.35
 G1 X 0157.24 Y 0084.67 E 0004.61 Z 0.35
 G1 X 0157.24 Y 0086.01 E 0004.64 Z 0.35
 G1 X 0157.24 Y 0087.36 E 0004.67 Z 0.35
 G1 X 0157.24 Y 0088.70 E 0004.69 Z 0.35
 G1 X 0157.24 Y 0090.04 E 0004.72 Z 0.35
 G1 X 0157.24 Y 0091.38 E 0004.75 Z 0.35
 G1 X 0157.24 Y 0092.72 E 0004.77 Z 0.35
 G1 X 0157.24 Y 0094.07 E 0004.80 Z 0.35
 G1 X 0157.24 Y 0095.41 E 0004.83 Z 0.35
 G1 X 0157.24 Y 0096.75 E 0004.85 Z 0.35
 G1 X 0157.24 Y 0098.09 E 0004.88 Z 0.35
 G1 X 0157.24 Y 0099.43 E 0004.91 Z 0.35
 G1 X 0157.24 Y 0100.78 E 0004.94 Z 0.35
 G1 X 0157.24 Y 0102.12 E 0004.96 Z 0.35
 G1 X 0157.24 Y 0103.46 E 0004.99 Z 0.35
 G1 X 0157.24 Y 0104.80 E 0005.02 Z 0.35
 G1 X 0157.24 Y 0106.15 E 0005.04 Z 0.35
 G1 X 0157.24 Y 0107.49 E 0005.07 Z 0.35
 G1 X 0157.03 Y 0107.53 E 0005.07 Z 0.35
 G1 X 0155.65 Y 0107.53 E 0005.10 Z 0.35
 G1 X 0154.31 Y 0107.53 E 0005.13 Z 0.35
 G1 X 0152.96 Y 0107.53 E 0005.16 Z 0.35
 G1 X 0151.62 Y 0107.53 E 0005.18 Z 0.35
 G1 X 0150.28 Y 0107.53 E 0005.21 Z 0.35
 G1 X 0148.94 Y 0107.53 E 0005.24 Z 0.35
 G1 X 0147.60 Y 0107.53 E 0005.26 Z 0.35
 G1 X 0146.26 Y 0107.53 E 0005.29 Z 0.35
 G1 X 0144.91 Y 0107.53 E 0005.32 Z 0.35
 G1 X 0143.57 Y 0107.53 E 0005.34 Z 0.35
 G1 X 0142.23 Y 0107.53 E 0005.37 Z 0.35
 G1 X 0140.89 Y 0107.53 E 0005.40 Z 0.35
 G1 X 0139.55 Y 0107.53 E 0005.42 Z 0.35
 G1 X 0138.20 Y 0107.53 E 0005.45 Z 0.35
 G1 X 0136.86 Y 0107.53 E 0005.48 Z 0.35
 G1 X 0135.52 Y 0107.53 E 0005.50 Z 0.35
 G1 X 0134.18 Y 0107.53 E 0005.53 Z 0.35
 G1 X 0132.84 Y 0107.53 E 0005.56 Z 0.35
 G1 X 0131.49 Y 0107.53 E 0005.58 Z 0.35
 G1 X 0130.15 Y 0107.53 E 0005.61 Z 0.35
 G1 X 0128.81 Y 0107.53 E 0005.64 Z 0.35
 G1 X 0127.47 Y 0107.53 E 0005.67 Z 0.35
 G1 X 0126.13 Y 0107.53 E 0005.69 Z 0.35
 G1 X 0124.78 Y 0107.53 E 0005.72 Z 0.35
 G1 X 0123.44 Y 0107.53 E 0005.75 Z 0.35
 G1 X 0122.10 Y 0107.53 E 0005.77 Z 0.35
 G1 X 0120.76 Y 0107.53 E 0005.80 Z 0.35
 G1 X 0119.42 Y 0107.53 E 0005.83 Z 0.35
 G1 X 0118.07 Y 0107.53 E 0005.85 Z 0.35
 G1 X 0116.73 Y 0107.53 E 0005.88 Z 0.35
 G1 X 0115.39 Y 0107.53 E 0005.91 Z 0.35
 G1 X 0114.05 Y 0107.53 E 0005.93 Z 0.35
 G1 X 0112.71 Y 0107.53 E 0005.96 Z 0.35
 G1 X 0111.36 Y 0107.53 E 0005.99 Z 0.35
 G1 X 0110.02 Y 0107.53 E 0006.01 Z 0.35
 G1 X 0108.68 Y 0107.53 E 0006.04 Z 0.35
 G1 X 0107.34 Y 0107.53 E 0006.07 Z 0.35
 G1 X 0106.00 Y 0107.53 E 0006.09 Z 0.35
 G1 X 0104.65 Y 0107.53 E 0006.12 Z 0.35
 G1 X 0103.31 Y 0107.53 E 0006.15 Z 0.35
 G1 X 0101.97 Y 0107.53 E 0006.18 Z 0.35
 G1 X 0100.63 Y 0107.53 E 0006.20 Z 0.35
 G1 X 0099.29 Y 0107.53 E 0006.23 Z 0.35
 G1 X 0097.94 Y 0107.53 E 0006.26 Z 0.35
 G1 X 0096.60 Y 0107.53 E 0006.28 Z 0.35
 G1 X 0095.26 Y 0107.53 E 0006.31 Z 0.35
 G1 X 0093.92 Y 0107.53 E 0006.34 Z 0.35
 G1 X 0092.58 Y 0107.53 E 0006.36 Z 0.35
 G1 X 0091.23 Y 0107.53 E 0006.39 Z 0.35
 G1 X 0089.89 Y 0107.53 E 0006.42 Z 0.35
 G1 X 0088.55 Y 0107.53 E 0006.44 Z 0.35
 G1 X 0087.21 Y 0107.53 E 0006.47 Z 0.35
 G1 X 0085.87 Y 0107.53 E 0006.50 Z 0.35
 G1 X 0084.52 Y 0107.53 E 0006.52 Z 0.35
 G1 X 0083.18 Y 0107.53 E 0006.55 Z 0.35
 G1 X 0081.84 Y 0107.53 E 0006.58 Z 0.35
 G1 X 0080.50 Y 0107.53 E 0006.60 Z 0.35
 G1 X 0079.16 Y 0107.53 E 0006.63 Z 0.35
 G1 X 0077.81 Y 0107.53 E 0006.66 Z 0.35
 G1 X 0076.47 Y 0107.53 E 0006.69 Z 0.35
 G1 X 0075.13 Y 0107.53 E 0006.71 Z 0.35
 G1 X 0073.79 Y 0107.53 E 0006.74 Z 0.35
 G1 X 0072.45 Y 0107.53 E 0006.77 Z 0.35
 G1 X 0071.10 Y 0107.53 E 0006.79 Z 0.35
 G1 X 0069.76 Y 0107.53 E 0006.82 Z 0.35
 G1 X 0068.42 Y 0107.53 E 0006.85 Z 0.35
 G1 X 0067.08 Y 0107.53 E 0006.87 Z 0.35
 G1 X 0065.74 Y 0107.53 E 0006.90 Z 0.35
 G1 X 0064.41 Y 0107.73 E 0006.93 Z 0.35
 G1 X 0063.07 Y 0107.76 E 0006.95 Z 0.35
 G1 X 0062.56 Y 0106.61 E 0006.98 Z 0.35
 G1 X 0062.63 Y 0105.26 E 0007.01 Z 0.35
 G1 X 0062.76 Y 0103.91 E 0007.03 Z 0.35
 G1 X 0062.77 Y 0102.58 E 0007.06 Z 0.35
 G1 X 0062.77 Y 0101.24 E 0007.09 Z 0.35
 G1 X 0062.77 Y 0099.90 E 0007.11 Z 0.35
 G1 X 0062.77 Y 0098.55 E 0007.14 Z 0.35
 G1 X 0062.77 Y 0097.21 E 0007.17 Z 0.35
 G1 X 0062.77 Y 0095.87 E 0007.19 Z 0.35
 G1 X 0062.77 Y 0094.53 E 0007.22 Z 0.35
 G1 X 0062.77 Y 0093.19 E 0007.25 Z 0.35
 G1 X 0062.77 Y 0091.84 E 0007.27 Z 0.35
 G1 X 0062.77 Y 0090.50 E 0007.30 Z 0.35
 G1 X 0062.77 Y 0089.16 E 0007.33 Z 0.35
 G1 X 0062.77 Y 0087.82 E 0007.35 Z 0.35
 G1 X 0062.77 Y 0086.48 E 0007.38 Z 0.35
 G1 X 0062.77 Y 0085.13 E 0007.41 Z 0.35
 G1 X 0062.77 Y 0083.79 E 0007.44 Z 0.35
 G1 X 0062.77 Y 0082.45 E 0007.46 Z 0.35
 G1 X 0062.77 Y 0081.11 E 0007.49 Z 0.35
 G1 X 0062.77 Y 0079.77 E 0007.52 Z 0.35
 G1 X 0062.77 Y 0078.43 E 0007.54 Z 0.35
 G1 X 0062.77 Y 0077.08 E 0007.57 Z 0.35
 G1 X 0062.77 Y 0075.74 E 0007.60 Z 0.35
 G1 X 0062.77 Y 0074.40 E 0007.62 Z 0.35
 G1 X 0062.77 Y 0073.06 E 0007.65 Z 0.35
 G1 X 0062.77 Y 0071.72 E 0007.68 Z 0.35
 G1 X 0062.77 Y 0070.37 E 0007.70 Z 0.35
 G1 X 0062.77 Y 0069.03 E 0007.73 Z 0.35
 G1 X 0062.77 Y 0067.69 E 0007.76 Z 0.35
 G1 X 0062.77 Y 0066.35 E 0007.78 Z 0.35
 G1 X 0062.77 Y 0065.01 E 0007.81 Z 0.35
 G1 X 0062.77 Y 0063.66 E 0007.84 Z 0.35
 G1 X 0062.77 Y 0062.32 E 0007.86 Z 0.35
 G1 X 0062.77 Y 0060.98 E 0007.89 Z 0.35
 G1 X 0062.77 Y 0059.64 E 0007.92 Z 0.35
 G1 X 0062.77 Y 0058.30 E 0007.94 Z 0.35
 G1 X 0062.77 Y 0056.95 E 0007.97 Z 0.35
 G1 X 0062.77 Y 0055.61 E 0008.00 Z 0.35
 G1 X 0062.77 Y 0054.27 E 0008.03 Z 0.35
 G1 X 0062.77 Y 0052.93 E 0008.05 Z 0.35
 G1 X 0062.77 Y 0051.59 E 0008.08 Z 0.35
 G1 X 0062.77 Y 0050.24 E 0008.11 Z 0.35
 G1 X 0062.77 Y 0048.90 E 0008.13 Z 0.35
 G1 X 0062.77 Y 0047.56 E 0008.16 Z 0.35
 G1 X 0062.77 Y 0046.22 E 0008.19 Z 0.35
 G1 X 0062.77 Y 0044.88 E 0008.21 Z 0.35
 G1 X 0062.77 Y 0043.53 E 0008.24 Z 0.35
 G1 X 0062.77 Y 0042.19 E 0008.27 Z 0.35
 G1 X 0062.77 Y 0040.85 E 0008.29 Z 0.35
 G1 X 0062.77 Y 0039.51 E 0008.32 Z 0.35
 G1 X 0062.77 Y 0038.17 E 0008.35 Z 0.35
 G1 X 0062.77 Y 0036.82 E 0008.37 Z 0.35
 G1 X 0062.77 Y 0035.48 E 0008.40 Z 0.35
 G1 X 0062.77 Y 0034.14 E 0008.43 Z 0.35
 G1 X 0062.77 Y 0032.80 E 0008.45 Z 0.35
 G1 X 0062.77 Y 0031.46 E 0008.48 Z 0.35
 G1 X 0062.77 Y 0030.11 E 0008.51 Z 0.35
 G1 X 0062.77 Y 0028.77 E 0008.54 Z 0.35
 G1 X 0062.77 Y 0027.43 E 0008.56 Z 0.35
 G1 X 0062.77 Y 0026.09 E 0008.59 Z 0.35
 G1 X 0062.77 Y 0024.75 E 0008.62 Z 0.35
 G1 X 0062.77 Y 0023.40 E 0008.64 Z 0.35
 G1 X 0062.77 Y 0022.06 E 0008.67 Z 0.35
 G1 X 0062.77 Y 0020.72 E 0008.70 Z 0.35
 G1 X 0062.77 Y 0019.38 E 0008.72 Z 0.35
 G1 X 0062.77 Y 0018.04 E 0008.75 Z 0.35
 G1 X 0062.77 Y 0016.69 E 0008.78 Z 0.35
 G1 X 0062.77 Y 0015.35 E 0008.80 Z 0.35
 G1 X 0062.77 Y 0014.01 E 0008.83 Z 0.35
 G1 X 0062.77 Y 0012.67 E 0008.86 Z 0.35
 G1 X 0062.77 Y 0011.33 E 0008.88 Z 0.35
 G1 X 0062.77 Y 0009.98 E 0008.91 Z 0.35
 G1 X 0062.77 Y 0008.64 E 0008.94 Z 0.35
 G1 X 0062.77 Y 0007.30 E 0008.96 Z 0.35
 G1 X 0062.77 Y 0005.96 E 0008.99 Z 0.35
 G1 X 0062.77 Y 0004.62 E 0009.02 Z 0.35
 G1 X 0062.77 Y 0003.28 E 0009.05 Z 0.35
G1 X 0072.69 Y -0024.74 Z 0.35
 G1 X 0072.69 Y 0107.53 E 0011.69 Z 0.35
G1 X 0073.89 Y 0107.53 Z 0.35
 G1 X 0073.89 Y -0024.74 E 0014.34 Z 0.35
G1 X 0075.09 Y -0024.74 Z 0.35
 G1 X 0075.09 Y 0107.53 E 0016.98 Z 0.35
G1 X 0076.29 Y 0107.53 Z 0.35
 G1 X 0076.29 Y -0024.74 E 0019.63 Z 0.35
G1 X 0077.49 Y -0024.74 Z 0.35
 G1 X 0077.49 Y 0107.53 E 0022.27 Z 0.35
G1 X 0078.69 Y 0107.53 Z 0.35
 G1 X 0078.69 Y -0024.74 E 0024.92 Z 0.35
G1 X 0079.89 Y -0024.74 Z 0.35
 G1 X 0079.89 Y 0107.53 E 0027.56 Z 0.35
G1 X 0081.09 Y 0107.53 Z 0.35
 G1 X 0081.09 Y -0024.74 E 0030.21 Z 0.35
G1 X 0082.29 Y -0024.74 Z 0.35
 G1 X 0082.29 Y 0107.53 E 0032.85 Z 0.35
G1 X 0083.49 Y 0107.53 Z 0.35
 G1 X 0083.49 Y -0024.74 E 0035.50 Z 0.35
G1 X 0084.69 Y -0024.74 Z 0.35
 G1 X 0084.69 Y 0107.53 E 0038.14 Z 0.35
G1 X 0085.89 Y 0107.53 Z 0.35
 G1 X 0085.89 Y -0024.74 E 0040.79 Z 0.35
G1 X 0087.09 Y -0024.74 Z 0.35
 G1 X 0087.09 Y 0107.53 E 0043.43 Z 0.35
G1 X 0088.29 Y 0107.53 Z 0.35
 G1 X 0088.29 Y -0024.74 E 0046.08 Z 0.35
G1 X 0089.49 Y -0024.74 Z 0.35
 G1 X 0089.49 Y 0107.53 E 0048.73 Z 0.35
G1 X 0090.69 Y 0107.53 Z 0.35
 G1 X 0090.69 Y -0024.74 E 0051.37 Z 0.35
G1 X 0091.89 Y -0024.74 Z 0.35
 G1 X 0091.89 Y 0107.53 E 0054.02 Z 0.35
G1 X 0093.09 Y 0107.53 Z 0.35
 G1 X 0093.09 Y -0024.74 E 0056.66 Z 0.35
G1 X 0094.29 Y -0024.74 Z 0.35
 G1 X 0094.29 Y 0107.53 E 0059.31 Z 0.35
G1 X 0095.49 Y 0107.53 Z 0.35
 G1 X 0095.49 Y -0024.74 E 0061.95 Z 0.35
G1 X 0096.69 Y -0024.74 Z 0.35
 G1 X 0096.69 Y 0107.53 E 0064.60 Z 0.35
G1 X 0097.89 Y 0107.53 Z 0.35
