;FLAVOR:RepRap
;Layer height:0.25
;NOZZLE DIAMETER:0.4
M104 S240
M109 S240
G21 ;metric values
G90 ;absolute positioning
M82 ;set extruder to absolute mode
M107 ;start with the fan off
G28 X0 Y0 ;move X/Y to min endstops
G28 Z0 ;move Z to min endstops
G1 Z15.0 F9000 ;move the platform down 15mm
G92 E0 ;zero the extruded length
G1 F200 E30 ;extrude 3mm of feed stock
G92 E0 ;zero the extruded length again
G1 F9000
M117 Printing...
M107
G1 F1500.0
G0 Z0.35
G1 X 0062.56 Y 0384.80 Z 0.35
 G1 X 0062.86 Y 0383.52 E 0000.03 Z 0.35
 G1 X 0064.16 Y 0383.38 E 0000.05 Z 0.35
 G1 X 0065.50 Y 0383.61 E 0000.08 Z 0.35
 G1 X 0066.83 Y 0383.62 E 0000.11 Z 0.35
 G1 X 0068.17 Y 0383.62 E 0000.13 Z 0.35
 G1 X 0069.52 Y 0383.62 E 0000.16 Z 0.35
 G1 X 0070.86 Y 0383.62 E 0000.19 Z 0.35
 G1 X 0072.20 Y 0383.62 E 0000.21 Z 0.35
 G1 X 0073.54 Y 0383.62 E 0000.24 Z 0.35
 G1 X 0074.88 Y 0383.62 E 0000.27 Z 0.35
 G1 X 0076.23 Y 0383.62 E 0000.29 Z 0.35
 G1 X 0077.57 Y 0383.62 E 0000.32 Z 0.35
 G1 X 0078.91 Y 0383.62 E 0000.35 Z 0.35
 G1 X 0080.25 Y 0383.62 E 0000.37 Z 0.35
 G1 X 0081.59 Y 0383.62 E 0000.40 Z 0.35
 G1 X 0082.94 Y 0383.62 E 0000.43 Z 0.35
 G1 X 0084.28 Y 0383.62 E 0000.46 Z 0.35
 G1 X 0085.62 Y 0383.62 E 0000.48 Z 0.35
 G1 X 0086.96 Y 0383.62 E 0000.51 Z 0.35
 G1 X 0088.30 Y 0383.62 E 0000.54 Z 0.35
 G1 X 0089.65 Y 0383.62 E 0000.56 Z 0.35
 G1 X 0090.99 Y 0383.62 E 0000.59 Z 0.35
 G1 X 0092.33 Y 0383.62 E 0000.62 Z 0.35
 G1 X 0093.67 Y 0383.62 E 0000.64 Z 0.35
 G1 X 0095.01 Y 0383.62 E 0000.67 Z 0.35
 G1 X 0096.35 Y 0383.62 E 0000.70 Z 0.35
 G1 X 0097.70 Y 0383.62 E 0000.72 Z 0.35
 G1 X 0099.04 Y 0383.62 E 0000.75 Z 0.35
 G1 X 0100.38 Y 0383.62 E 0000.78 Z 0.35
 G1 X 0101.72 Y 0383.62 E 0000.80 Z 0.35
 G1 X 0103.06 Y 0383.62 E 0000.83 Z 0.35
 G1 X 0104.41 Y 0383.62 E 0000.86 Z 0.35
 G1 X 0105.75 Y 0383.62 E 0000.88 Z 0.35
 G1 X 0107.09 Y 0383.62 E 0000.91 Z 0.35
 G1 X 0108.43 Y 0383.62 E 0000.94 Z 0.35
 G1 X 0109.78 Y 0383.62 E 0000.97 Z 0.35
 G1 X 0111.12 Y 0383.62 E 0000.99 Z 0.35
 G1 X 0112.46 Y 0383.62 E 0001.02 Z 0.35
 G1 X 0113.80 Y 0383.62 E 0001.05 Z 0.35
 G1 X 0115.14 Y 0383.62 E 0001.07 Z 0.35
 G1 X 0116.48 Y 0383.62 E 0001.10 Z 0.35
 G1 X 0117.83 Y 0383.62 E 0001.13 Z 0.35
 G1 X 0119.17 Y 0383.62 E 0001.15 Z 0.35
 G1 X 0120.51 Y 0383.62 E 0001.18 Z 0.35
 G1 X 0121.85 Y 0383.62 E 0001.21 Z 0.35
 G1 X 0123.19 Y 0383.62 E 0001.23 Z 0.35
 G1 X 0124.54 Y 0383.62 E 0001.26 Z 0.35
 G1 X 0125.88 Y 0383.62 E 0001.29 Z 0.35
 G1 X 0127.22 Y 0383.62 E 0001.31 Z 0.35
 G1 X 0128.56 Y 0383.62 E 0001.34 Z 0.35
 G1 X 0129.90 Y 0383.62 E 0001.37 Z 0.35
 G1 X 0131.25 Y 0383.62 E 0001.39 Z 0.35
 G1 X 0132.59 Y 0383.62 E 0001.42 Z 0.35
 G1 X 0133.93 Y 0383.62 E 0001.45 Z 0.35
 G1 X 0135.27 Y 0383.62 E 0001.47 Z 0.35
 G1 X 0136.61 Y 0383.62 E 0001.50 Z 0.35
 G1 X 0137.96 Y 0383.62 E 0001.53 Z 0.35
 G1 X 0139.30 Y 0383.62 E 0001.56 Z 0.35
 G1 X 0140.64 Y 0383.62 E 0001.58 Z 0.35
 G1 X 0141.98 Y 0383.62 E 0001.61 Z 0.35
 G1 X 0143.32 Y 0383.62 E 0001.64 Z 0.35
 G1 X 0144.67 Y 0383.62 E 0001.66 Z 0.35
 G1 X 0146.01 Y 0383.62 E 0001.69 Z 0.35
 G1 X 0147.35 Y 0383.62 E 0001.72 Z 0.35
 G1 X 0148.69 Y 0383.62 E 0001.74 Z 0.35
 G1 X 0150.03 Y 0383.62 E 0001.77 Z 0.35
 G1 X 0151.38 Y 0383.62 E 0001.80 Z 0.35
 G1 X 0152.72 Y 0383.62 E 0001.82 Z 0.35
 G1 X 0154.06 Y 0383.62 E 0001.85 Z 0.35
 G1 X 0155.39 Y 0383.47 E 0001.88 Z 0.35
 G1 X 0156.72 Y 0383.33 E 0001.90 Z 0.35
 G1 X 0157.44 Y 0384.32 E 0001.93 Z 0.35
 G1 X 0157.40 Y 0385.68 E 0001.96 Z 0.35
 G1 X 0157.27 Y 0387.01 E 0001.98 Z 0.35
 G1 X 0157.24 Y 0388.36 E 0002.01 Z 0.35
 G1 X 0157.24 Y 0389.70 E 0002.04 Z 0.35
 G1 X 0157.24 Y 0391.04 E 0002.06 Z 0.35
 G1 X 0157.24 Y 0392.38 E 0002.09 Z 0.35
 G1 X 0157.24 Y 0393.72 E 0002.12 Z 0.35
 G1 X 0157.24 Y 0395.07 E 0002.14 Z 0.35
 G1 X 0157.24 Y 0396.41 E 0002.17 Z 0.35
 G1 X 0157.24 Y 0397.75 E 0002.20 Z 0.35
 G1 X 0157.24 Y 0399.09 E 0002.22 Z 0.35
 G1 X 0157.24 Y 0400.43 E 0002.25 Z 0.35
 G1 X 0157.24 Y 0401.78 E 0002.28 Z 0.35
 G1 X 0157.24 Y 0403.12 E 0002.30 Z 0.35
 G1 X 0157.24 Y 0404.46 E 0002.33 Z 0.35
 G1 X 0157.24 Y 0405.80 E 0002.36 Z 0.35
 G1 X 0157.24 Y 0407.14 E 0002.39 Z 0.35
 G1 X 0157.24 Y 0408.49 E 0002.41 Z 0.35
 G1 X 0157.24 Y 0409.83 E 0002.44 Z 0.35
 G1 X 0157.24 Y 0411.17 E 0002.47 Z 0.35
 G1 X 0157.24 Y 0412.51 E 0002.49 Z 0.35
 G1 X 0157.24 Y 0413.85 E 0002.52 Z 0.35
 G1 X 0157.24 Y 0415.20 E 0002.55 Z 0.35
 G1 X 0157.24 Y 0416.54 E 0002.57 Z 0.35
 G1 X 0157.24 Y 0417.88 E 0002.60 Z 0.35
 G1 X 0157.24 Y 0419.22 E 0002.63 Z 0.35
 G1 X 0157.24 Y 0420.56 E 0002.65 Z 0.35
 G1 X 0157.24 Y 0421.91 E 0002.68 Z 0.35
 G1 X 0157.24 Y 0423.25 E 0002.71 Z 0.35
 G1 X 0157.24 Y 0424.59 E 0002.73 Z 0.35
 G1 X 0157.24 Y 0425.93 E 0002.76 Z 0.35
 G1 X 0157.24 Y 0427.27 E 0002.79 Z 0.35
 G1 X 0157.24 Y 0428.62 E 0002.81 Z 0.35
 G1 X 0157.24 Y 0429.96 E 0002.84 Z 0.35
 G1 X 0157.24 Y 0431.30 E 0002.87 Z 0.35
 G1 X 0157.24 Y 0432.64 E 0002.90 Z 0.35
 G1 X 0157.24 Y 0433.98 E 0002.92 Z 0.35
 G1 X 0157.24 Y 0435.32 E 0002.95 Z 0.35
 G1 X 0157.24 Y 0436.67 E 0002.98 Z 0.35
 G1 X 0157.24 Y 0438.01 E 0003.00 Z 0.35
 G1 X 0157.24 Y 0439.35 E 0003.03 Z 0.35
 G1 X 0157.24 Y 0440.69 E 0003.06 Z 0.35
 G1 X 0157.24 Y 0442.03 E 0003.08 Z 0.35
 G1 X 0157.24 Y 0443.38 E 0003.11 Z 0.35
 G1 X 0157.24 Y 0444.72 E 0003.14 Z 0.35
 G1 X 0157.24 Y 0446.06 E 0003.16 Z 0.35
 G1 X 0157.24 Y 0447.40 E 0003.19 Z 0.35
 G1 X 0157.24 Y 0448.74 E 0003.22 Z 0.35
 G1 X 0157.24 Y 0450.09 E 0003.24 Z 0.35
 G1 X 0157.24 Y 0451.43 E 0003.27 Z 0.35
 G1 X 0157.24 Y 0452.77 E 0003.30 Z 0.35
 G1 X 0157.24 Y 0454.11 E 0003.32 Z 0.35
 G1 X 0157.24 Y 0455.45 E 0003.35 Z 0.35
 G1 X 0157.24 Y 0456.80 E 0003.38 Z 0.35
 G1 X 0157.24 Y 0458.14 E 0003.41 Z 0.35
 G1 X 0157.24 Y 0459.48 E 0003.43 Z 0.35
 G1 X 0157.24 Y 0460.82 E 0003.46 Z 0.35
 G1 X 0157.24 Y 0462.16 E 0003.49 Z 0.35
 G1 X 0157.24 Y 0463.51 E 0003.51 Z 0.35
 G1 X 0157.24 Y 0464.85 E 0003.54 Z 0.35
 G1 X 0157.24 Y 0466.19 E 0003.57 Z 0.35
 G1 X 0157.24 Y 0467.53 E 0003.59 Z 0.35
 G1 X 0157.24 Y 0468.87 E 0003.62 Z 0.35
 G1 X 0157.24 Y 0470.22 E 0003.65 Z 0.35
 G1 X 0157.24 Y 0471.56 E 0003.67 Z 0.35
 G1 X 0157.24 Y 0472.90 E 0003.70 Z 0.35
 G1 X 0157.24 Y 0474.24 E 0003.73 Z 0.35
 G1 X 0157.24 Y 0475.58 E 0003.75 Z 0.35
 G1 X 0157.24 Y 0476.93 E 0003.78 Z 0.35
 G1 X 0157.24 Y 0478.27 E 0003.81 Z 0.35
 G1 X 0157.24 Y 0479.61 E 0003.83 Z 0.35
 G1 X 0157.24 Y 0480.95 E 0003.86 Z 0.35
 G1 X 0157.24 Y 0482.29 E 0003.89 Z 0.35
 G1 X 0157.24 Y 0483.64 E 0003.92 Z 0.35
 G1 X 0157.24 Y 0484.98 E 0003.94 Z 0.35
 G1 X 0157.24 Y 0486.32 E 0003.97 Z 0.35
 G1 X 0157.24 Y 0487.66 E 0004.00 Z 0.35
 G1 X 0157.24 Y 0489.00 E 0004.02 Z 0.35
 G1 X 0157.24 Y 0490.35 E 0004.05 Z 0.35
 G1 X 0157.24 Y 0491.69 E 0004.08 Z 0.35
 G1 X 0157.24 Y 0493.03 E 0004.10 Z 0.35
 G1 X 0157.24 Y 0494.37 E 0004.13 Z 0.35
 G1 X 0157.24 Y 0495.71 E 0004.16 Z 0.35
 G1 X 0157.24 Y 0497.06 E 0004.18 Z 0.35
 G1 X 0157.24 Y 0498.40 E 0004.21 Z 0.35
 G1 X 0157.24 Y 0499.74 E 0004.24 Z 0.35
 G1 X 0157.24 Y 0501.08 E 0004.26 Z 0.35
 G1 X 0157.24 Y 0502.42 E 0004.29 Z 0.35
 G1 X 0157.24 Y 0503.77 E 0004.32 Z 0.35
 G1 X 0157.24 Y 0505.11 E 0004.34 Z 0.35
 G1 X 0157.24 Y 0506.45 E 0004.37 Z 0.35
 G1 X 0157.24 Y 0507.79 E 0004.40 Z 0.35
 G1 X 0157.24 Y 0509.13 E 0004.43 Z 0.35
 G1 X 0157.24 Y 0510.48 E 0004.45 Z 0.35
 G1 X 0157.24 Y 0511.81 E 0004.48 Z 0.35
 G1 X 0157.24 Y 0513.16 E 0004.51 Z 0.35
 G1 X 0157.24 Y 0514.51 E 0004.53 Z 0.35
 G1 X 0157.24 Y 0515.85 E 0004.56 Z 0.35
 G1 X 0157.03 Y 0515.89 E 0004.56 Z 0.35
 G1 X 0155.65 Y 0515.89 E 0004.59 Z 0.35
 G1 X 0154.31 Y 0515.89 E 0004.62 Z 0.35
 G1 X 0152.96 Y 0515.89 E 0004.65 Z 0.35
 G1 X 0151.62 Y 0515.89 E 0004.67 Z 0.35
 G1 X 0150.28 Y 0515.89 E 0004.70 Z 0.35
 G1 X 0148.94 Y 0515.89 E 0004.73 Z 0.35
 G1 X 0147.60 Y 0515.89 E 0004.75 Z 0.35
 G1 X 0146.26 Y 0515.89 E 0004.78 Z 0.35
 G1 X 0144.91 Y 0515.89 E 0004.81 Z 0.35
 G1 X 0143.57 Y 0515.89 E 0004.83 Z 0.35
 G1 X 0142.23 Y 0515.89 E 0004.86 Z 0.35
 G1 X 0140.89 Y 0515.89 E 0004.89 Z 0.35
 G1 X 0139.55 Y 0515.89 E 0004.91 Z 0.35
 G1 X 0138.20 Y 0515.89 E 0004.94 Z 0.35
 G1 X 0136.86 Y 0515.89 E 0004.97 Z 0.35
 G1 X 0135.52 Y 0515.89 E 0004.99 Z 0.35
 G1 X 0134.18 Y 0515.89 E 0005.02 Z 0.35
 G1 X 0132.84 Y 0515.89 E 0005.05 Z 0.35
 G1 X 0131.49 Y 0515.89 E 0005.07 Z 0.35
 G1 X 0130.15 Y 0515.89 E 0005.10 Z 0.35
 G1 X 0128.81 Y 0515.89 E 0005.13 Z 0.35
 G1 X 0127.47 Y 0515.89 E 0005.16 Z 0.35
 G1 X 0126.13 Y 0515.89 E 0005.18 Z 0.35
 G1 X 0124.78 Y 0515.89 E 0005.21 Z 0.35
 G1 X 0123.44 Y 0515.89 E 0005.24 Z 0.35
 G1 X 0122.10 Y 0515.89 E 0005.26 Z 0.35
 G1 X 0120.76 Y 0515.89 E 0005.29 Z 0.35
 G1 X 0119.42 Y 0515.89 E 0005.32 Z 0.35
 G1 X 0118.07 Y 0515.89 E 0005.34 Z 0.35
 G1 X 0116.73 Y 0515.89 E 0005.37 Z 0.35
 G1 X 0115.39 Y 0515.89 E 0005.40 Z 0.35
 G1 X 0114.05 Y 0515.89 E 0005.42 Z 0.35
 G1 X 0112.71 Y 0515.89 E 0005.45 Z 0.35
 G1 X 0111.36 Y 0515.89 E 0005.48 Z 0.35
 G1 X 0110.02 Y 0515.89 E 0005.50 Z 0.35
 G1 X 0108.68 Y 0515.89 E 0005.53 Z 0.35
 G1 X 0107.34 Y 0515.89 E 0005.56 Z 0.35
 G1 X 0106.00 Y 0515.89 E 0005.58 Z 0.35
 G1 X 0104.65 Y 0515.89 E 0005.61 Z 0.35
 G1 X 0103.31 Y 0515.89 E 0005.64 Z 0.35
 G1 X 0101.97 Y 0515.89 E 0005.66 Z 0.35
 G1 X 0100.63 Y 0515.89 E 0005.69 Z 0.35
 G1 X 0099.29 Y 0515.89 E 0005.72 Z 0.35
 G1 X 0097.94 Y 0515.89 E 0005.75 Z 0.35
 G1 X 0096.60 Y 0515.89 E 0005.77 Z 0.35
 G1 X 0095.26 Y 0515.89 E 0005.80 Z 0.35
 G1 X 0093.92 Y 0515.89 E 0005.83 Z 0.35
 G1 X 0092.58 Y 0515.89 E 0005.85 Z 0.35
 G1 X 0091.23 Y 0515.89 E 0005.88 Z 0.35
 G1 X 0089.89 Y 0515.89 E 0005.91 Z 0.35
 G1 X 0088.55 Y 0515.89 E 0005.93 Z 0.35
 G1 X 0087.21 Y 0515.89 E 0005.96 Z 0.35
 G1 X 0085.87 Y 0515.89 E 0005.99 Z 0.35
 G1 X 0084.52 Y 0515.89 E 0006.01 Z 0.35
 G1 X 0083.18 Y 0515.89 E 0006.04 Z 0.35
 G1 X 0081.84 Y 0515.89 E 0006.07 Z 0.35
 G1 X 0080.50 Y 0515.89 E 0006.09 Z 0.35
 G1 X 0079.16 Y 0515.89 E 0006.12 Z 0.35
 G1 X 0077.81 Y 0515.89 E 0006.15 Z 0.35
 G1 X 0076.47 Y 0515.89 E 0006.17 Z 0.35
 G1 X 0075.13 Y 0515.89 E 0006.20 Z 0.35
 G1 X 0073.79 Y 0515.89 E 0006.23 Z 0.35
 G1 X 0072.45 Y 0515.89 E 0006.26 Z 0.35
 G1 X 0071.10 Y 0515.89 E 0006.28 Z 0.35
 G1 X 0069.76 Y 0515.89 E 0006.31 Z 0.35
 G1 X 0068.42 Y 0515.89 E 0006.34 Z 0.35
 G1 X 0067.08 Y 0515.89 E 0006.36 Z 0.35
 G1 X 0065.74 Y 0515.89 E 0006.39 Z 0.35
 G1 X 0064.41 Y 0516.08 E 0006.42 Z 0.35
 G1 X 0063.07 Y 0516.12 E 0006.44 Z 0.35
 G1 X 0062.56 Y 0514.97 E 0006.47 Z 0.35
 G1 X 0062.63 Y 0513.62 E 0006.50 Z 0.35
 G1 X 0062.76 Y 0512.27 E 0006.52 Z 0.35
 G1 X 0062.77 Y 0510.94 E 0006.55 Z 0.35
 G1 X 0062.77 Y 0509.60 E 0006.58 Z 0.35
 G1 X 0062.77 Y 0508.26 E 0006.60 Z 0.35
 G1 X 0062.77 Y 0506.91 E 0006.63 Z 0.35
 G1 X 0062.77 Y 0505.57 E 0006.66 Z 0.35
 G1 X 0062.77 Y 0504.23 E 0006.68 Z 0.35
 G1 X 0062.77 Y 0502.89 E 0006.71 Z 0.35
 G1 X 0062.77 Y 0501.55 E 0006.74 Z 0.35
 G1 X 0062.77 Y 0500.20 E 0006.76 Z 0.35
 G1 X 0062.77 Y 0498.86 E 0006.79 Z 0.35
 G1 X 0062.77 Y 0497.52 E 0006.82 Z 0.35
 G1 X 0062.77 Y 0496.18 E 0006.84 Z 0.35
 G1 X 0062.77 Y 0494.84 E 0006.87 Z 0.35
 G1 X 0062.77 Y 0493.49 E 0006.90 Z 0.35
 G1 X 0062.77 Y 0492.15 E 0006.92 Z 0.35
 G1 X 0062.77 Y 0490.81 E 0006.95 Z 0.35
 G1 X 0062.77 Y 0489.47 E 0006.98 Z 0.35
 G1 X 0062.77 Y 0488.13 E 0007.01 Z 0.35
 G1 X 0062.77 Y 0486.78 E 0007.03 Z 0.35
 G1 X 0062.77 Y 0485.44 E 0007.06 Z 0.35
 G1 X 0062.77 Y 0484.10 E 0007.09 Z 0.35
 G1 X 0062.77 Y 0482.76 E 0007.11 Z 0.35
 G1 X 0062.77 Y 0481.42 E 0007.14 Z 0.35
 G1 X 0062.77 Y 0480.07 E 0007.17 Z 0.35
 G1 X 0062.77 Y 0478.73 E 0007.19 Z 0.35
 G1 X 0062.77 Y 0477.39 E 0007.22 Z 0.35
 G1 X 0062.77 Y 0476.05 E 0007.25 Z 0.35
 G1 X 0062.77 Y 0474.71 E 0007.27 Z 0.35
 G1 X 0062.77 Y 0473.36 E 0007.30 Z 0.35
 G1 X 0062.77 Y 0472.02 E 0007.33 Z 0.35
 G1 X 0062.77 Y 0470.68 E 0007.35 Z 0.35
 G1 X 0062.77 Y 0469.34 E 0007.38 Z 0.35
 G1 X 0062.77 Y 0468.00 E 0007.41 Z 0.35
 G1 X 0062.77 Y 0466.65 E 0007.43 Z 0.35
 G1 X 0062.77 Y 0465.31 E 0007.46 Z 0.35
 G1 X 0062.77 Y 0463.97 E 0007.49 Z 0.35
 G1 X 0062.77 Y 0462.63 E 0007.52 Z 0.35
 G1 X 0062.77 Y 0461.29 E 0007.54 Z 0.35
 G1 X 0062.77 Y 0459.94 E 0007.57 Z 0.35
 G1 X 0062.77 Y 0458.60 E 0007.60 Z 0.35
 G1 X 0062.77 Y 0457.26 E 0007.62 Z 0.35
 G1 X 0062.77 Y 0455.92 E 0007.65 Z 0.35
 G1 X 0062.77 Y 0454.58 E 0007.68 Z 0.35
 G1 X 0062.77 Y 0453.23 E 0007.70 Z 0.35
 G1 X 0062.77 Y 0451.89 E 0007.73 Z 0.35
 G1 X 0062.77 Y 0450.55 E 0007.76 Z 0.35
 G1 X 0062.77 Y 0449.21 E 0007.78 Z 0.35
 G1 X 0062.77 Y 0447.87 E 0007.81 Z 0.35
 G1 X 0062.77 Y 0446.52 E 0007.84 Z 0.35
 G1 X 0062.77 Y 0445.18 E 0007.86 Z 0.35
 G1 X 0062.77 Y 0443.84 E 0007.89 Z 0.35
 G1 X 0062.77 Y 0442.50 E 0007.92 Z 0.35
 G1 X 0062.77 Y 0441.16 E 0007.94 Z 0.35
 G1 X 0062.77 Y 0439.81 E 0007.97 Z 0.35
 G1 X 0062.77 Y 0438.47 E 0008.00 Z 0.35
 G1 X 0062.77 Y 0437.13 E 0008.03 Z 0.35
 G1 X 0062.77 Y 0435.79 E 0008.05 Z 0.35
 G1 X 0062.77 Y 0434.45 E 0008.08 Z 0.35
 G1 X 0062.77 Y 0433.10 E 0008.11 Z 0.35
 G1 X 0062.77 Y 0431.76 E 0008.13 Z 0.35
 G1 X 0062.77 Y 0430.42 E 0008.16 Z 0.35
 G1 X 0062.77 Y 0429.08 E 0008.19 Z 0.35
 G1 X 0062.77 Y 0427.74 E 0008.21 Z 0.35
 G1 X 0062.77 Y 0426.40 E 0008.24 Z 0.35
 G1 X 0062.77 Y 0425.05 E 0008.27 Z 0.35
 G1 X 0062.77 Y 0423.71 E 0008.29 Z 0.35
 G1 X 0062.77 Y 0422.37 E 0008.32 Z 0.35
 G1 X 0062.77 Y 0421.03 E 0008.35 Z 0.35
 G1 X 0062.77 Y 0419.69 E 0008.37 Z 0.35
 G1 X 0062.77 Y 0418.34 E 0008.40 Z 0.35
 G1 X 0062.77 Y 0417.00 E 0008.43 Z 0.35
 G1 X 0062.77 Y 0415.66 E 0008.45 Z 0.35
 G1 X 0062.77 Y 0414.32 E 0008.48 Z 0.35
 G1 X 0062.77 Y 0412.98 E 0008.51 Z 0.35
 G1 X 0062.77 Y 0411.63 E 0008.54 Z 0.35
 G1 X 0062.77 Y 0410.29 E 0008.56 Z 0.35
 G1 X 0062.77 Y 0408.95 E 0008.59 Z 0.35
 G1 X 0062.77 Y 0407.61 E 0008.62 Z 0.35
 G1 X 0062.77 Y 0406.27 E 0008.64 Z 0.35
 G1 X 0062.77 Y 0404.92 E 0008.67 Z 0.35
 G1 X 0062.77 Y 0403.58 E 0008.70 Z 0.35
 G1 X 0062.77 Y 0402.24 E 0008.72 Z 0.35
 G1 X 0062.77 Y 0400.90 E 0008.75 Z 0.35
 G1 X 0062.77 Y 0399.56 E 0008.78 Z 0.35
 G1 X 0062.77 Y 0398.21 E 0008.80 Z 0.35
 G1 X 0062.77 Y 0396.87 E 0008.83 Z 0.35
 G1 X 0062.77 Y 0395.53 E 0008.86 Z 0.35
 G1 X 0062.77 Y 0394.19 E 0008.88 Z 0.35
 G1 X 0062.77 Y 0392.85 E 0008.91 Z 0.35
 G1 X 0062.77 Y 0391.50 E 0008.94 Z 0.35
 G1 X 0062.77 Y 0390.16 E 0008.96 Z 0.35
 G1 X 0062.77 Y 0388.82 E 0008.99 Z 0.35
 G1 X 0062.77 Y 0387.49 E 0009.02 Z 0.35
 G1 X 0062.66 Y 0386.14 E 0009.05 Z 0.35
G1 X 0072.69 Y 0515.89 Z 0.35
 G1 X 0072.69 Y 0383.62 E 0011.69 Z 0.35
G1 X 0071.49 Y 0383.62 Z 0.35
 G1 X 0071.49 Y 0515.89 E 0014.34 Z 0.35
G1 X 0070.29 Y 0515.89 Z 0.35
 G1 X 0070.29 Y 0383.62 E 0016.98 Z 0.35
G1 X 0069.09 Y 0383.62 Z 0.35
 G1 X 0069.09 Y 0515.89 E 0019.63 Z 0.35
G1 X 0067.89 Y 0515.89 Z 0.35
 G1 X 0067.89 Y 0383.62 E 0022.27 Z 0.35
G1 X 0066.69 Y 0383.62 Z 0.35
 G1 X 0066.69 Y 0515.89 E 0024.92 Z 0.35
G1 X 0065.49 Y 0515.93 Z 0.35
 G1 X 0065.49 Y 0383.61 E 0027.56 Z 0.35
G1 X 0064.29 Y 0383.40 Z 0.35
 G1 X 0064.29 Y 0516.09 E 0030.22 Z 0.35
G1 X 0073.89 Y 0515.89 Z 0.35
 G1 X 0073.89 Y 0383.62 E 0032.86 Z 0.35
G1 X 0075.09 Y 0383.62 Z 0.35
 G1 X 0075.09 Y 0515.89 E 0035.51 Z 0.35
G1 X 0076.29 Y 0515.89 Z 0.35
 G1 X 0076.29 Y 0383.62 E 0038.15 Z 0.35
G1 X 0077.49 Y 0383.62 Z 0.35
 G1 X 0077.49 Y 0515.89 E 0040.80 Z 0.35
G1 X 0078.69 Y 0515.89 Z 0.35
 G1 X 0078.69 Y 0383.62 E 0043.44 Z 0.35
G1 X 0079.89 Y 0383.62 Z 0.35
 G1 X 0079.89 Y 0515.89 E 0046.09 Z 0.35
G1 X 0081.09 Y 0515.89 Z 0.35
 G1 X 0081.09 Y 0383.62 E 0048.73 Z 0.35
G1 X 0082.29 Y 0383.62 Z 0.35
 G1 X 0082.29 Y 0515.89 E 0051.38 Z 0.35
G1 X 0083.49 Y 0515.89 Z 0.35
 G1 X 0083.49 Y 0383.62 E 0054.03 Z 0.35
G1 X 0084.69 Y 0383.62 Z 0.35
 G1 X 0084.69 Y 0515.89 E 0056.67 Z 0.35
G1 X 0085.89 Y 0515.89 Z 0.35
 G1 X 0085.89 Y 0383.62 E 0059.32 Z 0.35
G1 X 0087.09 Y 0383.62 Z 0.35
 G1 X 0087.09 Y 0515.89 E 0061.96 Z 0.35
G1 X 0088.29 Y 0515.89 Z 0.35
 G1 X 0088.29 Y 0383.62 E 0064.61 Z 0.35
G1 X 0089.49 Y 0383.62 Z 0.35
 G1 X 0089.49 Y 0515.89 E 0067.25 Z 0.35
G1 X 0090.69 Y 0515.89 Z 0.35
 G1 X 0090.69 Y 0383.62 E 0069.90 Z 0.35
