;FLAVOR:RepRap
;Layer height:0.25
;NOZZLE DIAMETER:0.4
M104 S240
M109 S240
G21 ;metric values
G90 ;absolute positioning
M82 ;set extruder to absolute mode
M107 ;start with the fan off
G28 X0 Y0 ;move X/Y to min endstops
G28 Z0 ;move Z to min endstops
G1 Z15.0 F9000 ;move the platform down 15mm
G92 E0 ;zero the extruded length
G1 F200 E30 ;extrude 3mm of feed stock
G92 E0 ;zero the extruded length again
G1 F9000
M117 Printing...
M107
G1 F1500.0
G0 Z0.35
G1 X 0005.39 Y -0029.05 Z 0.35
 G1 X 0001.37 Y -0029.05 E 0000.08 Z 0.35
G1 X 0000.62 Y -0425.85 Z 0.35
 G1 X 0004.65 Y -0425.85 E 0000.16 Z 0.35
 G1 X 0008.68 Y -0425.85 E 0000.24 Z 0.35
 G1 X 0012.70 Y -0425.85 E 0000.32 Z 0.35
 G1 X 0016.73 Y -0425.85 E 0000.40 Z 0.35
 G1 X 0020.76 Y -0425.85 E 0000.48 Z 0.35
 G1 X 0024.78 Y -0425.85 E 0000.56 Z 0.35
 G1 X 0028.81 Y -0425.85 E 0000.64 Z 0.35
 G1 X 0032.83 Y -0425.85 E 0000.72 Z 0.35
 G1 X 0036.86 Y -0425.85 E 0000.81 Z 0.35
 G1 X 0040.88 Y -0425.85 E 0000.89 Z 0.35
 G1 X 0044.91 Y -0425.85 E 0000.97 Z 0.35
 G1 X 0048.94 Y -0425.85 E 0001.05 Z 0.35
 G1 X 0052.96 Y -0425.85 E 0001.13 Z 0.35
 G1 X 0056.99 Y -0425.85 E 0001.21 Z 0.35
 G1 X 0061.01 Y -0425.85 E 0001.29 Z 0.35
 G1 X 0065.04 Y -0425.85 E 0001.37 Z 0.35
 G1 X 0069.06 Y -0425.85 E 0001.45 Z 0.35
 G1 X 0073.09 Y -0425.85 E 0001.53 Z 0.35
 G1 X 0077.12 Y -0425.85 E 0001.61 Z 0.35
 G1 X 0081.14 Y -0425.85 E 0001.69 Z 0.35
 G1 X 0085.17 Y -0425.85 E 0001.77 Z 0.35
 G1 X 0089.19 Y -0425.85 E 0001.85 Z 0.35
 G1 X 0093.22 Y -0425.85 E 0001.93 Z 0.35
 G1 X 0097.25 Y -0425.85 E 0002.01 Z 0.35
 G1 X 0101.27 Y -0425.85 E 0002.09 Z 0.35
 G1 X 0105.30 Y -0425.85 E 0002.17 Z 0.35
 G1 X 0109.33 Y -0425.85 E 0002.25 Z 0.35
 G1 X 0113.35 Y -0425.85 E 0002.34 Z 0.35
 G1 X 0117.38 Y -0425.85 E 0002.42 Z 0.35
 G1 X 0121.40 Y -0425.85 E 0002.50 Z 0.35
 G1 X 0125.43 Y -0425.85 E 0002.58 Z 0.35
 G1 X 0129.45 Y -0425.85 E 0002.66 Z 0.35
 G1 X 0133.48 Y -0425.85 E 0002.74 Z 0.35
 G1 X 0137.51 Y -0425.85 E 0002.82 Z 0.35
 G1 X 0141.53 Y -0425.85 E 0002.90 Z 0.35
 G1 X 0145.56 Y -0425.85 E 0002.98 Z 0.35
 G1 X 0149.58 Y -0425.85 E 0003.06 Z 0.35
 G1 X 0153.61 Y -0425.85 E 0003.14 Z 0.35
 G1 X 0157.63 Y -0425.85 E 0003.22 Z 0.35
 G1 X 0161.66 Y -0425.85 E 0003.30 Z 0.35
 G1 X 0165.69 Y -0425.85 E 0003.38 Z 0.35
 G1 X 0169.71 Y -0425.85 E 0003.46 Z 0.35
 G1 X 0173.74 Y -0425.85 E 0003.54 Z 0.35
 G1 X 0177.76 Y -0425.85 E 0003.62 Z 0.35
 G1 X 0181.79 Y -0425.85 E 0003.70 Z 0.35
 G1 X 0185.82 Y -0425.85 E 0003.78 Z 0.35
 G1 X 0189.84 Y -0425.85 E 0003.86 Z 0.35
 G1 X 0193.87 Y -0425.85 E 0003.95 Z 0.35
 G1 X 0197.90 Y -0425.85 E 0004.03 Z 0.35
 G1 X 0201.92 Y -0425.85 E 0004.11 Z 0.35
 G1 X 0205.94 Y -0425.85 E 0004.19 Z 0.35
 G1 X 0209.97 Y -0425.85 E 0004.27 Z 0.35
 G1 X 0214.00 Y -0425.85 E 0004.35 Z 0.35
 G1 X 0218.02 Y -0425.85 E 0004.43 Z 0.35
 G1 X 0222.05 Y -0425.85 E 0004.51 Z 0.35
 G1 X 0226.07 Y -0425.85 E 0004.59 Z 0.35
 G1 X 0230.10 Y -0425.85 E 0004.67 Z 0.35
 G1 X 0234.13 Y -0425.85 E 0004.75 Z 0.35
 G1 X 0238.15 Y -0425.85 E 0004.83 Z 0.35
 G1 X 0242.18 Y -0425.85 E 0004.91 Z 0.35
 G1 X 0246.18 Y -0426.31 E 0004.99 Z 0.35
 G1 X 0250.17 Y -0426.72 E 0005.07 Z 0.35
 G1 X 0252.33 Y -0423.75 E 0005.15 Z 0.35
 G1 X 0252.21 Y -0419.69 E 0005.23 Z 0.35
 G1 X 0251.82 Y -0415.67 E 0005.31 Z 0.35
 G1 X 0251.72 Y -0411.65 E 0005.39 Z 0.35
 G1 X 0251.72 Y -0407.62 E 0005.47 Z 0.35
 G1 X 0251.72 Y -0403.60 E 0005.55 Z 0.35
 G1 X 0251.72 Y -0399.57 E 0005.63 Z 0.35
 G1 X 0251.72 Y -0395.55 E 0005.71 Z 0.35
 G1 X 0251.72 Y -0391.52 E 0005.79 Z 0.35
 G1 X 0251.72 Y -0387.49 E 0005.87 Z 0.35
 G1 X 0251.72 Y -0383.47 E 0005.95 Z 0.35
 G1 X 0251.72 Y -0379.44 E 0006.03 Z 0.35
 G1 X 0251.72 Y -0375.42 E 0006.11 Z 0.35
 G1 X 0251.72 Y -0371.39 E 0006.19 Z 0.35
 G1 X 0251.72 Y -0367.36 E 0006.27 Z 0.35
 G1 X 0251.72 Y -0363.34 E 0006.35 Z 0.35
 G1 X 0251.72 Y -0359.31 E 0006.43 Z 0.35
 G1 X 0251.72 Y -0355.29 E 0006.52 Z 0.35
 G1 X 0251.72 Y -0351.26 E 0006.60 Z 0.35
 G1 X 0251.72 Y -0347.24 E 0006.68 Z 0.35
 G1 X 0251.72 Y -0343.21 E 0006.76 Z 0.35
 G1 X 0251.72 Y -0339.18 E 0006.84 Z 0.35
 G1 X 0251.72 Y -0335.16 E 0006.92 Z 0.35
 G1 X 0251.72 Y -0331.13 E 0007.00 Z 0.35
 G1 X 0251.72 Y -0327.11 E 0007.08 Z 0.35
 G1 X 0251.72 Y -0323.08 E 0007.16 Z 0.35
 G1 X 0251.72 Y -0319.05 E 0007.24 Z 0.35
 G1 X 0251.72 Y -0315.03 E 0007.32 Z 0.35
 G1 X 0251.72 Y -0311.00 E 0007.40 Z 0.35
 G1 X 0251.72 Y -0306.98 E 0007.48 Z 0.35
 G1 X 0251.72 Y -0302.95 E 0007.56 Z 0.35
 G1 X 0251.72 Y -0298.92 E 0007.64 Z 0.35
 G1 X 0251.72 Y -0294.90 E 0007.72 Z 0.35
 G1 X 0251.72 Y -0290.87 E 0007.80 Z 0.35
 G1 X 0251.72 Y -0286.85 E 0007.88 Z 0.35
 G1 X 0251.72 Y -0282.82 E 0007.96 Z 0.35
 G1 X 0251.72 Y -0278.79 E 0008.05 Z 0.35
 G1 X 0251.72 Y -0274.77 E 0008.13 Z 0.35
 G1 X 0251.72 Y -0270.74 E 0008.21 Z 0.35
 G1 X 0251.72 Y -0266.72 E 0008.29 Z 0.35
 G1 X 0251.72 Y -0262.69 E 0008.37 Z 0.35
 G1 X 0251.72 Y -0258.66 E 0008.45 Z 0.35
 G1 X 0251.72 Y -0254.64 E 0008.53 Z 0.35
 G1 X 0251.72 Y -0250.61 E 0008.61 Z 0.35
 G1 X 0251.72 Y -0246.59 E 0008.69 Z 0.35
 G1 X 0251.72 Y -0242.56 E 0008.77 Z 0.35
 G1 X 0251.72 Y -0238.53 E 0008.85 Z 0.35
 G1 X 0251.72 Y -0234.51 E 0008.93 Z 0.35
 G1 X 0251.72 Y -0230.48 E 0009.01 Z 0.35
 G1 X 0251.72 Y -0226.46 E 0009.09 Z 0.35
 G1 X 0251.72 Y -0222.43 E 0009.17 Z 0.35
 G1 X 0251.72 Y -0218.41 E 0009.25 Z 0.35
 G1 X 0251.72 Y -0214.38 E 0009.33 Z 0.35
 G1 X 0251.72 Y -0210.35 E 0009.41 Z 0.35
 G1 X 0251.72 Y -0206.33 E 0009.49 Z 0.35
 G1 X 0251.72 Y -0202.30 E 0009.58 Z 0.35
 G1 X 0251.72 Y -0198.28 E 0009.66 Z 0.35
 G1 X 0251.72 Y -0194.25 E 0009.74 Z 0.35
 G1 X 0251.72 Y -0190.22 E 0009.82 Z 0.35
 G1 X 0251.72 Y -0186.20 E 0009.90 Z 0.35
 G1 X 0251.72 Y -0182.17 E 0009.98 Z 0.35
 G1 X 0251.72 Y -0178.15 E 0010.06 Z 0.35
 G1 X 0251.72 Y -0174.12 E 0010.14 Z 0.35
 G1 X 0251.72 Y -0170.09 E 0010.22 Z 0.35
 G1 X 0251.72 Y -0166.07 E 0010.30 Z 0.35
 G1 X 0251.72 Y -0162.04 E 0010.38 Z 0.35
 G1 X 0251.72 Y -0158.02 E 0010.46 Z 0.35
 G1 X 0251.72 Y -0153.99 E 0010.54 Z 0.35
 G1 X 0251.72 Y -0149.96 E 0010.62 Z 0.35
 G1 X 0251.72 Y -0145.94 E 0010.70 Z 0.35
 G1 X 0251.72 Y -0141.91 E 0010.78 Z 0.35
 G1 X 0251.72 Y -0137.89 E 0010.86 Z 0.35
 G1 X 0251.72 Y -0133.86 E 0010.94 Z 0.35
 G1 X 0251.72 Y -0129.83 E 0011.02 Z 0.35
 G1 X 0251.72 Y -0125.81 E 0011.11 Z 0.35
 G1 X 0251.72 Y -0121.78 E 0011.19 Z 0.35
 G1 X 0251.72 Y -0117.76 E 0011.27 Z 0.35
 G1 X 0251.72 Y -0113.73 E 0011.35 Z 0.35
 G1 X 0251.72 Y -0109.71 E 0011.43 Z 0.35
 G1 X 0251.72 Y -0105.68 E 0011.51 Z 0.35
 G1 X 0251.72 Y -0101.65 E 0011.59 Z 0.35
 G1 X 0251.72 Y -0097.63 E 0011.67 Z 0.35
 G1 X 0251.72 Y -0093.60 E 0011.75 Z 0.35
 G1 X 0251.72 Y -0089.58 E 0011.83 Z 0.35
 G1 X 0251.72 Y -0085.55 E 0011.91 Z 0.35
 G1 X 0251.72 Y -0081.52 E 0011.99 Z 0.35
 G1 X 0251.72 Y -0077.50 E 0012.07 Z 0.35
 G1 X 0251.72 Y -0073.47 E 0012.15 Z 0.35
 G1 X 0251.72 Y -0069.45 E 0012.23 Z 0.35
 G1 X 0251.72 Y -0065.42 E 0012.31 Z 0.35
 G1 X 0251.72 Y -0061.39 E 0012.39 Z 0.35
 G1 X 0251.72 Y -0057.37 E 0012.47 Z 0.35
 G1 X 0251.72 Y -0053.34 E 0012.55 Z 0.35
 G1 X 0251.72 Y -0049.32 E 0012.63 Z 0.35
 G1 X 0251.72 Y -0045.29 E 0012.72 Z 0.35
 G1 X 0251.72 Y -0041.28 E 0012.80 Z 0.35
 G1 X 0251.72 Y -0037.24 E 0012.88 Z 0.35
 G1 X 0251.72 Y -0033.18 E 0012.96 Z 0.35
 G1 X 0251.72 Y -0029.16 E 0013.04 Z 0.35
 G1 X 0251.08 Y -0029.05 E 0013.05 Z 0.35
 G1 X 0246.96 Y -0029.05 E 0013.13 Z 0.35
 G1 X 0242.92 Y -0029.05 E 0013.21 Z 0.35
 G1 X 0238.89 Y -0029.05 E 0013.29 Z 0.35
 G1 X 0234.87 Y -0029.05 E 0013.38 Z 0.35
 G1 X 0230.84 Y -0029.05 E 0013.46 Z 0.35
 G1 X 0226.82 Y -0029.05 E 0013.54 Z 0.35
 G1 X 0222.79 Y -0029.05 E 0013.62 Z 0.35
 G1 X 0218.77 Y -0029.05 E 0013.70 Z 0.35
 G1 X 0214.74 Y -0029.05 E 0013.78 Z 0.35
 G1 X 0210.71 Y -0029.05 E 0013.86 Z 0.35
 G1 X 0206.69 Y -0029.05 E 0013.94 Z 0.35
 G1 X 0202.66 Y -0029.05 E 0014.02 Z 0.35
 G1 X 0198.64 Y -0029.05 E 0014.10 Z 0.35
 G1 X 0194.61 Y -0029.05 E 0014.18 Z 0.35
 G1 X 0190.58 Y -0029.05 E 0014.26 Z 0.35
 G1 X 0186.56 Y -0029.05 E 0014.34 Z 0.35
 G1 X 0182.53 Y -0029.05 E 0014.42 Z 0.35
 G1 X 0178.51 Y -0029.05 E 0014.50 Z 0.35
 G1 X 0174.48 Y -0029.05 E 0014.58 Z 0.35
 G1 X 0170.45 Y -0029.05 E 0014.66 Z 0.35
 G1 X 0166.43 Y -0029.05 E 0014.74 Z 0.35
 G1 X 0162.40 Y -0029.05 E 0014.82 Z 0.35
 G1 X 0158.38 Y -0029.05 E 0014.91 Z 0.35
 G1 X 0154.35 Y -0029.05 E 0014.99 Z 0.35
 G1 X 0150.32 Y -0029.05 E 0015.07 Z 0.35
 G1 X 0146.30 Y -0029.05 E 0015.15 Z 0.35
 G1 X 0142.27 Y -0029.05 E 0015.23 Z 0.35
 G1 X 0138.25 Y -0029.05 E 0015.31 Z 0.35
 G1 X 0134.22 Y -0029.05 E 0015.39 Z 0.35
 G1 X 0130.19 Y -0029.05 E 0015.47 Z 0.35
 G1 X 0126.17 Y -0029.05 E 0015.55 Z 0.35
 G1 X 0122.14 Y -0029.05 E 0015.63 Z 0.35
 G1 X 0118.12 Y -0029.05 E 0015.71 Z 0.35
 G1 X 0114.09 Y -0029.05 E 0015.79 Z 0.35
 G1 X 0110.07 Y -0029.05 E 0015.87 Z 0.35
 G1 X 0106.04 Y -0029.05 E 0015.95 Z 0.35
 G1 X 0102.01 Y -0029.05 E 0016.03 Z 0.35
 G1 X 0097.99 Y -0029.05 E 0016.11 Z 0.35
 G1 X 0093.96 Y -0029.05 E 0016.19 Z 0.35
 G1 X 0089.94 Y -0029.05 E 0016.27 Z 0.35
 G1 X 0085.91 Y -0029.05 E 0016.35 Z 0.35
 G1 X 0081.89 Y -0029.05 E 0016.43 Z 0.35
 G1 X 0077.86 Y -0029.05 E 0016.52 Z 0.35
 G1 X 0073.83 Y -0029.05 E 0016.60 Z 0.35
 G1 X 0069.81 Y -0029.05 E 0016.68 Z 0.35
 G1 X 0065.78 Y -0029.05 E 0016.76 Z 0.35
 G1 X 0061.76 Y -0029.05 E 0016.84 Z 0.35
 G1 X 0057.73 Y -0029.05 E 0016.92 Z 0.35
 G1 X 0053.70 Y -0029.05 E 0017.00 Z 0.35
 G1 X 0049.68 Y -0029.05 E 0017.08 Z 0.35
 G1 X 0045.65 Y -0029.05 E 0017.16 Z 0.35
 G1 X 0041.62 Y -0029.05 E 0017.24 Z 0.35
 G1 X 0037.60 Y -0029.05 E 0017.32 Z 0.35
 G1 X 0033.57 Y -0029.05 E 0017.40 Z 0.35
 G1 X 0029.55 Y -0029.05 E 0017.48 Z 0.35
 G1 X 0025.52 Y -0029.05 E 0017.56 Z 0.35
 G1 X 0021.50 Y -0029.05 E 0017.64 Z 0.35
 G1 X 0017.47 Y -0029.05 E 0017.72 Z 0.35
 G1 X 0013.44 Y -0029.05 E 0017.80 Z 0.35
 G1 X 0009.42 Y -0029.05 E 0017.88 Z 0.35
G1 X 0000.47 Y -0425.85 Z 0.35
 G1 X 0000.47 Y -0029.05 E 0025.82 Z 0.35
G1 X 0001.67 Y -0029.05 Z 0.35
 G1 X 0001.67 Y -0425.85 E 0033.76 Z 0.35
G1 X 0002.87 Y -0425.85 Z 0.35
 G1 X 0002.87 Y -0029.05 E 0041.69 Z 0.35
G1 X 0004.07 Y -0029.05 Z 0.35
 G1 X 0004.07 Y -0425.85 E 0049.63 Z 0.35
G1 X 0005.27 Y -0425.85 Z 0.35
 G1 X 0005.27 Y -0029.05 E 0057.56 Z 0.35
G1 X 0006.47 Y -0029.05 Z 0.35
 G1 X 0006.47 Y -0425.85 E 0065.50 Z 0.35
G1 X 0007.67 Y -0425.85 Z 0.35
 G1 X 0007.67 Y -0029.05 E 0073.44 Z 0.35
G1 X 0008.87 Y -0029.05 Z 0.35
 G1 X 0008.87 Y -0425.85 E 0081.37 Z 0.35
G1 X 0010.07 Y -0425.85 Z 0.35
 G1 X 0010.07 Y -0029.05 E 0089.31 Z 0.35
G1 X 0011.27 Y -0029.05 Z 0.35
 G1 X 0011.27 Y -0425.85 E 0097.24 Z 0.35
G1 X 0012.47 Y -0425.85 Z 0.35
 G1 X 0012.47 Y -0029.05 E 0105.18 Z 0.35
G1 X 0013.67 Y -0029.05 Z 0.35
 G1 X 0013.67 Y -0425.85 E 0113.12 Z 0.35
G1 X 0014.87 Y -0425.85 Z 0.35
 G1 X 0014.87 Y -0029.05 E 0121.05 Z 0.35
G1 X 0016.07 Y -0029.05 Z 0.35
 G1 X 0016.07 Y -0425.85 E 0128.99 Z 0.35
G1 X 0017.27 Y -0425.85 Z 0.35
 G1 X 0017.27 Y -0029.05 E 0136.92 Z 0.35
G1 X 0018.47 Y -0029.05 Z 0.35
 G1 X 0018.47 Y -0425.85 E 0144.86 Z 0.35
G1 X 0019.67 Y -0425.85 Z 0.35
 G1 X 0019.67 Y -0029.05 E 0152.80 Z 0.35
G1 X 0020.87 Y -0029.05 Z 0.35
 G1 X 0020.87 Y -0425.85 E 0160.73 Z 0.35
G1 X 0022.07 Y -0425.85 Z 0.35
 G1 X 0022.07 Y -0029.05 E 0168.67 Z 0.35
G1 X 0023.27 Y -0029.05 Z 0.35
 G1 X 0023.27 Y -0425.85 E 0176.60 Z 0.35
G1 X 0024.47 Y -0425.85 Z 0.35
 G1 X 0024.47 Y -0029.05 E 0184.54 Z 0.35
G1 X 0025.67 Y -0029.05 Z 0.35
 G1 X 0025.67 Y -0425.85 E 0192.48 Z 0.35
G1 X 0026.87 Y -0425.85 Z 0.35
 G1 X 0026.87 Y -0029.05 E 0200.41 Z 0.35
G1 X 0028.07 Y -0029.05 Z 0.35
 G1 X 0028.07 Y -0425.85 E 0208.35 Z 0.35
G1 X 0029.27 Y -0425.85 Z 0.35
 G1 X 0029.27 Y -0029.05 E 0216.28 Z 0.35
G1 X 0030.47 Y -0029.05 Z 0.35
 G1 X 0030.47 Y -0425.85 E 0224.22 Z 0.35
G1 X 0031.67 Y -0425.85 Z 0.35
 G1 X 0031.67 Y -0029.05 E 0232.16 Z 0.35
G1 X 0032.87 Y -0029.05 Z 0.35
 G1 X 0032.87 Y -0425.85 E 0240.09 Z 0.35
G1 X 0034.07 Y -0425.85 Z 0.35
 G1 X 0034.07 Y -0029.05 E 0248.03 Z 0.35
G1 X 0035.27 Y -0029.05 Z 0.35
 G1 X 0035.27 Y -0425.85 E 0255.96 Z 0.35
G1 X 0036.47 Y -0425.85 Z 0.35
 G1 X 0036.47 Y -0029.05 E 0263.90 Z 0.35
G1 X 0037.67 Y -0029.05 Z 0.35
 G1 X 0037.67 Y -0425.85 E 0271.84 Z 0.35
G1 X 0038.87 Y -0425.85 Z 0.35
 G1 X 0038.87 Y -0029.05 E 0279.77 Z 0.35
G1 X 0040.07 Y -0029.05 Z 0.35
 G1 X 0040.07 Y -0425.85 E 0287.71 Z 0.35
G1 X 0041.27 Y -0425.85 Z 0.35
 G1 X 0041.27 Y -0029.05 E 0295.64 Z 0.35
G1 X 0042.47 Y -0029.05 Z 0.35
 G1 X 0042.47 Y -0425.85 E 0303.58 Z 0.35
G1 X 0043.67 Y -0425.85 Z 0.35
 G1 X 0043.67 Y -0029.05 E 0311.52 Z 0.35
G1 X 0044.87 Y -0029.05 Z 0.35
 G1 X 0044.87 Y -0425.85 E 0319.45 Z 0.35
G1 X 0046.07 Y -0425.85 Z 0.35
 G1 X 0046.07 Y -0029.05 E 0327.39 Z 0.35
G1 X 0047.27 Y -0029.05 Z 0.35
 G1 X 0047.27 Y -0425.85 E 0335.32 Z 0.35
G1 X 0048.47 Y -0425.85 Z 0.35
 G1 X 0048.47 Y -0029.05 E 0343.26 Z 0.35
G1 X 0049.67 Y -0029.05 Z 0.35
 G1 X 0049.67 Y -0425.85 E 0351.20 Z 0.35
G1 X 0050.87 Y -0425.85 Z 0.35
 G1 X 0050.87 Y -0029.05 E 0359.13 Z 0.35
G1 X 0052.07 Y -0029.05 Z 0.35
 G1 X 0052.07 Y -0425.85 E 0367.07 Z 0.35
G1 X 0053.27 Y -0425.85 Z 0.35
 G1 X 0053.27 Y -0029.05 E 0375.00 Z 0.35
G1 X 0054.47 Y -0029.05 Z 0.35
 G1 X 0054.47 Y -0425.85 E 0382.94 Z 0.35
G1 X 0055.67 Y -0425.85 Z 0.35
 G1 X 0055.67 Y -0029.05 E 0390.88 Z 0.35
G1 X 0056.87 Y -0029.05 Z 0.35
 G1 X 0056.87 Y -0425.85 E 0398.81 Z 0.35
G1 X 0058.07 Y -0425.85 Z 0.35
 G1 X 0058.07 Y -0029.05 E 0406.75 Z 0.35
G1 X 0059.27 Y -0029.05 Z 0.35
 G1 X 0059.27 Y -0425.85 E 0414.68 Z 0.35
G1 X 0060.47 Y -0425.85 Z 0.35
 G1 X 0060.47 Y -0029.05 E 0422.62 Z 0.35
G1 X 0061.67 Y -0029.05 Z 0.35
 G1 X 0061.67 Y -0425.85 E 0430.56 Z 0.35
G1 X 0062.87 Y -0425.85 Z 0.35
 G1 X 0062.87 Y -0029.05 E 0438.49 Z 0.35
G1 X 0064.07 Y -0029.05 Z 0.35
 G1 X 0064.07 Y -0425.85 E 0446.43 Z 0.35
G1 X 0065.27 Y -0425.85 Z 0.35
 G1 X 0065.27 Y -0029.05 E 0454.36 Z 0.35
G1 X 0066.47 Y -0029.05 Z 0.35
 G1 X 0066.47 Y -0425.85 E 0462.30 Z 0.35
G1 X 0067.67 Y -0425.85 Z 0.35
 G1 X 0067.67 Y -0029.05 E 0470.24 Z 0.35
G1 X 0068.87 Y -0029.05 Z 0.35
 G1 X 0068.87 Y -0425.85 E 0478.17 Z 0.35
G1 X 0070.07 Y -0425.85 Z 0.35
 G1 X 0070.07 Y -0029.05 E 0486.11 Z 0.35
G1 X 0071.27 Y -0029.05 Z 0.35
 G1 X 0071.27 Y -0425.85 E 0494.04 Z 0.35
G1 X 0072.47 Y -0425.85 Z 0.35
 G1 X 0072.47 Y -0029.05 E 0501.98 Z 0.35
G1 X 0073.67 Y -0029.05 Z 0.35
 G1 X 0073.67 Y -0425.85 E 0509.92 Z 0.35
G1 X 0074.87 Y -0425.85 Z 0.35
 G1 X 0074.87 Y -0029.05 E 0517.85 Z 0.35
G1 X 0076.07 Y -0029.05 Z 0.35
 G1 X 0076.07 Y -0425.85 E 0525.79 Z 0.35
G1 X 0077.27 Y -0425.85 Z 0.35
 G1 X 0077.27 Y -0029.05 E 0533.72 Z 0.35
G1 X 0078.47 Y -0029.05 Z 0.35
 G1 X 0078.47 Y -0425.85 E 0541.66 Z 0.35
G1 X 0079.67 Y -0425.85 Z 0.35
 G1 X 0079.67 Y -0029.05 E 0549.60 Z 0.35
G1 X 0080.87 Y -0029.05 Z 0.35
 G1 X 0080.87 Y -0425.85 E 0557.53 Z 0.35
G1 X 0082.07 Y -0425.85 Z 0.35
 G1 X 0082.07 Y -0029.05 E 0565.47 Z 0.35
G1 X 0083.27 Y -0029.05 Z 0.35
 G1 X 0083.27 Y -0425.85 E 0573.40 Z 0.35
G1 X 0084.47 Y -0425.85 Z 0.35
 G1 X 0084.47 Y -0029.05 E 0581.34 Z 0.35
G1 X 0085.67 Y -0029.05 Z 0.35
 G1 X 0085.67 Y -0425.85 E 0589.28 Z 0.35
G1 X 0086.87 Y -0425.85 Z 0.35
 G1 X 0086.87 Y -0029.05 E 0597.21 Z 0.35
G1 X 0088.07 Y -0029.05 Z 0.35
 G1 X 0088.07 Y -0425.85 E 0605.15 Z 0.35
G1 X 0089.27 Y -0425.85 Z 0.35
 G1 X 0089.27 Y -0029.05 E 0613.08 Z 0.35
G1 X 0090.47 Y -0029.05 Z 0.35
 G1 X 0090.47 Y -0425.85 E 0621.02 Z 0.35
G1 X 0091.67 Y -0425.85 Z 0.35
 G1 X 0091.67 Y -0029.05 E 0628.96 Z 0.35
G1 X 0092.87 Y -0029.05 Z 0.35
 G1 X 0092.87 Y -0425.85 E 0636.89 Z 0.35
G1 X 0094.07 Y -0425.85 Z 0.35
 G1 X 0094.07 Y -0029.05 E 0644.83 Z 0.35
G1 X 0095.27 Y -0029.05 Z 0.35
 G1 X 0095.27 Y -0425.85 E 0652.76 Z 0.35
G1 X 0096.47 Y -0425.85 Z 0.35
 G1 X 0096.47 Y -0029.05 E 0660.70 Z 0.35
G1 X 0097.67 Y -0029.05 Z 0.35
 G1 X 0097.67 Y -0425.85 E 0668.64 Z 0.35
G1 X 0098.87 Y -0425.85 Z 0.35
 G1 X 0098.87 Y -0029.05 E 0676.57 Z 0.35
G1 X 0100.07 Y -0029.05 Z 0.35
