;FLAVOR:RepRap
;Layer height:0.25
;NOZZLE DIAMETER:0.4
M104 S240
M109 S240
G21 ;metric values
G90 ;absolute positioning
M82 ;set extruder to absolute mode
M107 ;start with the fan off
G28 X0 Y0 ;move X/Y to min endstops
G28 Z0 ;move Z to min endstops
G1 Z15.0 F9000 ;move the platform down 15mm
G92 E0 ;zero the extruded length
G1 F200 E30 ;extrude 3mm of feed stock
G92 E0 ;zero the extruded length again
G1 F9000
M117 Printing...
M107
G1 F1500.0
G0 Z0.35
G1 X 0074.42 Y 0179.42 Z 0.35
 G1 X 0074.65 Y 0178.46 E 0000.02 Z 0.35
 G1 X 0075.62 Y 0178.36 E 0000.04 Z 0.35
 G1 X 0076.63 Y 0178.53 E 0000.06 Z 0.35
 G1 X 0077.62 Y 0178.54 E 0000.08 Z 0.35
 G1 X 0078.63 Y 0178.54 E 0000.10 Z 0.35
 G1 X 0079.64 Y 0178.54 E 0000.12 Z 0.35
 G1 X 0080.64 Y 0178.54 E 0000.14 Z 0.35
 G1 X 0081.65 Y 0178.54 E 0000.16 Z 0.35
 G1 X 0082.66 Y 0178.54 E 0000.18 Z 0.35
 G1 X 0083.66 Y 0178.54 E 0000.20 Z 0.35
 G1 X 0084.67 Y 0178.54 E 0000.22 Z 0.35
 G1 X 0085.68 Y 0178.54 E 0000.24 Z 0.35
 G1 X 0086.68 Y 0178.54 E 0000.26 Z 0.35
 G1 X 0087.69 Y 0178.54 E 0000.28 Z 0.35
 G1 X 0088.70 Y 0178.54 E 0000.30 Z 0.35
 G1 X 0089.70 Y 0178.54 E 0000.32 Z 0.35
 G1 X 0090.71 Y 0178.54 E 0000.34 Z 0.35
 G1 X 0091.71 Y 0178.54 E 0000.36 Z 0.35
 G1 X 0092.72 Y 0178.54 E 0000.38 Z 0.35
 G1 X 0093.73 Y 0178.54 E 0000.40 Z 0.35
 G1 X 0094.73 Y 0178.54 E 0000.42 Z 0.35
 G1 X 0095.74 Y 0178.54 E 0000.44 Z 0.35
 G1 X 0096.75 Y 0178.54 E 0000.46 Z 0.35
 G1 X 0097.75 Y 0178.54 E 0000.48 Z 0.35
 G1 X 0098.76 Y 0178.54 E 0000.50 Z 0.35
 G1 X 0099.77 Y 0178.54 E 0000.52 Z 0.35
 G1 X 0100.77 Y 0178.54 E 0000.54 Z 0.35
 G1 X 0101.78 Y 0178.54 E 0000.56 Z 0.35
 G1 X 0102.79 Y 0178.54 E 0000.58 Z 0.35
 G1 X 0103.79 Y 0178.54 E 0000.60 Z 0.35
 G1 X 0104.80 Y 0178.54 E 0000.62 Z 0.35
 G1 X 0105.81 Y 0178.54 E 0000.64 Z 0.35
 G1 X 0106.81 Y 0178.54 E 0000.66 Z 0.35
 G1 X 0107.82 Y 0178.54 E 0000.68 Z 0.35
 G1 X 0108.82 Y 0178.54 E 0000.70 Z 0.35
 G1 X 0109.83 Y 0178.54 E 0000.72 Z 0.35
 G1 X 0110.84 Y 0178.54 E 0000.74 Z 0.35
 G1 X 0111.84 Y 0178.54 E 0000.76 Z 0.35
 G1 X 0112.85 Y 0178.54 E 0000.78 Z 0.35
 G1 X 0113.86 Y 0178.54 E 0000.80 Z 0.35
 G1 X 0114.86 Y 0178.54 E 0000.82 Z 0.35
 G1 X 0115.87 Y 0178.54 E 0000.84 Z 0.35
 G1 X 0116.88 Y 0178.54 E 0000.86 Z 0.35
 G1 X 0117.88 Y 0178.54 E 0000.88 Z 0.35
 G1 X 0118.89 Y 0178.54 E 0000.90 Z 0.35
 G1 X 0119.90 Y 0178.54 E 0000.93 Z 0.35
 G1 X 0120.90 Y 0178.54 E 0000.95 Z 0.35
 G1 X 0121.91 Y 0178.54 E 0000.97 Z 0.35
 G1 X 0122.91 Y 0178.54 E 0000.99 Z 0.35
 G1 X 0123.92 Y 0178.54 E 0001.01 Z 0.35
 G1 X 0124.93 Y 0178.54 E 0001.03 Z 0.35
 G1 X 0125.94 Y 0178.54 E 0001.05 Z 0.35
 G1 X 0126.94 Y 0178.54 E 0001.07 Z 0.35
 G1 X 0127.95 Y 0178.54 E 0001.09 Z 0.35
 G1 X 0128.95 Y 0178.54 E 0001.11 Z 0.35
 G1 X 0129.96 Y 0178.54 E 0001.13 Z 0.35
 G1 X 0130.97 Y 0178.54 E 0001.15 Z 0.35
 G1 X 0131.97 Y 0178.54 E 0001.17 Z 0.35
 G1 X 0132.98 Y 0178.54 E 0001.19 Z 0.35
 G1 X 0133.99 Y 0178.54 E 0001.21 Z 0.35
 G1 X 0134.99 Y 0178.54 E 0001.23 Z 0.35
 G1 X 0136.00 Y 0178.54 E 0001.25 Z 0.35
 G1 X 0137.01 Y 0178.54 E 0001.27 Z 0.35
 G1 X 0138.01 Y 0178.54 E 0001.29 Z 0.35
 G1 X 0139.02 Y 0178.54 E 0001.31 Z 0.35
 G1 X 0140.03 Y 0178.54 E 0001.33 Z 0.35
 G1 X 0141.03 Y 0178.54 E 0001.35 Z 0.35
 G1 X 0142.04 Y 0178.54 E 0001.37 Z 0.35
 G1 X 0143.04 Y 0178.54 E 0001.39 Z 0.35
 G1 X 0144.04 Y 0178.42 E 0001.41 Z 0.35
 G1 X 0145.04 Y 0178.32 E 0001.43 Z 0.35
 G1 X 0145.58 Y 0179.06 E 0001.45 Z 0.35
 G1 X 0145.55 Y 0180.08 E 0001.47 Z 0.35
 G1 X 0145.46 Y 0181.08 E 0001.49 Z 0.35
 G1 X 0145.43 Y 0182.09 E 0001.51 Z 0.35
 G1 X 0145.43 Y 0183.09 E 0001.53 Z 0.35
 G1 X 0145.43 Y 0184.10 E 0001.55 Z 0.35
 G1 X 0145.43 Y 0185.11 E 0001.57 Z 0.35
 G1 X 0145.43 Y 0186.11 E 0001.59 Z 0.35
 G1 X 0145.43 Y 0187.12 E 0001.61 Z 0.35
 G1 X 0145.43 Y 0188.13 E 0001.63 Z 0.35
 G1 X 0145.43 Y 0189.13 E 0001.65 Z 0.35
 G1 X 0145.43 Y 0190.14 E 0001.67 Z 0.35
 G1 X 0145.43 Y 0191.15 E 0001.69 Z 0.35
 G1 X 0145.43 Y 0192.15 E 0001.71 Z 0.35
 G1 X 0145.43 Y 0193.16 E 0001.73 Z 0.35
 G1 X 0145.43 Y 0194.17 E 0001.75 Z 0.35
 G1 X 0145.43 Y 0195.17 E 0001.77 Z 0.35
 G1 X 0145.43 Y 0196.18 E 0001.79 Z 0.35
 G1 X 0145.43 Y 0197.18 E 0001.81 Z 0.35
 G1 X 0145.43 Y 0198.19 E 0001.83 Z 0.35
 G1 X 0145.43 Y 0199.20 E 0001.85 Z 0.35
 G1 X 0145.43 Y 0200.20 E 0001.87 Z 0.35
 G1 X 0145.43 Y 0201.21 E 0001.89 Z 0.35
 G1 X 0145.43 Y 0202.22 E 0001.91 Z 0.35
 G1 X 0145.43 Y 0203.22 E 0001.93 Z 0.35
 G1 X 0145.43 Y 0204.23 E 0001.95 Z 0.35
 G1 X 0145.43 Y 0205.24 E 0001.97 Z 0.35
 G1 X 0145.43 Y 0206.24 E 0001.99 Z 0.35
 G1 X 0145.43 Y 0207.25 E 0002.01 Z 0.35
 G1 X 0145.43 Y 0208.26 E 0002.03 Z 0.35
 G1 X 0145.43 Y 0209.26 E 0002.05 Z 0.35
 G1 X 0145.43 Y 0210.27 E 0002.07 Z 0.35
 G1 X 0145.43 Y 0211.28 E 0002.09 Z 0.35
 G1 X 0145.43 Y 0212.28 E 0002.11 Z 0.35
 G1 X 0145.43 Y 0213.29 E 0002.13 Z 0.35
 G1 X 0145.43 Y 0214.29 E 0002.15 Z 0.35
 G1 X 0145.43 Y 0215.30 E 0002.17 Z 0.35
 G1 X 0145.43 Y 0216.31 E 0002.19 Z 0.35
 G1 X 0145.43 Y 0217.31 E 0002.21 Z 0.35
 G1 X 0145.43 Y 0218.32 E 0002.23 Z 0.35
 G1 X 0145.43 Y 0219.33 E 0002.25 Z 0.35
 G1 X 0145.43 Y 0220.33 E 0002.27 Z 0.35
 G1 X 0145.43 Y 0221.34 E 0002.29 Z 0.35
 G1 X 0145.43 Y 0222.35 E 0002.31 Z 0.35
 G1 X 0145.43 Y 0223.35 E 0002.33 Z 0.35
 G1 X 0145.43 Y 0224.36 E 0002.35 Z 0.35
 G1 X 0145.43 Y 0225.37 E 0002.37 Z 0.35
 G1 X 0145.43 Y 0226.37 E 0002.39 Z 0.35
 G1 X 0145.43 Y 0227.38 E 0002.41 Z 0.35
 G1 X 0145.43 Y 0228.39 E 0002.43 Z 0.35
 G1 X 0145.43 Y 0229.39 E 0002.45 Z 0.35
 G1 X 0145.43 Y 0230.40 E 0002.47 Z 0.35
 G1 X 0145.43 Y 0231.41 E 0002.49 Z 0.35
 G1 X 0145.43 Y 0232.41 E 0002.51 Z 0.35
 G1 X 0145.43 Y 0233.42 E 0002.53 Z 0.35
 G1 X 0145.43 Y 0234.42 E 0002.55 Z 0.35
 G1 X 0145.43 Y 0235.43 E 0002.57 Z 0.35
 G1 X 0145.43 Y 0236.44 E 0002.59 Z 0.35
 G1 X 0145.43 Y 0237.44 E 0002.61 Z 0.35
 G1 X 0145.43 Y 0238.45 E 0002.63 Z 0.35
 G1 X 0145.43 Y 0239.46 E 0002.65 Z 0.35
 G1 X 0145.43 Y 0240.46 E 0002.67 Z 0.35
 G1 X 0145.43 Y 0241.47 E 0002.69 Z 0.35
 G1 X 0145.43 Y 0242.48 E 0002.71 Z 0.35
 G1 X 0145.43 Y 0243.48 E 0002.74 Z 0.35
 G1 X 0145.43 Y 0244.49 E 0002.76 Z 0.35
 G1 X 0145.43 Y 0245.50 E 0002.78 Z 0.35
 G1 X 0145.43 Y 0246.50 E 0002.80 Z 0.35
 G1 X 0145.43 Y 0247.51 E 0002.82 Z 0.35
 G1 X 0145.43 Y 0248.52 E 0002.84 Z 0.35
 G1 X 0145.43 Y 0249.52 E 0002.86 Z 0.35
 G1 X 0145.43 Y 0250.53 E 0002.88 Z 0.35
 G1 X 0145.43 Y 0251.53 E 0002.90 Z 0.35
 G1 X 0145.43 Y 0252.54 E 0002.92 Z 0.35
 G1 X 0145.43 Y 0253.55 E 0002.94 Z 0.35
 G1 X 0145.43 Y 0254.55 E 0002.96 Z 0.35
 G1 X 0145.43 Y 0255.56 E 0002.98 Z 0.35
 G1 X 0145.43 Y 0256.57 E 0003.00 Z 0.35
 G1 X 0145.43 Y 0257.57 E 0003.02 Z 0.35
 G1 X 0145.43 Y 0258.58 E 0003.04 Z 0.35
 G1 X 0145.43 Y 0259.59 E 0003.06 Z 0.35
 G1 X 0145.43 Y 0260.59 E 0003.08 Z 0.35
 G1 X 0145.43 Y 0261.60 E 0003.10 Z 0.35
 G1 X 0145.43 Y 0262.61 E 0003.12 Z 0.35
 G1 X 0145.43 Y 0263.61 E 0003.14 Z 0.35
 G1 X 0145.43 Y 0264.62 E 0003.16 Z 0.35
 G1 X 0145.43 Y 0265.63 E 0003.18 Z 0.35
 G1 X 0145.43 Y 0266.63 E 0003.20 Z 0.35
 G1 X 0145.43 Y 0267.64 E 0003.22 Z 0.35
 G1 X 0145.43 Y 0268.65 E 0003.24 Z 0.35
 G1 X 0145.43 Y 0269.65 E 0003.26 Z 0.35
 G1 X 0145.43 Y 0270.66 E 0003.28 Z 0.35
 G1 X 0145.43 Y 0271.66 E 0003.30 Z 0.35
 G1 X 0145.43 Y 0272.67 E 0003.32 Z 0.35
 G1 X 0145.43 Y 0273.68 E 0003.34 Z 0.35
 G1 X 0145.43 Y 0274.68 E 0003.36 Z 0.35
 G1 X 0145.43 Y 0275.69 E 0003.38 Z 0.35
 G1 X 0145.43 Y 0276.70 E 0003.40 Z 0.35
 G1 X 0145.43 Y 0277.71 E 0003.42 Z 0.35
 G1 X 0145.27 Y 0277.74 E 0003.42 Z 0.35
 G1 X 0144.24 Y 0277.74 E 0003.44 Z 0.35
 G1 X 0143.23 Y 0277.74 E 0003.46 Z 0.35
 G1 X 0142.22 Y 0277.74 E 0003.48 Z 0.35
 G1 X 0141.22 Y 0277.74 E 0003.50 Z 0.35
 G1 X 0140.21 Y 0277.74 E 0003.52 Z 0.35
 G1 X 0139.20 Y 0277.74 E 0003.54 Z 0.35
 G1 X 0138.20 Y 0277.74 E 0003.56 Z 0.35
 G1 X 0137.19 Y 0277.74 E 0003.58 Z 0.35
 G1 X 0136.18 Y 0277.74 E 0003.60 Z 0.35
 G1 X 0135.18 Y 0277.74 E 0003.62 Z 0.35
 G1 X 0134.17 Y 0277.74 E 0003.64 Z 0.35
 G1 X 0133.17 Y 0277.74 E 0003.66 Z 0.35
 G1 X 0132.16 Y 0277.74 E 0003.69 Z 0.35
 G1 X 0131.15 Y 0277.74 E 0003.71 Z 0.35
 G1 X 0130.15 Y 0277.74 E 0003.73 Z 0.35
 G1 X 0129.14 Y 0277.74 E 0003.75 Z 0.35
 G1 X 0128.13 Y 0277.74 E 0003.77 Z 0.35
 G1 X 0127.13 Y 0277.74 E 0003.79 Z 0.35
 G1 X 0126.12 Y 0277.74 E 0003.81 Z 0.35
 G1 X 0125.11 Y 0277.74 E 0003.83 Z 0.35
 G1 X 0124.11 Y 0277.74 E 0003.85 Z 0.35
 G1 X 0123.10 Y 0277.74 E 0003.87 Z 0.35
 G1 X 0122.09 Y 0277.74 E 0003.89 Z 0.35
 G1 X 0121.09 Y 0277.74 E 0003.91 Z 0.35
 G1 X 0120.08 Y 0277.74 E 0003.93 Z 0.35
 G1 X 0119.07 Y 0277.74 E 0003.95 Z 0.35
 G1 X 0118.07 Y 0277.74 E 0003.97 Z 0.35
 G1 X 0117.06 Y 0277.74 E 0003.99 Z 0.35
 G1 X 0116.06 Y 0277.74 E 0004.01 Z 0.35
 G1 X 0115.05 Y 0277.74 E 0004.03 Z 0.35
 G1 X 0114.04 Y 0277.74 E 0004.05 Z 0.35
 G1 X 0113.04 Y 0277.74 E 0004.07 Z 0.35
 G1 X 0112.03 Y 0277.74 E 0004.09 Z 0.35
 G1 X 0111.02 Y 0277.74 E 0004.11 Z 0.35
 G1 X 0110.02 Y 0277.74 E 0004.13 Z 0.35
 G1 X 0109.01 Y 0277.74 E 0004.15 Z 0.35
 G1 X 0108.00 Y 0277.74 E 0004.17 Z 0.35
 G1 X 0107.00 Y 0277.74 E 0004.19 Z 0.35
 G1 X 0105.99 Y 0277.74 E 0004.21 Z 0.35
 G1 X 0104.98 Y 0277.74 E 0004.23 Z 0.35
 G1 X 0103.98 Y 0277.74 E 0004.25 Z 0.35
 G1 X 0102.97 Y 0277.74 E 0004.27 Z 0.35
 G1 X 0101.96 Y 0277.74 E 0004.29 Z 0.35
 G1 X 0100.96 Y 0277.74 E 0004.31 Z 0.35
 G1 X 0099.95 Y 0277.74 E 0004.33 Z 0.35
 G1 X 0098.95 Y 0277.74 E 0004.35 Z 0.35
 G1 X 0097.94 Y 0277.74 E 0004.37 Z 0.35
 G1 X 0096.93 Y 0277.74 E 0004.39 Z 0.35
 G1 X 0095.93 Y 0277.74 E 0004.41 Z 0.35
 G1 X 0094.92 Y 0277.74 E 0004.43 Z 0.35
 G1 X 0093.91 Y 0277.74 E 0004.45 Z 0.35
 G1 X 0092.91 Y 0277.74 E 0004.47 Z 0.35
 G1 X 0091.90 Y 0277.74 E 0004.49 Z 0.35
 G1 X 0090.89 Y 0277.74 E 0004.51 Z 0.35
 G1 X 0089.89 Y 0277.74 E 0004.53 Z 0.35
 G1 X 0088.88 Y 0277.74 E 0004.55 Z 0.35
 G1 X 0087.87 Y 0277.74 E 0004.57 Z 0.35
 G1 X 0086.87 Y 0277.74 E 0004.59 Z 0.35
 G1 X 0085.86 Y 0277.74 E 0004.61 Z 0.35
 G1 X 0084.85 Y 0277.74 E 0004.63 Z 0.35
 G1 X 0083.85 Y 0277.74 E 0004.65 Z 0.35
 G1 X 0082.84 Y 0277.74 E 0004.67 Z 0.35
 G1 X 0081.84 Y 0277.74 E 0004.69 Z 0.35
 G1 X 0080.83 Y 0277.74 E 0004.71 Z 0.35
 G1 X 0079.82 Y 0277.74 E 0004.73 Z 0.35
 G1 X 0078.82 Y 0277.74 E 0004.75 Z 0.35
 G1 X 0077.81 Y 0277.74 E 0004.77 Z 0.35
 G1 X 0076.80 Y 0277.74 E 0004.79 Z 0.35
 G1 X 0075.80 Y 0277.88 E 0004.81 Z 0.35
 G1 X 0074.80 Y 0277.91 E 0004.83 Z 0.35
 G1 X 0074.42 Y 0277.05 E 0004.85 Z 0.35
 G1 X 0074.47 Y 0276.04 E 0004.87 Z 0.35
 G1 X 0074.57 Y 0275.02 E 0004.89 Z 0.35
 G1 X 0074.58 Y 0274.03 E 0004.91 Z 0.35
 G1 X 0074.58 Y 0273.02 E 0004.93 Z 0.35
 G1 X 0074.58 Y 0272.01 E 0004.95 Z 0.35
 G1 X 0074.58 Y 0271.01 E 0004.97 Z 0.35
 G1 X 0074.58 Y 0270.00 E 0004.99 Z 0.35
 G1 X 0074.58 Y 0268.99 E 0005.01 Z 0.35
 G1 X 0074.58 Y 0267.99 E 0005.03 Z 0.35
 G1 X 0074.58 Y 0266.98 E 0005.05 Z 0.35
 G1 X 0074.58 Y 0265.97 E 0005.07 Z 0.35
 G1 X 0074.58 Y 0264.97 E 0005.09 Z 0.35
 G1 X 0074.58 Y 0263.96 E 0005.11 Z 0.35
 G1 X 0074.58 Y 0262.95 E 0005.13 Z 0.35
 G1 X 0074.58 Y 0261.95 E 0005.15 Z 0.35
 G1 X 0074.58 Y 0260.94 E 0005.17 Z 0.35
 G1 X 0074.58 Y 0259.93 E 0005.19 Z 0.35
 G1 X 0074.58 Y 0258.93 E 0005.21 Z 0.35
 G1 X 0074.58 Y 0257.92 E 0005.23 Z 0.35
 G1 X 0074.58 Y 0256.91 E 0005.25 Z 0.35
 G1 X 0074.58 Y 0255.91 E 0005.27 Z 0.35
 G1 X 0074.58 Y 0254.90 E 0005.29 Z 0.35
 G1 X 0074.58 Y 0253.90 E 0005.31 Z 0.35
 G1 X 0074.58 Y 0252.89 E 0005.33 Z 0.35
 G1 X 0074.58 Y 0251.88 E 0005.35 Z 0.35
 G1 X 0074.58 Y 0250.88 E 0005.37 Z 0.35
 G1 X 0074.58 Y 0249.87 E 0005.40 Z 0.35
 G1 X 0074.58 Y 0248.86 E 0005.42 Z 0.35
 G1 X 0074.58 Y 0247.86 E 0005.44 Z 0.35
 G1 X 0074.58 Y 0246.85 E 0005.46 Z 0.35
 G1 X 0074.58 Y 0245.84 E 0005.48 Z 0.35
 G1 X 0074.58 Y 0244.84 E 0005.50 Z 0.35
 G1 X 0074.58 Y 0243.83 E 0005.52 Z 0.35
 G1 X 0074.58 Y 0242.82 E 0005.54 Z 0.35
 G1 X 0074.58 Y 0241.82 E 0005.56 Z 0.35
 G1 X 0074.58 Y 0240.81 E 0005.58 Z 0.35
 G1 X 0074.58 Y 0239.80 E 0005.60 Z 0.35
 G1 X 0074.58 Y 0238.80 E 0005.62 Z 0.35
 G1 X 0074.58 Y 0237.79 E 0005.64 Z 0.35
 G1 X 0074.58 Y 0236.79 E 0005.66 Z 0.35
 G1 X 0074.58 Y 0235.78 E 0005.68 Z 0.35
 G1 X 0074.58 Y 0234.77 E 0005.70 Z 0.35
 G1 X 0074.58 Y 0233.77 E 0005.72 Z 0.35
 G1 X 0074.58 Y 0232.76 E 0005.74 Z 0.35
 G1 X 0074.58 Y 0231.75 E 0005.76 Z 0.35
 G1 X 0074.58 Y 0230.75 E 0005.78 Z 0.35
 G1 X 0074.58 Y 0229.74 E 0005.80 Z 0.35
 G1 X 0074.58 Y 0228.73 E 0005.82 Z 0.35
 G1 X 0074.58 Y 0227.73 E 0005.84 Z 0.35
 G1 X 0074.58 Y 0226.72 E 0005.86 Z 0.35
 G1 X 0074.58 Y 0225.71 E 0005.88 Z 0.35
 G1 X 0074.58 Y 0224.71 E 0005.90 Z 0.35
 G1 X 0074.58 Y 0223.70 E 0005.92 Z 0.35
 G1 X 0074.58 Y 0222.69 E 0005.94 Z 0.35
 G1 X 0074.58 Y 0221.69 E 0005.96 Z 0.35
 G1 X 0074.58 Y 0220.68 E 0005.98 Z 0.35
 G1 X 0074.58 Y 0219.68 E 0006.00 Z 0.35
 G1 X 0074.58 Y 0218.67 E 0006.02 Z 0.35
 G1 X 0074.58 Y 0217.66 E 0006.04 Z 0.35
 G1 X 0074.58 Y 0216.66 E 0006.06 Z 0.35
 G1 X 0074.58 Y 0215.65 E 0006.08 Z 0.35
 G1 X 0074.58 Y 0214.64 E 0006.10 Z 0.35
 G1 X 0074.58 Y 0213.64 E 0006.12 Z 0.35
 G1 X 0074.58 Y 0212.63 E 0006.14 Z 0.35
 G1 X 0074.58 Y 0211.62 E 0006.16 Z 0.35
 G1 X 0074.58 Y 0210.62 E 0006.18 Z 0.35
 G1 X 0074.58 Y 0209.61 E 0006.20 Z 0.35
 G1 X 0074.58 Y 0208.60 E 0006.22 Z 0.35
 G1 X 0074.58 Y 0207.60 E 0006.24 Z 0.35
 G1 X 0074.58 Y 0206.59 E 0006.26 Z 0.35
 G1 X 0074.58 Y 0205.58 E 0006.28 Z 0.35
 G1 X 0074.58 Y 0204.58 E 0006.30 Z 0.35
 G1 X 0074.58 Y 0203.57 E 0006.32 Z 0.35
 G1 X 0074.58 Y 0202.57 E 0006.34 Z 0.35
 G1 X 0074.58 Y 0201.56 E 0006.36 Z 0.35
 G1 X 0074.58 Y 0200.55 E 0006.38 Z 0.35
 G1 X 0074.58 Y 0199.55 E 0006.40 Z 0.35
 G1 X 0074.58 Y 0198.54 E 0006.42 Z 0.35
 G1 X 0074.58 Y 0197.53 E 0006.44 Z 0.35
 G1 X 0074.58 Y 0196.53 E 0006.46 Z 0.35
 G1 X 0074.58 Y 0195.52 E 0006.48 Z 0.35
 G1 X 0074.58 Y 0194.51 E 0006.50 Z 0.35
 G1 X 0074.58 Y 0193.51 E 0006.52 Z 0.35
 G1 X 0074.58 Y 0192.50 E 0006.54 Z 0.35
 G1 X 0074.58 Y 0191.49 E 0006.56 Z 0.35
 G1 X 0074.58 Y 0190.49 E 0006.58 Z 0.35
 G1 X 0074.58 Y 0189.48 E 0006.60 Z 0.35
 G1 X 0074.58 Y 0188.47 E 0006.62 Z 0.35
 G1 X 0074.58 Y 0187.47 E 0006.64 Z 0.35
 G1 X 0074.58 Y 0186.46 E 0006.66 Z 0.35
 G1 X 0074.58 Y 0185.46 E 0006.68 Z 0.35
 G1 X 0074.58 Y 0184.45 E 0006.70 Z 0.35
 G1 X 0074.58 Y 0183.44 E 0006.72 Z 0.35
 G1 X 0074.58 Y 0182.44 E 0006.74 Z 0.35
 G1 X 0074.58 Y 0181.44 E 0006.76 Z 0.35
 G1 X 0074.49 Y 0180.43 E 0006.78 Z 0.35
G1 X 0109.62 Y 0277.74 Z 0.35
 G1 X 0109.62 Y 0178.54 E 0008.77 Z 0.35
G1 X 0110.82 Y 0178.54 Z 0.35
 G1 X 0110.82 Y 0277.74 E 0010.75 Z 0.35
G1 X 0112.02 Y 0277.74 Z 0.35
 G1 X 0112.02 Y 0178.54 E 0012.74 Z 0.35
G1 X 0113.22 Y 0178.54 Z 0.35
 G1 X 0113.22 Y 0277.74 E 0014.72 Z 0.35
G1 X 0114.42 Y 0277.74 Z 0.35
 G1 X 0114.42 Y 0178.54 E 0016.70 Z 0.35
G1 X 0115.62 Y 0178.54 Z 0.35
 G1 X 0115.62 Y 0277.74 E 0018.69 Z 0.35
G1 X 0116.82 Y 0277.74 Z 0.35
 G1 X 0116.82 Y 0178.54 E 0020.67 Z 0.35
G1 X 0118.02 Y 0178.54 Z 0.35
 G1 X 0118.02 Y 0277.74 E 0022.66 Z 0.35
G1 X 0119.22 Y 0277.74 Z 0.35
 G1 X 0119.22 Y 0178.54 E 0024.64 Z 0.35
G1 X 0120.42 Y 0178.54 Z 0.35
 G1 X 0120.42 Y 0277.74 E 0026.62 Z 0.35
G1 X 0121.62 Y 0277.74 Z 0.35
 G1 X 0121.62 Y 0178.54 E 0028.61 Z 0.35
G1 X 0122.82 Y 0178.54 Z 0.35
 G1 X 0122.82 Y 0277.74 E 0030.59 Z 0.35
G1 X 0124.02 Y 0277.74 Z 0.35
 G1 X 0124.02 Y 0178.54 E 0032.58 Z 0.35
G1 X 0125.22 Y 0178.54 Z 0.35
 G1 X 0125.22 Y 0277.74 E 0034.56 Z 0.35
G1 X 0126.42 Y 0277.74 Z 0.35
 G1 X 0126.42 Y 0178.54 E 0036.54 Z 0.35
G1 X 0127.62 Y 0178.54 Z 0.35
 G1 X 0127.62 Y 0277.74 E 0038.53 Z 0.35
G1 X 0128.82 Y 0277.74 Z 0.35
 G1 X 0128.82 Y 0178.54 E 0040.51 Z 0.35
G1 X 0130.02 Y 0178.54 Z 0.35
 G1 X 0130.02 Y 0277.74 E 0042.50 Z 0.35
G1 X 0131.22 Y 0277.74 Z 0.35
 G1 X 0131.22 Y 0178.54 E 0044.48 Z 0.35
G1 X 0132.42 Y 0178.54 Z 0.35
 G1 X 0132.42 Y 0277.74 E 0046.46 Z 0.35
G1 X 0133.62 Y 0277.74 Z 0.35
 G1 X 0133.62 Y 0178.54 E 0048.45 Z 0.35
G1 X 0134.82 Y 0178.54 Z 0.35
 G1 X 0134.82 Y 0277.74 E 0050.43 Z 0.35
G1 X 0136.02 Y 0277.74 Z 0.35
 G1 X 0136.02 Y 0178.54 E 0052.42 Z 0.35
