;FLAVOR:RepRap
;Layer height:0.25
;NOZZLE DIAMETER:0.4
M104 S240
M109 S240
G21 ;metric values
G90 ;absolute positioning
M82 ;set extruder to absolute mode
M107 ;start with the fan off
G28 X0 Y0 ;move X/Y to min endstops
G28 Z0 ;move Z to min endstops
G1 Z15.0 F9000 ;move the platform down 15mm
G92 E0 ;zero the extruded length
G1 F200 E30 ;extrude 3mm of feed stock
G92 E0 ;zero the extruded length again
G1 F9000
M117 Printing...
M107
G1 F1500.0
G0 Z0.35
G1 X 0039.16 Y 0002.99 Z 0.35
 G1 X 0039.16 Y 0000.98 E 0000.04 Z 0.35
 G1 X 0039.16 Y -0001.04 E 0000.08 Z 0.35
 G1 X 0039.16 Y -0003.05 E 0000.12 Z 0.35
 G1 X 0039.16 Y -0005.06 E 0000.16 Z 0.35
 G1 X 0039.16 Y -0007.08 E 0000.20 Z 0.35
 G1 X 0039.16 Y -0009.09 E 0000.24 Z 0.35
 G1 X 0039.16 Y -0011.10 E 0000.28 Z 0.35
 G1 X 0039.16 Y -0013.12 E 0000.32 Z 0.35
 G1 X 0039.16 Y -0015.13 E 0000.36 Z 0.35
 G1 X 0039.15 Y -0017.13 E 0000.40 Z 0.35
 G1 X 0038.98 Y -0019.15 E 0000.44 Z 0.35
 G1 X 0038.84 Y -0021.16 E 0000.48 Z 0.35
 G1 X 0039.29 Y -0023.07 E 0000.52 Z 0.35
 G1 X 0041.25 Y -0023.28 E 0000.56 Z 0.35
 G1 X 0043.25 Y -0022.94 E 0000.60 Z 0.35
 G1 X 0045.25 Y -0022.92 E 0000.64 Z 0.35
 G1 X 0047.26 Y -0022.92 E 0000.68 Z 0.35
 G1 X 0049.27 Y -0022.92 E 0000.72 Z 0.35
 G1 X 0051.29 Y -0022.92 E 0000.76 Z 0.35
 G1 X 0053.30 Y -0022.92 E 0000.80 Z 0.35
 G1 X 0055.31 Y -0022.92 E 0000.84 Z 0.35
 G1 X 0057.33 Y -0022.92 E 0000.88 Z 0.35
 G1 X 0059.34 Y -0022.92 E 0000.92 Z 0.35
 G1 X 0061.35 Y -0022.92 E 0000.96 Z 0.35
 G1 X 0063.36 Y -0022.92 E 0001.00 Z 0.35
 G1 X 0065.38 Y -0022.92 E 0001.05 Z 0.35
 G1 X 0067.39 Y -0022.92 E 0001.09 Z 0.35
 G1 X 0069.40 Y -0022.92 E 0001.13 Z 0.35
 G1 X 0071.42 Y -0022.92 E 0001.17 Z 0.35
 G1 X 0073.43 Y -0022.92 E 0001.21 Z 0.35
 G1 X 0075.44 Y -0022.92 E 0001.25 Z 0.35
 G1 X 0077.46 Y -0022.92 E 0001.29 Z 0.35
 G1 X 0079.47 Y -0022.92 E 0001.33 Z 0.35
 G1 X 0081.48 Y -0022.92 E 0001.37 Z 0.35
 G1 X 0083.49 Y -0022.92 E 0001.41 Z 0.35
 G1 X 0085.51 Y -0022.92 E 0001.45 Z 0.35
 G1 X 0087.52 Y -0022.92 E 0001.49 Z 0.35
 G1 X 0089.53 Y -0022.92 E 0001.53 Z 0.35
 G1 X 0091.54 Y -0022.92 E 0001.57 Z 0.35
 G1 X 0093.56 Y -0022.92 E 0001.61 Z 0.35
 G1 X 0095.57 Y -0022.92 E 0001.65 Z 0.35
 G1 X 0097.59 Y -0022.92 E 0001.69 Z 0.35
 G1 X 0099.60 Y -0022.92 E 0001.73 Z 0.35
 G1 X 0101.61 Y -0022.92 E 0001.77 Z 0.35
 G1 X 0103.62 Y -0022.92 E 0001.81 Z 0.35
 G1 X 0105.64 Y -0022.92 E 0001.85 Z 0.35
 G1 X 0107.65 Y -0022.92 E 0001.89 Z 0.35
 G1 X 0109.66 Y -0022.92 E 0001.93 Z 0.35
 G1 X 0111.68 Y -0022.92 E 0001.97 Z 0.35
 G1 X 0113.69 Y -0022.92 E 0002.01 Z 0.35
 G1 X 0115.70 Y -0022.92 E 0002.05 Z 0.35
 G1 X 0117.71 Y -0022.92 E 0002.09 Z 0.35
 G1 X 0119.73 Y -0022.92 E 0002.13 Z 0.35
 G1 X 0121.74 Y -0022.92 E 0002.17 Z 0.35
 G1 X 0123.75 Y -0022.92 E 0002.21 Z 0.35
 G1 X 0125.77 Y -0022.92 E 0002.25 Z 0.35
 G1 X 0127.78 Y -0022.92 E 0002.29 Z 0.35
 G1 X 0129.79 Y -0022.92 E 0002.33 Z 0.35
 G1 X 0131.80 Y -0022.92 E 0002.37 Z 0.35
 G1 X 0133.82 Y -0022.92 E 0002.41 Z 0.35
 G1 X 0135.83 Y -0022.92 E 0002.45 Z 0.35
 G1 X 0137.84 Y -0022.92 E 0002.49 Z 0.35
 G1 X 0139.86 Y -0022.92 E 0002.53 Z 0.35
 G1 X 0141.87 Y -0022.92 E 0002.57 Z 0.35
 G1 X 0143.88 Y -0022.92 E 0002.62 Z 0.35
 G1 X 0145.90 Y -0022.92 E 0002.66 Z 0.35
 G1 X 0147.91 Y -0022.92 E 0002.70 Z 0.35
 G1 X 0149.92 Y -0022.92 E 0002.74 Z 0.35
 G1 X 0151.93 Y -0022.92 E 0002.78 Z 0.35
 G1 X 0153.95 Y -0022.92 E 0002.82 Z 0.35
 G1 X 0155.96 Y -0022.92 E 0002.86 Z 0.35
 G1 X 0157.97 Y -0022.92 E 0002.90 Z 0.35
 G1 X 0159.99 Y -0022.92 E 0002.94 Z 0.35
 G1 X 0162.00 Y -0022.92 E 0002.98 Z 0.35
 G1 X 0164.01 Y -0022.92 E 0003.02 Z 0.35
 G1 X 0166.02 Y -0022.92 E 0003.06 Z 0.35
 G1 X 0168.04 Y -0022.92 E 0003.10 Z 0.35
 G1 X 0170.05 Y -0022.92 E 0003.14 Z 0.35
 G1 X 0172.06 Y -0022.92 E 0003.18 Z 0.35
 G1 X 0174.08 Y -0022.92 E 0003.22 Z 0.35
 G1 X 0176.09 Y -0022.92 E 0003.26 Z 0.35
 G1 X 0178.09 Y -0023.15 E 0003.30 Z 0.35
 G1 X 0180.08 Y -0023.36 E 0003.34 Z 0.35
 G1 X 0181.16 Y -0021.88 E 0003.38 Z 0.35
 G1 X 0181.10 Y -0019.85 E 0003.42 Z 0.35
 G1 X 0180.91 Y -0017.84 E 0003.46 Z 0.35
 G1 X 0180.86 Y -0015.82 E 0003.50 Z 0.35
 G1 X 0180.86 Y -0013.81 E 0003.54 Z 0.35
 G1 X 0180.86 Y -0011.80 E 0003.58 Z 0.35
 G1 X 0180.86 Y -0009.79 E 0003.62 Z 0.35
 G1 X 0180.86 Y -0007.77 E 0003.66 Z 0.35
 G1 X 0180.86 Y -0005.76 E 0003.70 Z 0.35
 G1 X 0180.86 Y -0003.75 E 0003.74 Z 0.35
 G1 X 0180.86 Y -0001.73 E 0003.78 Z 0.35
 G1 X 0180.86 Y 0000.28 E 0003.82 Z 0.35
 G1 X 0180.86 Y 0002.29 E 0003.86 Z 0.35
 G1 X 0180.86 Y 0004.30 E 0003.90 Z 0.35
 G1 X 0180.86 Y 0006.32 E 0003.94 Z 0.35
 G1 X 0180.86 Y 0008.33 E 0003.98 Z 0.35
 G1 X 0180.86 Y 0010.34 E 0004.02 Z 0.35
 G1 X 0180.86 Y 0012.36 E 0004.06 Z 0.35
 G1 X 0180.86 Y 0014.37 E 0004.10 Z 0.35
 G1 X 0180.86 Y 0016.38 E 0004.14 Z 0.35
 G1 X 0180.86 Y 0018.40 E 0004.18 Z 0.35
 G1 X 0180.86 Y 0020.41 E 0004.22 Z 0.35
 G1 X 0180.86 Y 0022.42 E 0004.26 Z 0.35
 G1 X 0180.86 Y 0024.43 E 0004.30 Z 0.35
 G1 X 0180.86 Y 0026.45 E 0004.34 Z 0.35
 G1 X 0180.86 Y 0028.46 E 0004.38 Z 0.35
 G1 X 0180.86 Y 0030.47 E 0004.42 Z 0.35
 G1 X 0180.86 Y 0032.49 E 0004.46 Z 0.35
 G1 X 0180.86 Y 0034.50 E 0004.50 Z 0.35
 G1 X 0180.86 Y 0036.51 E 0004.54 Z 0.35
 G1 X 0180.86 Y 0038.53 E 0004.58 Z 0.35
 G1 X 0180.86 Y 0040.54 E 0004.62 Z 0.35
 G1 X 0180.86 Y 0042.55 E 0004.67 Z 0.35
 G1 X 0180.86 Y 0044.56 E 0004.71 Z 0.35
 G1 X 0180.86 Y 0046.58 E 0004.75 Z 0.35
 G1 X 0180.86 Y 0048.59 E 0004.79 Z 0.35
 G1 X 0180.86 Y 0050.60 E 0004.83 Z 0.35
 G1 X 0180.86 Y 0052.62 E 0004.87 Z 0.35
 G1 X 0180.86 Y 0054.63 E 0004.91 Z 0.35
 G1 X 0180.86 Y 0056.64 E 0004.95 Z 0.35
 G1 X 0180.86 Y 0058.65 E 0004.99 Z 0.35
 G1 X 0180.86 Y 0060.67 E 0005.03 Z 0.35
 G1 X 0180.86 Y 0062.68 E 0005.07 Z 0.35
 G1 X 0180.86 Y 0064.69 E 0005.11 Z 0.35
 G1 X 0180.86 Y 0066.71 E 0005.15 Z 0.35
 G1 X 0180.86 Y 0068.72 E 0005.19 Z 0.35
 G1 X 0180.86 Y 0070.73 E 0005.23 Z 0.35
 G1 X 0180.86 Y 0072.75 E 0005.27 Z 0.35
 G1 X 0180.86 Y 0074.76 E 0005.31 Z 0.35
 G1 X 0180.86 Y 0076.77 E 0005.35 Z 0.35
 G1 X 0180.86 Y 0078.78 E 0005.39 Z 0.35
 G1 X 0180.86 Y 0080.80 E 0005.43 Z 0.35
 G1 X 0180.86 Y 0082.81 E 0005.47 Z 0.35
 G1 X 0180.86 Y 0084.82 E 0005.51 Z 0.35
 G1 X 0180.86 Y 0086.84 E 0005.55 Z 0.35
 G1 X 0180.86 Y 0088.85 E 0005.59 Z 0.35
 G1 X 0180.86 Y 0090.86 E 0005.63 Z 0.35
 G1 X 0180.86 Y 0092.88 E 0005.67 Z 0.35
 G1 X 0180.86 Y 0094.89 E 0005.71 Z 0.35
 G1 X 0180.86 Y 0096.90 E 0005.75 Z 0.35
 G1 X 0180.86 Y 0098.91 E 0005.79 Z 0.35
 G1 X 0180.86 Y 0100.93 E 0005.83 Z 0.35
 G1 X 0180.86 Y 0102.94 E 0005.87 Z 0.35
 G1 X 0180.86 Y 0104.95 E 0005.91 Z 0.35
 G1 X 0180.86 Y 0106.97 E 0005.95 Z 0.35
 G1 X 0180.86 Y 0108.98 E 0005.99 Z 0.35
 G1 X 0180.86 Y 0110.99 E 0006.03 Z 0.35
 G1 X 0180.86 Y 0113.00 E 0006.07 Z 0.35
 G1 X 0180.86 Y 0115.02 E 0006.11 Z 0.35
 G1 X 0180.86 Y 0117.03 E 0006.15 Z 0.35
 G1 X 0180.86 Y 0119.04 E 0006.20 Z 0.35
 G1 X 0180.86 Y 0121.06 E 0006.24 Z 0.35
 G1 X 0180.86 Y 0123.07 E 0006.28 Z 0.35
 G1 X 0180.86 Y 0125.08 E 0006.32 Z 0.35
 G1 X 0180.86 Y 0127.10 E 0006.36 Z 0.35
 G1 X 0180.86 Y 0129.11 E 0006.40 Z 0.35
 G1 X 0180.86 Y 0131.12 E 0006.44 Z 0.35
 G1 X 0180.86 Y 0133.13 E 0006.48 Z 0.35
 G1 X 0180.86 Y 0135.15 E 0006.52 Z 0.35
 G1 X 0180.86 Y 0137.16 E 0006.56 Z 0.35
 G1 X 0180.86 Y 0139.17 E 0006.60 Z 0.35
 G1 X 0180.86 Y 0141.19 E 0006.64 Z 0.35
 G1 X 0180.86 Y 0143.20 E 0006.68 Z 0.35
 G1 X 0180.86 Y 0145.21 E 0006.72 Z 0.35
 G1 X 0180.86 Y 0147.23 E 0006.76 Z 0.35
 G1 X 0180.86 Y 0149.24 E 0006.80 Z 0.35
 G1 X 0180.86 Y 0151.25 E 0006.84 Z 0.35
 G1 X 0180.86 Y 0153.26 E 0006.88 Z 0.35
 G1 X 0180.86 Y 0155.28 E 0006.92 Z 0.35
 G1 X 0180.86 Y 0157.29 E 0006.96 Z 0.35
 G1 X 0180.86 Y 0159.30 E 0007.00 Z 0.35
 G1 X 0180.86 Y 0161.32 E 0007.04 Z 0.35
 G1 X 0180.86 Y 0163.33 E 0007.08 Z 0.35
 G1 X 0180.86 Y 0165.34 E 0007.12 Z 0.35
 G1 X 0180.86 Y 0167.35 E 0007.16 Z 0.35
 G1 X 0180.86 Y 0169.36 E 0007.20 Z 0.35
 G1 X 0180.86 Y 0171.38 E 0007.24 Z 0.35
 G1 X 0180.86 Y 0173.41 E 0007.28 Z 0.35
 G1 X 0180.86 Y 0175.42 E 0007.32 Z 0.35
 G1 X 0180.54 Y 0175.48 E 0007.33 Z 0.35
 G1 X 0178.48 Y 0175.48 E 0007.37 Z 0.35
 G1 X 0176.46 Y 0175.48 E 0007.41 Z 0.35
 G1 X 0174.45 Y 0175.48 E 0007.45 Z 0.35
 G1 X 0172.44 Y 0175.48 E 0007.49 Z 0.35
 G1 X 0170.42 Y 0175.48 E 0007.53 Z 0.35
 G1 X 0168.41 Y 0175.48 E 0007.57 Z 0.35
 G1 X 0166.40 Y 0175.48 E 0007.61 Z 0.35
 G1 X 0164.38 Y 0175.48 E 0007.65 Z 0.35
 G1 X 0162.37 Y 0175.48 E 0007.69 Z 0.35
 G1 X 0160.36 Y 0175.48 E 0007.73 Z 0.35
 G1 X 0158.34 Y 0175.48 E 0007.77 Z 0.35
 G1 X 0156.33 Y 0175.48 E 0007.81 Z 0.35
 G1 X 0154.32 Y 0175.48 E 0007.85 Z 0.35
 G1 X 0152.30 Y 0175.48 E 0007.89 Z 0.35
 G1 X 0150.29 Y 0175.48 E 0007.93 Z 0.35
 G1 X 0148.28 Y 0175.48 E 0007.97 Z 0.35
 G1 X 0146.27 Y 0175.48 E 0008.01 Z 0.35
 G1 X 0144.25 Y 0175.48 E 0008.05 Z 0.35
 G1 X 0142.24 Y 0175.48 E 0008.10 Z 0.35
 G1 X 0140.23 Y 0175.48 E 0008.14 Z 0.35
 G1 X 0138.21 Y 0175.48 E 0008.18 Z 0.35
 G1 X 0136.20 Y 0175.48 E 0008.22 Z 0.35
 G1 X 0134.19 Y 0175.48 E 0008.26 Z 0.35
 G1 X 0132.18 Y 0175.48 E 0008.30 Z 0.35
 G1 X 0130.16 Y 0175.48 E 0008.34 Z 0.35
 G1 X 0128.15 Y 0175.48 E 0008.38 Z 0.35
 G1 X 0126.14 Y 0175.48 E 0008.42 Z 0.35
 G1 X 0124.12 Y 0175.48 E 0008.46 Z 0.35
 G1 X 0122.11 Y 0175.48 E 0008.50 Z 0.35
 G1 X 0120.10 Y 0175.48 E 0008.54 Z 0.35
 G1 X 0118.08 Y 0175.48 E 0008.58 Z 0.35
 G1 X 0116.07 Y 0175.48 E 0008.62 Z 0.35
 G1 X 0114.06 Y 0175.48 E 0008.66 Z 0.35
 G1 X 0112.05 Y 0175.48 E 0008.70 Z 0.35
 G1 X 0110.03 Y 0175.48 E 0008.74 Z 0.35
 G1 X 0108.02 Y 0175.48 E 0008.78 Z 0.35
 G1 X 0106.01 Y 0175.48 E 0008.82 Z 0.35
 G1 X 0103.99 Y 0175.48 E 0008.86 Z 0.35
 G1 X 0101.98 Y 0175.48 E 0008.90 Z 0.35
 G1 X 0099.97 Y 0175.48 E 0008.94 Z 0.35
 G1 X 0097.96 Y 0175.48 E 0008.98 Z 0.35
 G1 X 0095.94 Y 0175.48 E 0009.02 Z 0.35
 G1 X 0093.93 Y 0175.48 E 0009.06 Z 0.35
 G1 X 0091.92 Y 0175.48 E 0009.10 Z 0.35
 G1 X 0089.90 Y 0175.48 E 0009.14 Z 0.35
 G1 X 0087.89 Y 0175.48 E 0009.18 Z 0.35
 G1 X 0085.88 Y 0175.48 E 0009.22 Z 0.35
 G1 X 0083.86 Y 0175.48 E 0009.26 Z 0.35
 G1 X 0081.85 Y 0175.48 E 0009.30 Z 0.35
 G1 X 0079.84 Y 0175.48 E 0009.34 Z 0.35
 G1 X 0077.83 Y 0175.48 E 0009.38 Z 0.35
 G1 X 0075.81 Y 0175.48 E 0009.42 Z 0.35
 G1 X 0073.80 Y 0175.48 E 0009.46 Z 0.35
 G1 X 0071.79 Y 0175.48 E 0009.50 Z 0.35
 G1 X 0069.77 Y 0175.48 E 0009.54 Z 0.35
 G1 X 0067.76 Y 0175.48 E 0009.58 Z 0.35
 G1 X 0065.75 Y 0175.48 E 0009.62 Z 0.35
 G1 X 0063.74 Y 0175.48 E 0009.67 Z 0.35
 G1 X 0061.72 Y 0175.48 E 0009.71 Z 0.35
 G1 X 0059.71 Y 0175.48 E 0009.75 Z 0.35
 G1 X 0057.70 Y 0175.48 E 0009.79 Z 0.35
 G1 X 0055.68 Y 0175.48 E 0009.83 Z 0.35
 G1 X 0053.67 Y 0175.48 E 0009.87 Z 0.35
 G1 X 0051.66 Y 0175.48 E 0009.91 Z 0.35
 G1 X 0049.65 Y 0175.48 E 0009.95 Z 0.35
 G1 X 0047.63 Y 0175.48 E 0009.99 Z 0.35
 G1 X 0045.62 Y 0175.48 E 0010.03 Z 0.35
 G1 X 0043.61 Y 0175.48 E 0010.07 Z 0.35
 G1 X 0041.61 Y 0175.77 E 0010.11 Z 0.35
 G1 X 0039.60 Y 0175.82 E 0010.15 Z 0.35
 G1 X 0038.84 Y 0174.09 E 0010.19 Z 0.35
 G1 X 0038.95 Y 0172.07 E 0010.23 Z 0.35
 G1 X 0039.13 Y 0170.05 E 0010.27 Z 0.35
 G1 X 0039.16 Y 0168.05 E 0010.31 Z 0.35
 G1 X 0039.16 Y 0166.04 E 0010.35 Z 0.35
 G1 X 0039.16 Y 0164.02 E 0010.39 Z 0.35
 G1 X 0039.16 Y 0162.01 E 0010.43 Z 0.35
 G1 X 0039.16 Y 0160.00 E 0010.47 Z 0.35
 G1 X 0039.16 Y 0157.99 E 0010.51 Z 0.35
 G1 X 0039.16 Y 0155.97 E 0010.55 Z 0.35
 G1 X 0039.16 Y 0153.96 E 0010.59 Z 0.35
 G1 X 0039.16 Y 0151.95 E 0010.63 Z 0.35
 G1 X 0039.16 Y 0149.93 E 0010.67 Z 0.35
 G1 X 0039.16 Y 0147.92 E 0010.71 Z 0.35
 G1 X 0039.16 Y 0145.91 E 0010.75 Z 0.35
 G1 X 0039.16 Y 0143.89 E 0010.79 Z 0.35
 G1 X 0039.16 Y 0141.88 E 0010.83 Z 0.35
 G1 X 0039.16 Y 0139.87 E 0010.87 Z 0.35
 G1 X 0039.16 Y 0137.86 E 0010.91 Z 0.35
 G1 X 0039.16 Y 0135.84 E 0010.95 Z 0.35
 G1 X 0039.16 Y 0133.83 E 0010.99 Z 0.35
 G1 X 0039.16 Y 0131.82 E 0011.03 Z 0.35
 G1 X 0039.16 Y 0129.80 E 0011.07 Z 0.35
 G1 X 0039.16 Y 0127.79 E 0011.11 Z 0.35
 G1 X 0039.16 Y 0125.78 E 0011.15 Z 0.35
 G1 X 0039.16 Y 0123.77 E 0011.19 Z 0.35
 G1 X 0039.16 Y 0121.75 E 0011.23 Z 0.35
 G1 X 0039.16 Y 0119.74 E 0011.27 Z 0.35
 G1 X 0039.16 Y 0117.73 E 0011.31 Z 0.35
 G1 X 0039.16 Y 0115.71 E 0011.35 Z 0.35
 G1 X 0039.16 Y 0113.70 E 0011.39 Z 0.35
 G1 X 0039.16 Y 0111.69 E 0011.43 Z 0.35
 G1 X 0039.16 Y 0109.67 E 0011.47 Z 0.35
 G1 X 0039.16 Y 0107.66 E 0011.51 Z 0.35
 G1 X 0039.16 Y 0105.65 E 0011.56 Z 0.35
 G1 X 0039.16 Y 0103.64 E 0011.60 Z 0.35
 G1 X 0039.16 Y 0101.62 E 0011.64 Z 0.35
 G1 X 0039.16 Y 0099.61 E 0011.68 Z 0.35
 G1 X 0039.16 Y 0097.60 E 0011.72 Z 0.35
 G1 X 0039.16 Y 0095.58 E 0011.76 Z 0.35
 G1 X 0039.16 Y 0093.57 E 0011.80 Z 0.35
 G1 X 0039.16 Y 0091.56 E 0011.84 Z 0.35
 G1 X 0039.16 Y 0089.55 E 0011.88 Z 0.35
 G1 X 0039.16 Y 0087.53 E 0011.92 Z 0.35
 G1 X 0039.16 Y 0085.52 E 0011.96 Z 0.35
 G1 X 0039.16 Y 0083.51 E 0012.00 Z 0.35
 G1 X 0039.16 Y 0081.49 E 0012.04 Z 0.35
 G1 X 0039.16 Y 0079.48 E 0012.08 Z 0.35
 G1 X 0039.16 Y 0077.47 E 0012.12 Z 0.35
 G1 X 0039.16 Y 0075.45 E 0012.16 Z 0.35
 G1 X 0039.16 Y 0073.44 E 0012.20 Z 0.35
 G1 X 0039.16 Y 0071.43 E 0012.24 Z 0.35
 G1 X 0039.16 Y 0069.42 E 0012.28 Z 0.35
 G1 X 0039.16 Y 0067.40 E 0012.32 Z 0.35
 G1 X 0039.16 Y 0065.39 E 0012.36 Z 0.35
 G1 X 0039.16 Y 0063.38 E 0012.40 Z 0.35
 G1 X 0039.16 Y 0061.36 E 0012.44 Z 0.35
 G1 X 0039.16 Y 0059.35 E 0012.48 Z 0.35
 G1 X 0039.16 Y 0057.34 E 0012.52 Z 0.35
 G1 X 0039.16 Y 0055.32 E 0012.56 Z 0.35
 G1 X 0039.16 Y 0053.31 E 0012.60 Z 0.35
 G1 X 0039.16 Y 0051.30 E 0012.64 Z 0.35
 G1 X 0039.16 Y 0049.29 E 0012.68 Z 0.35
 G1 X 0039.16 Y 0047.27 E 0012.72 Z 0.35
 G1 X 0039.16 Y 0045.26 E 0012.76 Z 0.35
 G1 X 0039.16 Y 0043.25 E 0012.80 Z 0.35
 G1 X 0039.16 Y 0041.23 E 0012.84 Z 0.35
 G1 X 0039.16 Y 0039.22 E 0012.88 Z 0.35
 G1 X 0039.16 Y 0037.21 E 0012.92 Z 0.35
 G1 X 0039.16 Y 0035.20 E 0012.96 Z 0.35
 G1 X 0039.16 Y 0033.18 E 0013.00 Z 0.35
 G1 X 0039.16 Y 0031.17 E 0013.04 Z 0.35
 G1 X 0039.16 Y 0029.16 E 0013.08 Z 0.35
 G1 X 0039.16 Y 0027.14 E 0013.13 Z 0.35
 G1 X 0039.16 Y 0025.13 E 0013.17 Z 0.35
 G1 X 0039.16 Y 0023.12 E 0013.21 Z 0.35
 G1 X 0039.16 Y 0021.10 E 0013.25 Z 0.35
 G1 X 0039.16 Y 0019.09 E 0013.29 Z 0.35
 G1 X 0039.16 Y 0017.08 E 0013.33 Z 0.35
 G1 X 0039.16 Y 0015.07 E 0013.37 Z 0.35
 G1 X 0039.16 Y 0013.05 E 0013.41 Z 0.35
 G1 X 0039.16 Y 0011.04 E 0013.45 Z 0.35
 G1 X 0039.16 Y 0009.03 E 0013.49 Z 0.35
 G1 X 0039.16 Y 0007.01 E 0013.53 Z 0.35
 G1 X 0039.16 Y 0005.00 E 0013.57 Z 0.35
G1 X 0040.84 Y -0023.24 Z 0.35
 G1 X 0040.84 Y 0175.79 E 0017.55 Z 0.35
G1 X 0042.04 Y 0175.71 Z 0.35
 G1 X 0042.04 Y -0023.15 E 0021.53 Z 0.35
G1 X 0043.24 Y -0022.94 Z 0.35
 G1 X 0043.24 Y 0175.53 E 0025.50 Z 0.35
G1 X 0044.44 Y 0175.48 Z 0.35
 G1 X 0044.44 Y -0022.93 E 0029.46 Z 0.35
G1 X 0045.64 Y -0022.92 Z 0.35
 G1 X 0045.64 Y 0175.48 E 0033.43 Z 0.35
G1 X 0046.84 Y 0175.48 Z 0.35
 G1 X 0046.84 Y -0022.92 E 0037.40 Z 0.35
G1 X 0048.04 Y -0022.92 Z 0.35
 G1 X 0048.04 Y 0175.48 E 0041.37 Z 0.35
G1 X 0049.24 Y 0175.48 Z 0.35
 G1 X 0049.24 Y -0022.92 E 0045.34 Z 0.35
G1 X 0050.44 Y -0022.92 Z 0.35
 G1 X 0050.44 Y 0175.48 E 0049.30 Z 0.35
G1 X 0051.64 Y 0175.48 Z 0.35
 G1 X 0051.64 Y -0022.92 E 0053.27 Z 0.35
G1 X 0052.84 Y -0022.92 Z 0.35
 G1 X 0052.84 Y 0175.48 E 0057.24 Z 0.35
G1 X 0054.04 Y 0175.48 Z 0.35
 G1 X 0054.04 Y -0022.92 E 0061.21 Z 0.35
G1 X 0055.24 Y -0022.92 Z 0.35
 G1 X 0055.24 Y 0175.48 E 0065.18 Z 0.35
G1 X 0056.44 Y 0175.48 Z 0.35
 G1 X 0056.44 Y -0022.92 E 0069.14 Z 0.35
G1 X 0057.64 Y -0022.92 Z 0.35
 G1 X 0057.64 Y 0175.48 E 0073.11 Z 0.35
G1 X 0058.84 Y 0175.48 Z 0.35
 G1 X 0058.84 Y -0022.92 E 0077.08 Z 0.35
G1 X 0060.04 Y -0022.92 Z 0.35
 G1 X 0060.04 Y 0175.48 E 0081.05 Z 0.35
G1 X 0061.24 Y 0175.48 Z 0.35
 G1 X 0061.24 Y -0022.92 E 0085.02 Z 0.35
G1 X 0062.44 Y -0022.92 Z 0.35
 G1 X 0062.44 Y 0175.48 E 0088.98 Z 0.35
G1 X 0063.64 Y 0175.48 Z 0.35
 G1 X 0063.64 Y -0022.92 E 0092.95 Z 0.35
G1 X 0064.84 Y -0022.92 Z 0.35
 G1 X 0064.84 Y 0175.48 E 0096.92 Z 0.35
G1 X 0066.04 Y 0175.48 Z 0.35
