;FLAVOR:RepRap
;Layer height:0.25
;NOZZLE DIAMETER:0.40000004
M104 S240
M109 S240
G21 ;metric values
G90 ;absolute positioning
M82 ;set extruder to absolute mode
M107 ;start with the fan off
G28 X0 Y0 ;move X/Y to min endstops
G28 Z0 ;move Z to min endstops
G1 Z15.0 F9000 ;move the platform down 15mm
G92 E0 ;zero the extruded length
G1 F200 E30 ;extrude 3mm of feed stock
G92 E0 ;zero the extruded length again
G1 F9000
M117 Printing...
M107
G1 F1500.0
G0 Z0.35
G1 X 0088.60 Y 0136.94 Z 0.35
 G1 X 0088.74 Y 0136.37 E 0000.01 Z 0.35
 G1 X 0089.32 Y 0136.31 E 0000.02 Z 0.35
 G1 X 0089.93 Y 0136.41 E 0000.04 Z 0.35
 G1 X 0090.52 Y 0136.42 E 0000.05 Z 0.35
 G1 X 0091.13 Y 0136.42 E 0000.06 Z 0.35
 G1 X 0091.73 Y 0136.42 E 0000.07 Z 0.35
 G1 X 0092.34 Y 0136.42 E 0000.08 Z 0.35
 G1 X 0092.94 Y 0136.42 E 0000.10 Z 0.35
 G1 X 0093.54 Y 0136.42 E 0000.11 Z 0.35
 G1 X 0094.15 Y 0136.42 E 0000.12 Z 0.35
 G1 X 0094.75 Y 0136.42 E 0000.13 Z 0.35
 G1 X 0095.36 Y 0136.42 E 0000.14 Z 0.35
 G1 X 0095.96 Y 0136.42 E 0000.16 Z 0.35
 G1 X 0096.56 Y 0136.42 E 0000.17 Z 0.35
 G1 X 0097.17 Y 0136.42 E 0000.18 Z 0.35
 G1 X 0097.77 Y 0136.42 E 0000.19 Z 0.35
 G1 X 0098.37 Y 0136.42 E 0000.20 Z 0.35
 G1 X 0098.98 Y 0136.42 E 0000.22 Z 0.35
 G1 X 0099.58 Y 0136.42 E 0000.23 Z 0.35
 G1 X 0100.19 Y 0136.42 E 0000.24 Z 0.35
 G1 X 0100.79 Y 0136.42 E 0000.25 Z 0.35
 G1 X 0101.39 Y 0136.42 E 0000.27 Z 0.35
 G1 X 0102.00 Y 0136.42 E 0000.28 Z 0.35
 G1 X 0102.60 Y 0136.42 E 0000.29 Z 0.35
 G1 X 0103.21 Y 0136.42 E 0000.30 Z 0.35
 G1 X 0103.81 Y 0136.42 E 0000.31 Z 0.35
 G1 X 0104.41 Y 0136.42 E 0000.33 Z 0.35
 G1 X 0105.02 Y 0136.42 E 0000.34 Z 0.35
 G1 X 0105.62 Y 0136.42 E 0000.35 Z 0.35
 G1 X 0106.23 Y 0136.42 E 0000.36 Z 0.35
 G1 X 0106.83 Y 0136.42 E 0000.37 Z 0.35
 G1 X 0107.43 Y 0136.42 E 0000.39 Z 0.35
 G1 X 0108.04 Y 0136.42 E 0000.40 Z 0.35
 G1 X 0108.64 Y 0136.42 E 0000.41 Z 0.35
 G1 X 0109.24 Y 0136.42 E 0000.42 Z 0.35
 G1 X 0109.85 Y 0136.42 E 0000.43 Z 0.35
 G1 X 0110.45 Y 0136.42 E 0000.45 Z 0.35
 G1 X 0111.06 Y 0136.42 E 0000.46 Z 0.35
 G1 X 0111.66 Y 0136.42 E 0000.47 Z 0.35
 G1 X 0112.26 Y 0136.42 E 0000.48 Z 0.35
 G1 X 0112.87 Y 0136.42 E 0000.49 Z 0.35
 G1 X 0113.47 Y 0136.42 E 0000.51 Z 0.35
 G1 X 0114.08 Y 0136.42 E 0000.52 Z 0.35
 G1 X 0114.68 Y 0136.42 E 0000.53 Z 0.35
 G1 X 0115.28 Y 0136.42 E 0000.54 Z 0.35
 G1 X 0115.89 Y 0136.42 E 0000.56 Z 0.35
 G1 X 0116.49 Y 0136.42 E 0000.57 Z 0.35
 G1 X 0117.10 Y 0136.42 E 0000.58 Z 0.35
 G1 X 0117.70 Y 0136.42 E 0000.59 Z 0.35
 G1 X 0118.30 Y 0136.42 E 0000.60 Z 0.35
 G1 X 0118.91 Y 0136.42 E 0000.62 Z 0.35
 G1 X 0119.51 Y 0136.42 E 0000.63 Z 0.35
 G1 X 0120.11 Y 0136.42 E 0000.64 Z 0.35
 G1 X 0120.72 Y 0136.42 E 0000.65 Z 0.35
 G1 X 0121.32 Y 0136.42 E 0000.66 Z 0.35
 G1 X 0121.93 Y 0136.42 E 0000.68 Z 0.35
 G1 X 0122.53 Y 0136.42 E 0000.69 Z 0.35
 G1 X 0123.13 Y 0136.42 E 0000.70 Z 0.35
 G1 X 0123.74 Y 0136.42 E 0000.71 Z 0.35
 G1 X 0124.34 Y 0136.42 E 0000.72 Z 0.35
 G1 X 0124.95 Y 0136.42 E 0000.74 Z 0.35
 G1 X 0125.55 Y 0136.42 E 0000.75 Z 0.35
 G1 X 0126.15 Y 0136.42 E 0000.76 Z 0.35
 G1 X 0126.76 Y 0136.42 E 0000.77 Z 0.35
 G1 X 0127.36 Y 0136.42 E 0000.78 Z 0.35
 G1 X 0127.97 Y 0136.42 E 0000.80 Z 0.35
 G1 X 0128.57 Y 0136.42 E 0000.81 Z 0.35
 G1 X 0129.17 Y 0136.42 E 0000.82 Z 0.35
 G1 X 0129.78 Y 0136.42 E 0000.83 Z 0.35
 G1 X 0130.38 Y 0136.35 E 0000.84 Z 0.35
 G1 X 0130.98 Y 0136.28 E 0000.86 Z 0.35
 G1 X 0131.30 Y 0136.73 E 0000.87 Z 0.35
 G1 X 0131.28 Y 0137.34 E 0000.88 Z 0.35
 G1 X 0131.22 Y 0137.94 E 0000.89 Z 0.35
 G1 X 0131.21 Y 0138.54 E 0000.90 Z 0.35
 G1 X 0131.21 Y 0139.15 E 0000.92 Z 0.35
 G1 X 0131.21 Y 0139.75 E 0000.93 Z 0.35
 G1 X 0131.21 Y 0140.36 E 0000.94 Z 0.35
 G1 X 0131.21 Y 0140.96 E 0000.95 Z 0.35
 G1 X 0131.21 Y 0141.56 E 0000.96 Z 0.35
 G1 X 0131.21 Y 0142.17 E 0000.98 Z 0.35
 G1 X 0131.21 Y 0142.77 E 0000.99 Z 0.35
 G1 X 0131.21 Y 0143.38 E 0001.00 Z 0.35
 G1 X 0131.21 Y 0143.98 E 0001.01 Z 0.35
 G1 X 0131.21 Y 0144.58 E 0001.03 Z 0.35
 G1 X 0131.21 Y 0145.19 E 0001.04 Z 0.35
 G1 X 0131.21 Y 0145.79 E 0001.05 Z 0.35
 G1 X 0131.21 Y 0146.40 E 0001.06 Z 0.35
 G1 X 0131.21 Y 0147.00 E 0001.07 Z 0.35
 G1 X 0131.21 Y 0147.60 E 0001.09 Z 0.35
 G1 X 0131.21 Y 0148.21 E 0001.10 Z 0.35
 G1 X 0131.21 Y 0148.81 E 0001.11 Z 0.35
 G1 X 0131.21 Y 0149.41 E 0001.12 Z 0.35
 G1 X 0131.21 Y 0150.02 E 0001.13 Z 0.35
 G1 X 0131.21 Y 0150.62 E 0001.15 Z 0.35
 G1 X 0131.21 Y 0151.23 E 0001.16 Z 0.35
 G1 X 0131.21 Y 0151.83 E 0001.17 Z 0.35
 G1 X 0131.21 Y 0152.43 E 0001.18 Z 0.35
 G1 X 0131.21 Y 0153.04 E 0001.19 Z 0.35
 G1 X 0131.21 Y 0153.64 E 0001.21 Z 0.35
 G1 X 0131.21 Y 0154.25 E 0001.22 Z 0.35
 G1 X 0131.21 Y 0154.85 E 0001.23 Z 0.35
 G1 X 0131.21 Y 0155.45 E 0001.24 Z 0.35
 G1 X 0131.21 Y 0156.06 E 0001.25 Z 0.35
 G1 X 0131.21 Y 0156.66 E 0001.27 Z 0.35
 G1 X 0131.21 Y 0157.27 E 0001.28 Z 0.35
 G1 X 0131.21 Y 0157.87 E 0001.29 Z 0.35
 G1 X 0131.21 Y 0158.47 E 0001.30 Z 0.35
 G1 X 0131.21 Y 0159.08 E 0001.31 Z 0.35
 G1 X 0131.21 Y 0159.68 E 0001.33 Z 0.35
 G1 X 0131.21 Y 0160.28 E 0001.34 Z 0.35
 G1 X 0131.21 Y 0160.89 E 0001.35 Z 0.35
 G1 X 0131.21 Y 0161.49 E 0001.36 Z 0.35
 G1 X 0131.21 Y 0162.10 E 0001.38 Z 0.35
 G1 X 0131.21 Y 0162.70 E 0001.39 Z 0.35
 G1 X 0131.21 Y 0163.30 E 0001.40 Z 0.35
 G1 X 0131.21 Y 0163.91 E 0001.41 Z 0.35
 G1 X 0131.21 Y 0164.51 E 0001.42 Z 0.35
 G1 X 0131.21 Y 0165.12 E 0001.44 Z 0.35
 G1 X 0131.21 Y 0165.72 E 0001.45 Z 0.35
 G1 X 0131.21 Y 0166.32 E 0001.46 Z 0.35
 G1 X 0131.21 Y 0166.93 E 0001.47 Z 0.35
 G1 X 0131.21 Y 0167.53 E 0001.48 Z 0.35
 G1 X 0131.21 Y 0168.14 E 0001.50 Z 0.35
 G1 X 0131.21 Y 0168.74 E 0001.51 Z 0.35
 G1 X 0131.21 Y 0169.34 E 0001.52 Z 0.35
 G1 X 0131.21 Y 0169.95 E 0001.53 Z 0.35
 G1 X 0131.21 Y 0170.55 E 0001.54 Z 0.35
 G1 X 0131.21 Y 0171.15 E 0001.56 Z 0.35
 G1 X 0131.21 Y 0171.76 E 0001.57 Z 0.35
 G1 X 0131.21 Y 0172.36 E 0001.58 Z 0.35
 G1 X 0131.21 Y 0172.97 E 0001.59 Z 0.35
 G1 X 0131.21 Y 0173.57 E 0001.60 Z 0.35
 G1 X 0131.21 Y 0174.17 E 0001.62 Z 0.35
 G1 X 0131.21 Y 0174.78 E 0001.63 Z 0.35
 G1 X 0131.21 Y 0175.38 E 0001.64 Z 0.35
 G1 X 0131.21 Y 0175.99 E 0001.65 Z 0.35
 G1 X 0131.21 Y 0176.59 E 0001.67 Z 0.35
 G1 X 0131.21 Y 0177.19 E 0001.68 Z 0.35
 G1 X 0131.21 Y 0177.80 E 0001.69 Z 0.35
 G1 X 0131.21 Y 0178.40 E 0001.70 Z 0.35
 G1 X 0131.21 Y 0179.01 E 0001.71 Z 0.35
 G1 X 0131.21 Y 0179.61 E 0001.73 Z 0.35
 G1 X 0131.21 Y 0180.21 E 0001.74 Z 0.35
 G1 X 0131.21 Y 0180.82 E 0001.75 Z 0.35
 G1 X 0131.21 Y 0181.42 E 0001.76 Z 0.35
 G1 X 0131.21 Y 0182.03 E 0001.77 Z 0.35
 G1 X 0131.21 Y 0182.63 E 0001.79 Z 0.35
 G1 X 0131.21 Y 0183.23 E 0001.80 Z 0.35
 G1 X 0131.21 Y 0183.84 E 0001.81 Z 0.35
 G1 X 0131.21 Y 0184.44 E 0001.82 Z 0.35
 G1 X 0131.21 Y 0185.04 E 0001.83 Z 0.35
 G1 X 0131.21 Y 0185.65 E 0001.85 Z 0.35
 G1 X 0131.21 Y 0186.25 E 0001.86 Z 0.35
 G1 X 0131.21 Y 0186.86 E 0001.87 Z 0.35
 G1 X 0131.21 Y 0187.46 E 0001.88 Z 0.35
 G1 X 0131.21 Y 0188.06 E 0001.89 Z 0.35
 G1 X 0131.21 Y 0188.67 E 0001.91 Z 0.35
 G1 X 0131.21 Y 0189.27 E 0001.92 Z 0.35
 G1 X 0131.21 Y 0189.88 E 0001.93 Z 0.35
 G1 X 0131.21 Y 0190.48 E 0001.94 Z 0.35
 G1 X 0131.21 Y 0191.08 E 0001.96 Z 0.35
 G1 X 0131.21 Y 0191.69 E 0001.97 Z 0.35
 G1 X 0131.21 Y 0192.29 E 0001.98 Z 0.35
 G1 X 0131.21 Y 0192.90 E 0001.99 Z 0.35
 G1 X 0131.21 Y 0193.50 E 0002.00 Z 0.35
 G1 X 0131.21 Y 0194.10 E 0002.02 Z 0.35
 G1 X 0131.21 Y 0194.71 E 0002.03 Z 0.35
 G1 X 0131.21 Y 0195.32 E 0002.04 Z 0.35
 G1 X 0131.21 Y 0195.92 E 0002.05 Z 0.35
 G1 X 0131.11 Y 0195.94 E 0002.05 Z 0.35
 G1 X 0130.49 Y 0195.94 E 0002.07 Z 0.35
 G1 X 0129.89 Y 0195.94 E 0002.08 Z 0.35
 G1 X 0129.28 Y 0195.94 E 0002.09 Z 0.35
 G1 X 0128.68 Y 0195.94 E 0002.10 Z 0.35
 G1 X 0128.08 Y 0195.94 E 0002.11 Z 0.35
 G1 X 0127.47 Y 0195.94 E 0002.13 Z 0.35
 G1 X 0126.87 Y 0195.94 E 0002.14 Z 0.35
 G1 X 0126.26 Y 0195.94 E 0002.15 Z 0.35
 G1 X 0125.66 Y 0195.94 E 0002.16 Z 0.35
 G1 X 0125.06 Y 0195.94 E 0002.17 Z 0.35
 G1 X 0124.45 Y 0195.94 E 0002.19 Z 0.35
 G1 X 0123.85 Y 0195.94 E 0002.20 Z 0.35
 G1 X 0123.25 Y 0195.94 E 0002.21 Z 0.35
 G1 X 0122.64 Y 0195.94 E 0002.22 Z 0.35
 G1 X 0122.04 Y 0195.94 E 0002.24 Z 0.35
 G1 X 0121.43 Y 0195.94 E 0002.25 Z 0.35
 G1 X 0120.83 Y 0195.94 E 0002.26 Z 0.35
 G1 X 0120.23 Y 0195.94 E 0002.27 Z 0.35
 G1 X 0119.62 Y 0195.94 E 0002.28 Z 0.35
 G1 X 0119.02 Y 0195.94 E 0002.30 Z 0.35
 G1 X 0118.41 Y 0195.94 E 0002.31 Z 0.35
 G1 X 0117.81 Y 0195.94 E 0002.32 Z 0.35
 G1 X 0117.21 Y 0195.94 E 0002.33 Z 0.35
 G1 X 0116.60 Y 0195.94 E 0002.34 Z 0.35
 G1 X 0116.00 Y 0195.94 E 0002.36 Z 0.35
 G1 X 0115.39 Y 0195.94 E 0002.37 Z 0.35
 G1 X 0114.79 Y 0195.94 E 0002.38 Z 0.35
 G1 X 0114.19 Y 0195.94 E 0002.39 Z 0.35
 G1 X 0113.58 Y 0195.94 E 0002.40 Z 0.35
 G1 X 0112.98 Y 0195.94 E 0002.42 Z 0.35
 G1 X 0112.38 Y 0195.94 E 0002.43 Z 0.35
 G1 X 0111.77 Y 0195.94 E 0002.44 Z 0.35
 G1 X 0111.17 Y 0195.94 E 0002.45 Z 0.35
 G1 X 0110.56 Y 0195.94 E 0002.46 Z 0.35
 G1 X 0109.96 Y 0195.94 E 0002.48 Z 0.35
 G1 X 0109.36 Y 0195.94 E 0002.49 Z 0.35
 G1 X 0108.75 Y 0195.94 E 0002.50 Z 0.35
 G1 X 0108.15 Y 0195.94 E 0002.51 Z 0.35
 G1 X 0107.54 Y 0195.94 E 0002.53 Z 0.35
 G1 X 0106.94 Y 0195.94 E 0002.54 Z 0.35
 G1 X 0106.34 Y 0195.94 E 0002.55 Z 0.35
 G1 X 0105.73 Y 0195.94 E 0002.56 Z 0.35
 G1 X 0105.13 Y 0195.94 E 0002.57 Z 0.35
 G1 X 0104.52 Y 0195.94 E 0002.59 Z 0.35
 G1 X 0103.92 Y 0195.94 E 0002.60 Z 0.35
 G1 X 0103.32 Y 0195.94 E 0002.61 Z 0.35
 G1 X 0102.71 Y 0195.94 E 0002.62 Z 0.35
 G1 X 0102.11 Y 0195.94 E 0002.63 Z 0.35
 G1 X 0101.51 Y 0195.94 E 0002.65 Z 0.35
 G1 X 0100.90 Y 0195.94 E 0002.66 Z 0.35
 G1 X 0100.30 Y 0195.94 E 0002.67 Z 0.35
 G1 X 0099.69 Y 0195.94 E 0002.68 Z 0.35
 G1 X 0099.09 Y 0195.94 E 0002.69 Z 0.35
 G1 X 0098.49 Y 0195.94 E 0002.71 Z 0.35
 G1 X 0097.88 Y 0195.94 E 0002.72 Z 0.35
 G1 X 0097.28 Y 0195.94 E 0002.73 Z 0.35
 G1 X 0096.67 Y 0195.94 E 0002.74 Z 0.35
 G1 X 0096.07 Y 0195.94 E 0002.75 Z 0.35
 G1 X 0095.47 Y 0195.94 E 0002.77 Z 0.35
 G1 X 0094.86 Y 0195.94 E 0002.78 Z 0.35
 G1 X 0094.26 Y 0195.94 E 0002.79 Z 0.35
 G1 X 0093.65 Y 0195.94 E 0002.80 Z 0.35
 G1 X 0093.05 Y 0195.94 E 0002.81 Z 0.35
 G1 X 0092.45 Y 0195.94 E 0002.83 Z 0.35
 G1 X 0091.84 Y 0195.94 E 0002.84 Z 0.35
 G1 X 0091.24 Y 0195.94 E 0002.85 Z 0.35
 G1 X 0090.64 Y 0195.94 E 0002.86 Z 0.35
 G1 X 0090.03 Y 0195.94 E 0002.88 Z 0.35
 G1 X 0089.43 Y 0196.02 E 0002.89 Z 0.35
 G1 X 0088.83 Y 0196.04 E 0002.90 Z 0.35
 G1 X 0088.60 Y 0195.52 E 0002.91 Z 0.35
 G1 X 0088.63 Y 0194.91 E 0002.92 Z 0.35
 G1 X 0088.69 Y 0194.31 E 0002.94 Z 0.35
 G1 X 0088.70 Y 0193.71 E 0002.95 Z 0.35
 G1 X 0088.70 Y 0193.10 E 0002.96 Z 0.35
 G1 X 0088.70 Y 0192.50 E 0002.97 Z 0.35
 G1 X 0088.70 Y 0191.90 E 0002.98 Z 0.35
 G1 X 0088.70 Y 0191.29 E 0003.00 Z 0.35
 G1 X 0088.70 Y 0190.69 E 0003.01 Z 0.35
 G1 X 0088.70 Y 0190.08 E 0003.02 Z 0.35
 G1 X 0088.70 Y 0189.48 E 0003.03 Z 0.35
 G1 X 0088.70 Y 0188.88 E 0003.04 Z 0.35
 G1 X 0088.70 Y 0188.27 E 0003.06 Z 0.35
 G1 X 0088.70 Y 0187.67 E 0003.07 Z 0.35
 G1 X 0088.70 Y 0187.06 E 0003.08 Z 0.35
 G1 X 0088.70 Y 0186.46 E 0003.09 Z 0.35
 G1 X 0088.70 Y 0185.86 E 0003.10 Z 0.35
 G1 X 0088.70 Y 0185.25 E 0003.12 Z 0.35
 G1 X 0088.70 Y 0184.65 E 0003.13 Z 0.35
 G1 X 0088.70 Y 0184.05 E 0003.14 Z 0.35
 G1 X 0088.70 Y 0183.44 E 0003.15 Z 0.35
 G1 X 0088.70 Y 0182.84 E 0003.16 Z 0.35
 G1 X 0088.70 Y 0182.23 E 0003.18 Z 0.35
 G1 X 0088.70 Y 0181.63 E 0003.19 Z 0.35
 G1 X 0088.70 Y 0181.03 E 0003.20 Z 0.35
 G1 X 0088.70 Y 0180.42 E 0003.21 Z 0.35
 G1 X 0088.70 Y 0179.82 E 0003.22 Z 0.35
 G1 X 0088.70 Y 0179.21 E 0003.24 Z 0.35
 G1 X 0088.70 Y 0178.61 E 0003.25 Z 0.35
 G1 X 0088.70 Y 0178.01 E 0003.26 Z 0.35
 G1 X 0088.70 Y 0177.40 E 0003.27 Z 0.35
 G1 X 0088.70 Y 0176.80 E 0003.29 Z 0.35
 G1 X 0088.70 Y 0176.19 E 0003.30 Z 0.35
 G1 X 0088.70 Y 0175.59 E 0003.31 Z 0.35
 G1 X 0088.70 Y 0174.99 E 0003.32 Z 0.35
 G1 X 0088.70 Y 0174.38 E 0003.33 Z 0.35
 G1 X 0088.70 Y 0173.78 E 0003.35 Z 0.35
 G1 X 0088.70 Y 0173.18 E 0003.36 Z 0.35
 G1 X 0088.70 Y 0172.57 E 0003.37 Z 0.35
 G1 X 0088.70 Y 0171.97 E 0003.38 Z 0.35
 G1 X 0088.70 Y 0171.36 E 0003.39 Z 0.35
 G1 X 0088.70 Y 0170.76 E 0003.41 Z 0.35
 G1 X 0088.70 Y 0170.16 E 0003.42 Z 0.35
 G1 X 0088.70 Y 0169.55 E 0003.43 Z 0.35
 G1 X 0088.70 Y 0168.95 E 0003.44 Z 0.35
 G1 X 0088.70 Y 0168.34 E 0003.45 Z 0.35
 G1 X 0088.70 Y 0167.74 E 0003.47 Z 0.35
 G1 X 0088.70 Y 0167.14 E 0003.48 Z 0.35
 G1 X 0088.70 Y 0166.53 E 0003.49 Z 0.35
 G1 X 0088.70 Y 0165.93 E 0003.50 Z 0.35
 G1 X 0088.70 Y 0165.32 E 0003.51 Z 0.35
 G1 X 0088.70 Y 0164.72 E 0003.53 Z 0.35
 G1 X 0088.70 Y 0164.12 E 0003.54 Z 0.35
 G1 X 0088.70 Y 0163.51 E 0003.55 Z 0.35
 G1 X 0088.70 Y 0162.91 E 0003.56 Z 0.35
 G1 X 0088.70 Y 0162.31 E 0003.58 Z 0.35
 G1 X 0088.70 Y 0161.70 E 0003.59 Z 0.35
 G1 X 0088.70 Y 0161.10 E 0003.60 Z 0.35
 G1 X 0088.70 Y 0160.49 E 0003.61 Z 0.35
 G1 X 0088.70 Y 0159.89 E 0003.62 Z 0.35
 G1 X 0088.70 Y 0159.29 E 0003.64 Z 0.35
 G1 X 0088.70 Y 0158.68 E 0003.65 Z 0.35
 G1 X 0088.70 Y 0158.08 E 0003.66 Z 0.35
 G1 X 0088.70 Y 0157.47 E 0003.67 Z 0.35
 G1 X 0088.70 Y 0156.87 E 0003.68 Z 0.35
 G1 X 0088.70 Y 0156.27 E 0003.70 Z 0.35
 G1 X 0088.70 Y 0155.66 E 0003.71 Z 0.35
 G1 X 0088.70 Y 0155.06 E 0003.72 Z 0.35
 G1 X 0088.70 Y 0154.45 E 0003.73 Z 0.35
 G1 X 0088.70 Y 0153.85 E 0003.74 Z 0.35
 G1 X 0088.70 Y 0153.25 E 0003.76 Z 0.35
 G1 X 0088.70 Y 0152.64 E 0003.77 Z 0.35
 G1 X 0088.70 Y 0152.04 E 0003.78 Z 0.35
 G1 X 0088.70 Y 0151.44 E 0003.79 Z 0.35
 G1 X 0088.70 Y 0150.83 E 0003.80 Z 0.35
 G1 X 0088.70 Y 0150.23 E 0003.82 Z 0.35
 G1 X 0088.70 Y 0149.62 E 0003.83 Z 0.35
 G1 X 0088.70 Y 0149.02 E 0003.84 Z 0.35
 G1 X 0088.70 Y 0148.42 E 0003.85 Z 0.35
 G1 X 0088.70 Y 0147.81 E 0003.87 Z 0.35
 G1 X 0088.70 Y 0147.21 E 0003.88 Z 0.35
 G1 X 0088.70 Y 0146.60 E 0003.89 Z 0.35
 G1 X 0088.70 Y 0146.00 E 0003.90 Z 0.35
 G1 X 0088.70 Y 0145.40 E 0003.91 Z 0.35
 G1 X 0088.70 Y 0144.79 E 0003.93 Z 0.35
 G1 X 0088.70 Y 0144.19 E 0003.94 Z 0.35
 G1 X 0088.70 Y 0143.59 E 0003.95 Z 0.35
 G1 X 0088.70 Y 0142.98 E 0003.96 Z 0.35
 G1 X 0088.70 Y 0142.38 E 0003.97 Z 0.35
 G1 X 0088.70 Y 0141.77 E 0003.99 Z 0.35
 G1 X 0088.70 Y 0141.17 E 0004.00 Z 0.35
 G1 X 0088.70 Y 0140.57 E 0004.01 Z 0.35
 G1 X 0088.70 Y 0139.96 E 0004.02 Z 0.35
 G1 X 0088.70 Y 0139.36 E 0004.03 Z 0.35
 G1 X 0088.70 Y 0138.75 E 0004.05 Z 0.35
 G1 X 0088.70 Y 0138.15 E 0004.06 Z 0.35
 G1 X 0088.65 Y 0137.55 E 0004.07 Z 0.35
G1 X 0088.70 Y 0192.34 Z 0.35
 G1 X 0088.71 Y 0192.37 E 0004.07 Z 0.35
 G1 X 0088.72 Y 0192.39 E 0004.07 Z 0.35
 G1 X 0088.73 Y 0192.42 E 0004.07 Z 0.35
 G1 X 0088.73 Y 0192.44 E 0004.07 Z 0.35
 G1 X 0088.74 Y 0192.47 E 0004.07 Z 0.35
 G1 X 0088.75 Y 0192.49 E 0004.07 Z 0.35
 G1 X 0088.76 Y 0192.52 E 0004.07 Z 0.35
 G1 X 0088.77 Y 0192.54 E 0004.07 Z 0.35
 G1 X 0088.78 Y 0192.57 E 0004.08 Z 0.35
 G1 X 0088.79 Y 0192.59 E 0004.08 Z 0.35
 G1 X 0088.80 Y 0192.62 E 0004.08 Z 0.35
 G1 X 0088.81 Y 0192.64 E 0004.08 Z 0.35
 G1 X 0088.82 Y 0192.67 E 0004.08 Z 0.35
 G1 X 0088.82 Y 0192.69 E 0004.08 Z 0.35
 G1 X 0088.83 Y 0192.72 E 0004.08 Z 0.35
 G1 X 0088.84 Y 0192.74 E 0004.08 Z 0.35
 G1 X 0088.85 Y 0192.77 E 0004.08 Z 0.35
 G1 X 0088.86 Y 0192.79 E 0004.08 Z 0.35
 G1 X 0088.87 Y 0192.82 E 0004.08 Z 0.35
 G1 X 0088.88 Y 0192.84 E 0004.08 Z 0.35
 G1 X 0088.89 Y 0192.87 E 0004.08 Z 0.35
 G1 X 0088.90 Y 0192.89 E 0004.08 Z 0.35
 G1 X 0088.91 Y 0192.91 E 0004.08 Z 0.35
 G1 X 0088.91 Y 0192.94 E 0004.08 Z 0.35
 G1 X 0088.92 Y 0192.96 E 0004.08 Z 0.35
 G1 X 0088.93 Y 0192.99 E 0004.08 Z 0.35
 G1 X 0088.94 Y 0193.01 E 0004.08 Z 0.35
 G1 X 0088.95 Y 0193.03 E 0004.09 Z 0.35
 G1 X 0088.96 Y 0193.06 E 0004.09 Z 0.35
 G1 X 0088.97 Y 0193.08 E 0004.09 Z 0.35
 G1 X 0088.98 Y 0193.11 E 0004.09 Z 0.35
 G1 X 0088.99 Y 0193.13 E 0004.09 Z 0.35
 G1 X 0089.00 Y 0193.15 E 0004.09 Z 0.35
 G1 X 0089.00 Y 0193.18 E 0004.09 Z 0.35
 G1 X 0089.01 Y 0193.20 E 0004.09 Z 0.35
 G1 X 0089.02 Y 0193.22 E 0004.09 Z 0.35
 G1 X 0089.03 Y 0193.24 E 0004.09 Z 0.35
 G1 X 0089.04 Y 0193.27 E 0004.09 Z 0.35
 G1 X 0089.05 Y 0193.29 E 0004.09 Z 0.35
